(G-CODE GENERATED BY FLATCAM v8.994 - www.flatcam.org - Version Date: 2020/11/7)

(Name: tbi-F_Cu.gbr_iso_combined_ncc_cnc)
(Type: G-code from Geometry)
(Units: MM)

(Created on Friday, 04 February 2022 at 21:43)

(This preprocessor is used with a motion controller loaded with GRBL firmware.)
(It is configured to be compatible with almost any version of GRBL firmware.)

(TOOL DIAMETER: 1.0 mm)
(Feedrate_XY: 120.0 mm/min)
(Feedrate_Z: 60.0 mm/min)
(Feedrate rapids 1500.0 mm/min)

(Z_Cut: -2.4 mm)
(Z_Move: 2.0 mm)
(Z Start: None mm)
(Z End: 15.0 mm)
(X,Y End: None mm)
(Steps per circle: 64)
(Steps per circle: 64)
(Preprocessor Geometry: grbl_11)

(X range:   19.6580 ...   85.3420  mm)
(Y range: -120.3420 ...  -19.6580  mm)

(Spindle Speed: 0.0 RPM)
G21
G90
G17
G94


G01 F120.00

M5             
G00 Z15.0000
G00 X0.0000 Y0.0000                
T1
M6
(MSG, Change to Tool Dia = 1.0000)
M0
G00 Z15.0000

M03
G01 F120.00
G00 X20.1068 Y-20.1386
G01 F60.00
G01 Z-2.4000
G01 F120.00
G01 X20.0981 Y-20.1474 F120.00
G01 X20.1024 Y-20.1429 F120.00
G01 X20.1068 Y-20.1386 F120.00
G00 Z2.0000
G00 X20.1176 Y-20.1282
G01 F60.00
G01 Z-2.4000
G01 F120.00
G01 X20.1086 Y-20.1368 F120.00
G01 X20.1130 Y-20.1325 F120.00
G01 X20.1176 Y-20.1282 F120.00
G00 Z2.0000
G00 X20.1286 Y-20.1182
G01 F60.00
G01 Z-2.4000
G01 F120.00
G01 X20.1194 Y-20.1265 F120.00
G01 X20.1239 Y-20.1223 F120.00
G01 X20.1286 Y-20.1182 F120.00
G00 Z2.0000
G00 X20.1351 Y-20.1124
G01 F60.00
G01 Z-2.4000
G01 F120.00
G01 X20.1304 Y-20.1165 F120.00
G01 X20.1327 Y-20.1145 F120.00
G01 X20.1351 Y-20.1124 F120.00
G00 Z2.0000
G00 X20.0963 Y-20.1491
G01 F60.00
G01 Z-2.4000
G01 F120.00
G01 X20.0878 Y-20.1582 F120.00
G01 X20.0920 Y-20.1536 F120.00
G01 X20.0963 Y-20.1491 F120.00
G00 Z2.0000
G00 X20.0861 Y-20.1600
G01 F60.00
G01 Z-2.4000
G01 F120.00
G01 X20.0778 Y-20.1692 F120.00
G01 X20.0819 Y-20.1646 F120.00
G01 X20.0861 Y-20.1600 F120.00
G00 Z2.0000
G00 X20.0762 Y-20.1711
G01 F60.00
G01 Z-2.4000
G01 F120.00
G01 X20.0681 Y-20.1805 F120.00
G01 X20.0721 Y-20.1758 F120.00
G01 X20.0762 Y-20.1711 F120.00
G00 Z2.0000
G00 X20.0665 Y-20.1824
G01 F60.00
G01 Z-2.4000
G01 F120.00
G01 X20.0587 Y-20.1921 F120.00
G01 X20.0625 Y-20.1872 F120.00
G01 X20.0665 Y-20.1824 F120.00
G00 Z2.0000
G00 X20.0587 Y-20.1921
G01 F60.00
G01 Z-2.4000
G01 F120.00
G01 X20.0571 Y-20.1940 F120.00
G01 X20.0495 Y-20.2038 F120.00
G01 X20.0533 Y-20.1989 F120.00
G01 X20.0587 Y-20.1921 F120.00
G00 Z2.0000
G00 X20.0481 Y-20.2058
G01 F60.00
G01 Z-2.4000
G01 F120.00
G01 X20.0407 Y-20.2158 F120.00
G01 X20.0443 Y-20.2108 F120.00
G01 X20.0481 Y-20.2058 F120.00
G00 Z2.0000
G00 X20.0393 Y-20.2178
G01 F60.00
G01 Z-2.4000
G01 F120.00
G01 X20.0322 Y-20.2280 F120.00
G01 X20.0356 Y-20.2229 F120.00
G01 X20.0393 Y-20.2178 F120.00
G00 Z2.0000
G00 X20.0308 Y-20.2301
G01 F60.00
G01 Z-2.4000
G01 F120.00
G01 X20.0239 Y-20.2405 F120.00
G01 X20.0273 Y-20.2352 F120.00
G01 X20.0308 Y-20.2301 F120.00
G00 Z2.0000
G00 X20.0226 Y-20.2425
G01 F60.00
G01 Z-2.4000
G01 F120.00
G01 X20.0160 Y-20.2531 F120.00
G01 X20.0192 Y-20.2478 F120.00
G01 X20.0226 Y-20.2425 F120.00
G00 Z2.0000
G00 X20.0147 Y-20.2552
G01 F60.00
G01 Z-2.4000
G01 F120.00
G01 X20.0084 Y-20.2659 F120.00
G01 X20.0115 Y-20.2605 F120.00
G01 X20.0147 Y-20.2552 F120.00
G00 Z2.0000
G00 X20.0072 Y-20.2680
G01 F60.00
G01 Z-2.4000
G01 F120.00
G01 X20.0011 Y-20.2789 F120.00
G01 X20.0041 Y-20.2734 F120.00
G01 X20.0072 Y-20.2680 F120.00
G00 Z2.0000
G00 X19.9999 Y-20.2811
G01 F60.00
G01 Z-2.4000
G01 F120.00
G01 X19.9941 Y-20.2921 F120.00
G01 X19.9970 Y-20.2865 F120.00
G01 X19.9999 Y-20.2811 F120.00
G00 Z2.0000
G00 X19.9930 Y-20.2943
G01 F60.00
G01 Z-2.4000
G01 F120.00
G01 X19.9875 Y-20.3054 F120.00
G01 X19.9902 Y-20.2998 F120.00
G01 X19.9930 Y-20.2943 F120.00
G00 Z2.0000
G00 X19.9864 Y-20.3076
G01 F60.00
G01 Z-2.4000
G01 F120.00
G01 X19.9812 Y-20.3189 F120.00
G01 X19.9837 Y-20.3132 F120.00
G01 X19.9864 Y-20.3076 F120.00
G00 Z2.0000
G00 X19.9802 Y-20.3212
G01 F60.00
G01 Z-2.4000
G01 F120.00
G01 X19.9752 Y-20.3325 F120.00
G01 X19.9776 Y-20.3268 F120.00
G01 X19.9802 Y-20.3212 F120.00
G00 Z2.0000
G00 X19.9743 Y-20.3348
G01 F60.00
G01 Z-2.4000
G01 F120.00
G01 X19.9696 Y-20.3463 F120.00
G01 X19.9719 Y-20.3406 F120.00
G01 X19.9743 Y-20.3348 F120.00
G00 Z2.0000
G00 X19.9687 Y-20.3487
G01 F60.00
G01 Z-2.4000
G01 F120.00
G01 X19.9643 Y-20.3603 F120.00
G01 X19.9664 Y-20.3544 F120.00
G01 X19.9687 Y-20.3487 F120.00
G00 Z2.0000
G00 X19.9635 Y-20.3626
G01 F60.00
G01 Z-2.4000
G01 F120.00
G01 X19.9594 Y-20.3743 F120.00
G01 X19.9614 Y-20.3685 F120.00
G01 X19.9635 Y-20.3626 F120.00
G00 Z2.0000
G00 X19.9586 Y-20.3767
G01 F60.00
G01 Z-2.4000
G01 F120.00
G01 X19.9548 Y-20.3885 F120.00
G01 X19.9566 Y-20.3826 F120.00
G01 X19.9586 Y-20.3767 F120.00
G00 Z2.0000
G00 X19.9541 Y-20.3909
G01 F60.00
G01 Z-2.4000
G01 F120.00
G01 X19.9523 Y-20.3968 F120.00
G01 X19.9532 Y-20.3939 F120.00
G01 X19.9541 Y-20.3909 F120.00
G00 Z2.0000
G00 X19.9323 Y-20.4650
G01 F60.00
G01 Z-2.4000
G01 F120.00
G01 X19.9307 Y-20.4707 F120.00
G01 X19.9315 Y-20.4678 F120.00
G01 X19.9323 Y-20.4650 F120.00
G00 Z2.0000
G00 X19.9300 Y-20.4730
G01 F60.00
G01 Z-2.4000
G01 F120.00
G01 X19.9269 Y-20.4845 F120.00
G01 X19.9284 Y-20.4787 F120.00
G01 X19.9300 Y-20.4730 F120.00
G00 Z2.0000
G00 X19.9264 Y-20.4868
G01 F60.00
G01 Z-2.4000
G01 F120.00
G01 X19.9235 Y-20.4983 F120.00
G01 X19.9249 Y-20.4925 F120.00
G01 X19.9264 Y-20.4868 F120.00
G00 Z2.0000
G00 X19.9230 Y-20.5007
G01 F60.00
G01 Z-2.4000
G01 F120.00
G01 X19.9205 Y-20.5123 F120.00
G01 X19.9217 Y-20.5065 F120.00
G01 X19.9230 Y-20.5007 F120.00
G00 Z2.0000
G00 X19.9200 Y-20.5146
G01 F60.00
G01 Z-2.4000
G01 F120.00
G01 X19.9178 Y-20.5263 F120.00
G01 X19.9188 Y-20.5204 F120.00
G01 X19.9200 Y-20.5146 F120.00
G00 Z2.0000
G00 X19.9173 Y-20.5286
G01 F60.00
G01 Z-2.4000
G01 F120.00
G01 X19.9154 Y-20.5404 F120.00
G01 X19.9163 Y-20.5345 F120.00
G01 X19.9173 Y-20.5286 F120.00
G00 Z2.0000
G00 X19.9150 Y-20.5427
G01 F60.00
G01 Z-2.4000
G01 F120.00
G01 X19.9133 Y-20.5545 F120.00
G01 X19.9141 Y-20.5486 F120.00
G01 X19.9150 Y-20.5427 F120.00
G00 Z2.0000
G00 X19.9130 Y-20.5569
G01 F60.00
G01 Z-2.4000
G01 F120.00
G01 X19.9116 Y-20.5687 F120.00
G01 X19.9113 Y-20.5710 F120.00
G01 X19.9122 Y-20.5628 F120.00
G01 X19.9130 Y-20.5569 F120.00
G00 Z2.0000
G00 X19.9113 Y-20.5710
G01 F60.00
G01 Z-2.4000
G01 F120.00
G01 X19.9102 Y-20.5829 F120.00
G01 X19.9107 Y-20.5770 F120.00
G01 X19.9113 Y-20.5710 F120.00
G00 Z2.0000
G00 X19.9100 Y-20.5853
G01 F60.00
G01 Z-2.4000
G01 F120.00
G01 X19.9091 Y-20.5971 F120.00
G01 X19.9095 Y-20.5912 F120.00
G01 X19.9100 Y-20.5853 F120.00
G00 Z2.0000
G00 X19.9090 Y-20.5995
G01 F60.00
G01 Z-2.4000
G01 F120.00
G01 X19.9084 Y-20.6114 F120.00
G01 X19.9086 Y-20.6054 F120.00
G01 X19.9090 Y-20.5995 F120.00
G00 Z2.0000
G00 X19.9083 Y-20.6138
G01 F60.00
G01 Z-2.4000
G01 F120.00
G01 X19.9081 Y-20.6257 F120.00
G01 X19.9081 Y-20.6197 F120.00
G01 X19.9083 Y-20.6138 F120.00
G00 Z2.0000
G00 X19.9080 Y-20.6281
G01 F60.00
G01 Z-2.4000
G01 F120.00
G01 X19.9080 Y-20.6340 F120.00
G01 X19.9080 Y-20.6310 F120.00
G01 X19.9080 Y-20.6281 F120.00
G00 Z2.0000
G00 X20.1935 Y-20.0619
G01 F60.00
G01 Z-2.4000
G01 F120.00
G01 X20.1887 Y-20.0659 F120.00
G01 X20.1911 Y-20.0639 F120.00
G01 X20.1935 Y-20.0619 F120.00
G00 Z2.0000
G00 X20.2050 Y-20.0523
G01 F60.00
G01 Z-2.4000
G01 F120.00
G01 X20.1954 Y-20.0603 F120.00
G01 X20.2002 Y-20.0562 F120.00
G01 X20.2050 Y-20.0523 F120.00
G00 Z2.0000
G00 X20.2168 Y-20.0431
G01 F60.00
G01 Z-2.4000
G01 F120.00
G01 X20.2070 Y-20.0508 F120.00
G01 X20.2119 Y-20.0468 F120.00
G01 X20.2168 Y-20.0431 F120.00
G00 Z2.0000
G00 X20.2288 Y-20.0341
G01 F60.00
G01 Z-2.4000
G01 F120.00
G01 X20.2188 Y-20.0415 F120.00
G01 X20.2238 Y-20.0377 F120.00
G01 X20.2288 Y-20.0341 F120.00
G00 Z2.0000
G00 X20.2411 Y-20.0254
G01 F60.00
G01 Z-2.4000
G01 F120.00
G01 X20.2309 Y-20.0326 F120.00
G01 X20.2359 Y-20.0290 F120.00
G01 X20.2411 Y-20.0254 F120.00
G00 Z2.0000
G00 X20.2535 Y-20.0171
G01 F60.00
G01 Z-2.4000
G01 F120.00
G01 X20.2431 Y-20.0240 F120.00
G01 X20.2483 Y-20.0205 F120.00
G01 X20.2535 Y-20.0171 F120.00
G00 Z2.0000
G00 X20.2662 Y-20.0090
G01 F60.00
G01 Z-2.4000
G01 F120.00
G01 X20.2556 Y-20.0157 F120.00
G01 X20.2609 Y-20.0123 F120.00
G01 X20.2662 Y-20.0090 F120.00
G00 Z2.0000
G00 X20.2790 Y-20.0013
G01 F60.00
G01 Z-2.4000
G01 F120.00
G01 X20.2683 Y-20.0077 F120.00
G01 X20.2736 Y-20.0044 F120.00
G01 X20.2790 Y-20.0013 F120.00
G00 Z2.0000
G00 X20.2921 Y-19.9939
G01 F60.00
G01 Z-2.4000
G01 F120.00
G01 X20.2812 Y-20.0000 F120.00
G01 X20.2866 Y-19.9969 F120.00
G01 X20.2921 Y-19.9939 F120.00
G00 Z2.0000
G00 X20.3053 Y-19.9868
G01 F60.00
G01 Z-2.4000
G01 F120.00
G01 X20.2943 Y-19.9927 F120.00
G01 X20.2997 Y-19.9897 F120.00
G01 X20.3053 Y-19.9868 F120.00
G00 Z2.0000
G00 X20.3187 Y-19.9801
G01 F60.00
G01 Z-2.4000
G01 F120.00
G01 X20.3075 Y-19.9857 F120.00
G01 X20.3131 Y-19.9828 F120.00
G01 X20.3187 Y-19.9801 F120.00
G00 Z2.0000
G00 X20.3323 Y-19.9737
G01 F60.00
G01 Z-2.4000
G01 F120.00
G01 X20.3209 Y-19.9790 F120.00
G01 X20.3266 Y-19.9763 F120.00
G01 X20.3323 Y-19.9737 F120.00
G00 Z2.0000
G00 X20.3460 Y-19.9676
G01 F60.00
G01 Z-2.4000
G01 F120.00
G01 X20.3345 Y-19.9727 F120.00
G01 X20.3402 Y-19.9701 F120.00
G01 X20.3460 Y-19.9676 F120.00
G00 Z2.0000
G00 X20.3598 Y-19.9619
G01 F60.00
G01 Z-2.4000
G01 F120.00
G01 X20.3483 Y-19.9666 F120.00
G01 X20.3540 Y-19.9642 F120.00
G01 X20.3598 Y-19.9619 F120.00
G00 Z2.0000
G00 X20.3738 Y-19.9565
G01 F60.00
G01 Z-2.4000
G01 F120.00
G01 X20.3621 Y-19.9610 F120.00
G01 X20.3680 Y-19.9587 F120.00
G01 X20.3738 Y-19.9565 F120.00
G00 Z2.0000
G00 X20.3880 Y-19.9515
G01 F60.00
G01 Z-2.4000
G01 F120.00
G01 X20.3762 Y-19.9557 F120.00
G01 X20.3820 Y-19.9535 F120.00
G01 X20.3880 Y-19.9515 F120.00
G00 Z2.0000
G00 X20.4022 Y-19.9469
G01 F60.00
G01 Z-2.4000
G01 F120.00
G01 X20.3903 Y-19.9507 F120.00
G01 X20.3962 Y-19.9487 F120.00
G01 X20.4022 Y-19.9469 F120.00
G00 Z2.0000
G00 X20.4166 Y-19.9426
G01 F60.00
G01 Z-2.4000
G01 F120.00
G01 X20.4046 Y-19.9461 F120.00
G01 X20.4106 Y-19.9443 F120.00
G01 X20.4166 Y-19.9426 F120.00
G00 Z2.0000
G00 X20.4310 Y-19.9386
G01 F60.00
G01 Z-2.4000
G01 F120.00
G01 X20.4190 Y-19.9419 F120.00
G01 X20.4250 Y-19.9402 F120.00
G01 X20.4310 Y-19.9386 F120.00
G00 Z2.0000
G00 X20.4456 Y-19.9350
G01 F60.00
G01 Z-2.4000
G01 F120.00
G01 X20.4335 Y-19.9380 F120.00
G01 X20.4395 Y-19.9364 F120.00
G01 X20.4456 Y-19.9350 F120.00
G00 Z2.0000
G00 X20.4541 Y-19.9331
G01 F60.00
G01 Z-2.4000
G01 F120.00
G01 X20.4480 Y-19.9345 F120.00
G01 X20.4511 Y-19.9338 F120.00
G01 X20.4541 Y-19.9331 F120.00
G00 Z2.0000
G00 X20.5123 Y-19.9205
G01 F60.00
G01 Z-2.4000
G01 F120.00
G01 X20.5065 Y-19.9217 F120.00
G01 X20.5094 Y-19.9211 F120.00
G01 X20.5123 Y-19.9205 F120.00
G00 Z2.0000
G00 X20.5263 Y-19.9178
G01 F60.00
G01 Z-2.4000
G01 F120.00
G01 X20.5146 Y-19.9200 F120.00
G01 X20.5204 Y-19.9188 F120.00
G01 X20.5263 Y-19.9178 F120.00
G00 Z2.0000
G00 X20.5404 Y-19.9154
G01 F60.00
G01 Z-2.4000
G01 F120.00
G01 X20.5286 Y-19.9173 F120.00
G01 X20.5345 Y-19.9163 F120.00
G01 X20.5404 Y-19.9154 F120.00
G00 Z2.0000
G00 X20.5545 Y-19.9133
G01 F60.00
G01 Z-2.4000
G01 F120.00
G01 X20.5427 Y-19.9150 F120.00
G01 X20.5486 Y-19.9141 F120.00
G01 X20.5545 Y-19.9133 F120.00
G00 Z2.0000
G00 X20.5687 Y-19.9116
G01 F60.00
G01 Z-2.4000
G01 F120.00
G01 X20.5569 Y-19.9130 F120.00
G01 X20.5628 Y-19.9122 F120.00
G01 X20.5687 Y-19.9116 F120.00
G00 Z2.0000
G00 X20.5829 Y-19.9102
G01 F60.00
G01 Z-2.4000
G01 F120.00
G01 X20.5710 Y-19.9113 F120.00
G01 X20.5770 Y-19.9107 F120.00
G01 X20.5829 Y-19.9102 F120.00
G00 Z2.0000
G00 X20.5971 Y-19.9091
G01 F60.00
G01 Z-2.4000
G01 F120.00
G01 X20.5853 Y-19.9100 F120.00
G01 X20.5912 Y-19.9095 F120.00
G01 X20.5971 Y-19.9091 F120.00
G00 Z2.0000
G00 X20.6114 Y-19.9084
G01 F60.00
G01 Z-2.4000
G01 F120.00
G01 X20.5995 Y-19.9090 F120.00
G01 X20.6054 Y-19.9086 F120.00
G01 X20.6114 Y-19.9084 F120.00
G00 Z2.0000
G00 X20.6257 Y-19.9081
G01 F60.00
G01 Z-2.4000
G01 F120.00
G01 X20.6138 Y-19.9083 F120.00
G01 X20.6197 Y-19.9081 F120.00
G01 X20.6257 Y-19.9081 F120.00
G00 Z2.0000
G00 X20.6340 Y-19.9080
G01 F60.00
G01 Z-2.4000
G01 F120.00
G01 X20.6281 Y-19.9080 F120.00
G01 X20.6310 Y-19.9080 F120.00
G01 X20.6340 Y-19.9080 F120.00
G00 Z2.0000
G00 X36.0216 Y-19.9080
G01 F60.00
G01 Z-2.4000
G01 F120.00
G01 X35.9873 Y-19.9090 F120.00
G01 X35.9589 Y-19.9113 F120.00
G01 X35.9308 Y-19.9149 F120.00
G01 X35.9004 Y-19.9204 F120.00
G01 X35.8751 Y-19.9262 F120.00
G01 X35.8613 Y-19.9298 F120.00
G01 X35.7855 Y-19.9519 F120.00
G01 X35.7631 Y-19.9589 F120.00
G01 X35.7351 Y-19.9691 F120.00
G01 X35.7077 Y-19.9806 F120.00
G01 X35.6809 Y-19.9934 F120.00
G01 X35.6548 Y-20.0076 F120.00
G01 X35.6294 Y-20.0231 F120.00
G01 X35.6048 Y-20.0397 F120.00
G01 X35.5810 Y-20.0576 F120.00
G01 X35.5582 Y-20.0767 F120.00
G01 X35.5364 Y-20.0968 F120.00
G01 X35.5172 Y-20.1162 F120.00
G01 X35.5072 Y-20.1271 F120.00
G01 X35.4548 Y-20.1872 F120.00
G01 X35.4396 Y-20.2052 F120.00
G01 X35.4230 Y-20.2269 F120.00
G01 X35.4060 Y-20.2514 F120.00
G01 X35.3902 Y-20.2767 F120.00
G01 X35.3757 Y-20.3027 F120.00
G01 X35.3615 Y-20.3317 F120.00
G01 X35.3498 Y-20.3591 F120.00
G01 X35.3395 Y-20.3870 F120.00
G01 X35.3305 Y-20.4155 F120.00
G01 X35.3230 Y-20.4443 F120.00
G01 X35.3173 Y-20.4710 F120.00
G01 X35.3135 Y-20.4943 F120.00
G01 X35.3020 Y-20.5731 F120.00
G01 X35.3002 Y-20.5879 F120.00
G01 X35.2979 Y-20.6152 F120.00
G01 X35.2969 Y-20.6449 F120.00
G01 X35.2969 Y-20.6623 F120.00
G01 X35.2980 Y-20.6896 F120.00
G01 X35.3007 Y-20.7193 F120.00
G01 X35.3029 Y-20.7365 F120.00
G01 X35.3073 Y-20.7635 F120.00
G01 X35.3108 Y-20.7805 F120.00
G01 X35.3180 Y-20.8095 F120.00
G01 X35.3257 Y-20.8356 F120.00
G01 X35.3313 Y-20.8521 F120.00
G01 X35.3365 Y-20.8661 F120.00
G01 X35.3468 Y-20.8914 F120.00
G01 X35.3613 Y-20.9236 F120.00
G01 X35.3697 Y-20.9442 F120.00
G01 X35.3807 Y-20.9687 F120.00
G01 X35.3940 Y-20.9947 F120.00
G01 X35.4080 Y-21.0192 F120.00
G01 X35.4080 Y-28.9080 F120.00
G01 X34.5920 Y-28.9080 F120.00
G01 X34.5920 Y-21.0199 F120.00
G01 X34.6033 Y-21.0010 F120.00
G01 X34.6161 Y-20.9772 F120.00
G01 X34.6288 Y-20.9507 F120.00
G01 X34.6357 Y-20.9349 F120.00
G01 X34.6670 Y-20.8539 F120.00
G01 X34.6764 Y-20.8254 F120.00
G01 X34.6838 Y-20.7988 F120.00
G01 X34.6878 Y-20.7818 F120.00
G01 X34.6932 Y-20.7548 F120.00
G01 X34.6976 Y-20.7251 F120.00
G01 X34.6994 Y-20.7076 F120.00
G01 X34.7015 Y-20.6777 F120.00
G01 X34.7020 Y-20.6501 F120.00
G01 X34.7017 Y-20.6326 F120.00
G01 X34.7002 Y-20.6051 F120.00
G01 X34.6968 Y-20.5727 F120.00
G01 X34.6858 Y-20.4963 F120.00
G01 X34.6820 Y-20.4730 F120.00
G01 X34.6765 Y-20.4462 F120.00
G01 X34.6690 Y-20.4174 F120.00
G01 X34.6601 Y-20.3889 F120.00
G01 X34.6490 Y-20.3587 F120.00
G01 X34.6372 Y-20.3313 F120.00
G01 X34.6252 Y-20.3067 F120.00
G01 X34.6182 Y-20.2936 F120.00
G01 X34.6033 Y-20.2678 F120.00
G01 X34.5871 Y-20.2428 F120.00
G01 X34.5696 Y-20.2186 F120.00
G01 X34.5494 Y-20.1935 F120.00
G01 X34.4948 Y-20.1304 F120.00
G01 X34.4831 Y-20.1176 F120.00
G01 X34.4622 Y-20.0963 F120.00
G01 X34.4402 Y-20.0762 F120.00
G01 X34.4173 Y-20.0571 F120.00
G01 X34.3935 Y-20.0393 F120.00
G01 X34.3688 Y-20.0226 F120.00
G01 X34.3433 Y-20.0072 F120.00
G01 X34.3171 Y-19.9930 F120.00
G01 X34.2902 Y-19.9802 F120.00
G01 X34.2627 Y-19.9687 F120.00
G01 X34.2370 Y-19.9594 F120.00
G01 X34.2145 Y-19.9523 F120.00
G01 X34.1384 Y-19.9300 F120.00
G01 X34.1246 Y-19.9264 F120.00
G01 X34.0990 Y-19.9205 F120.00
G01 X34.0710 Y-19.9154 F120.00
G01 X34.0403 Y-19.9113 F120.00
G01 X34.0118 Y-19.9090 F120.00
G01 X33.9773 Y-19.9080 F120.00
G01 X36.0216 Y-19.9080 F120.00
G00 Z2.0000
G00 X35.9065 Y-33.1316
G01 F60.00
G01 Z-2.4000
G01 F120.00
G01 X35.8866 Y-33.1380 F120.00
G01 X35.8610 Y-33.1474 F120.00
G01 X35.8449 Y-33.1541 F120.00
G01 X35.8178 Y-33.1665 F120.00
G01 X35.7936 Y-33.1791 F120.00
G01 X35.7678 Y-33.1940 F120.00
G01 X35.7531 Y-33.2033 F120.00
G01 X35.7306 Y-33.2188 F120.00
G01 X35.7167 Y-33.2292 F120.00
G01 X35.6954 Y-33.2463 F120.00
G01 X35.6351 Y-33.2984 F120.00
G01 X35.6194 Y-33.3125 F120.00
G01 X35.6068 Y-33.3245 F120.00
G01 X35.5878 Y-33.3442 F120.00
G01 X35.5681 Y-33.3665 F120.00
G01 X35.5571 Y-33.3800 F120.00
G01 X35.5407 Y-33.4018 F120.00
G01 X35.5308 Y-33.4161 F120.00
G01 X35.5160 Y-33.4391 F120.00
G01 X35.5072 Y-33.4540 F120.00
G01 X35.4941 Y-33.4780 F120.00
G01 X35.4864 Y-33.4936 F120.00
G01 X35.4752 Y-33.5185 F120.00
G01 X35.4687 Y-33.5346 F120.00
G01 X35.4594 Y-33.5603 F120.00
G01 X35.4541 Y-33.5769 F120.00
G01 X35.4323 Y-33.6509 F120.00
G01 X35.4264 Y-33.6728 F120.00
G01 X35.4205 Y-33.6983 F120.00
G01 X35.4154 Y-33.7264 F120.00
G01 X35.4130 Y-33.7429 F120.00
G01 X35.4102 Y-33.7689 F120.00
G01 X35.4084 Y-33.7974 F120.00
G01 X35.4080 Y-33.8200 F120.00
G01 X35.4080 Y-38.9080 F120.00
G01 X34.5920 Y-38.9080 F120.00
G01 X34.5920 Y-33.8200 F120.00
G01 X34.5915 Y-33.7966 F120.00
G01 X34.5897 Y-33.7672 F120.00
G01 X34.5875 Y-33.7464 F120.00
G01 X34.5826 Y-33.7074 F120.00
G01 X34.5784 Y-33.6813 F120.00
G01 X34.5751 Y-33.6648 F120.00
G01 X34.5691 Y-33.6390 F120.00
G01 X34.5612 Y-33.6113 F120.00
G01 X34.5520 Y-33.5840 F120.00
G01 X34.5460 Y-33.5683 F120.00
G01 X34.5357 Y-33.5439 F120.00
G01 X34.5286 Y-33.5286 F120.00
G01 X34.5166 Y-33.5051 F120.00
G01 X34.5084 Y-33.4904 F120.00
G01 X34.4694 Y-33.4240 F120.00
G01 X34.4584 Y-33.4060 F120.00
G01 X34.4418 Y-33.3813 F120.00
G01 X34.4240 Y-33.3574 F120.00
G01 X34.4130 Y-33.3439 F120.00
G01 X34.3951 Y-33.3233 F120.00
G01 X34.3832 Y-33.3106 F120.00
G01 X34.3619 Y-33.2898 F120.00
G01 X34.3415 Y-33.2716 F120.00
G01 X34.3281 Y-33.2605 F120.00
G01 X34.3065 Y-33.2439 F120.00
G01 X34.2923 Y-33.2338 F120.00
G01 X34.2799 Y-33.2255 F120.00
G01 X34.2567 Y-33.2111 F120.00
G01 X34.2416 Y-33.2025 F120.00
G01 X34.2229 Y-33.1926 F120.00
G01 X34.1596 Y-33.1606 F120.00
G01 X34.1406 Y-33.1514 F120.00
G01 X34.1132 Y-33.1396 F120.00
G01 X34.0935 Y-33.1321 F120.00
G01 X34.0957 Y-33.1030 F120.00
G01 X34.0993 Y-33.0294 F120.00
G01 X34.1000 Y-33.0061 F120.00
G01 X34.0999 Y-32.9914 F120.00
G01 X34.0993 Y-32.9706 F120.00
G01 X34.0953 Y-32.8909 F120.00
G01 X34.0935 Y-32.8684 F120.00
G01 X34.1134 Y-32.8620 F120.00
G01 X34.1390 Y-32.8526 F120.00
G01 X34.1551 Y-32.8459 F120.00
G01 X34.1799 Y-32.8346 F120.00
G01 X34.1955 Y-32.8268 F120.00
G01 X34.2194 Y-32.8136 F120.00
G01 X34.2343 Y-32.8047 F120.00
G01 X34.2572 Y-32.7898 F120.00
G01 X34.2714 Y-32.7797 F120.00
G01 X34.2951 Y-32.7616 F120.00
G01 X34.3113 Y-32.7481 F120.00
G01 X34.3696 Y-32.6975 F120.00
G01 X34.3932 Y-32.6755 F120.00
G01 X34.4122 Y-32.6558 F120.00
G01 X34.4222 Y-32.6448 F120.00
G01 X34.4335 Y-32.6316 F120.00
G01 X34.4505 Y-32.6102 F120.00
G01 X34.4607 Y-32.5962 F120.00
G01 X34.4761 Y-32.5736 F120.00
G01 X34.4853 Y-32.5588 F120.00
G01 X34.4989 Y-32.5351 F120.00
G01 X34.5136 Y-32.5064 F120.00
G01 X34.5198 Y-32.4929 F120.00
G01 X34.5304 Y-32.4677 F120.00
G01 X34.5406 Y-32.4397 F120.00
G01 X34.5477 Y-32.4172 F120.00
G01 X34.5677 Y-32.3491 F120.00
G01 X34.5736 Y-32.3272 F120.00
G01 X34.5770 Y-32.3134 F120.00
G01 X34.5822 Y-32.2877 F120.00
G01 X34.5870 Y-32.2571 F120.00
G01 X34.5898 Y-32.2311 F120.00
G01 X34.5909 Y-32.2169 F120.00
G01 X34.5919 Y-32.1883 F120.00
G01 X34.5920 Y-31.0920 F120.00
G01 X35.4080 Y-31.0920 F120.00
G01 X35.4081 Y-32.1886 F120.00
G01 X35.4085 Y-32.2034 F120.00
G01 X35.4101 Y-32.2304 F120.00
G01 X35.4118 Y-32.2475 F120.00
G01 X35.4163 Y-32.2843 F120.00
G01 X35.4216 Y-32.3187 F120.00
G01 X35.4280 Y-32.3493 F120.00
G01 X35.4347 Y-32.3749 F120.00
G01 X35.4395 Y-32.3910 F120.00
G01 X35.4480 Y-32.4160 F120.00
G01 X35.4531 Y-32.4295 F120.00
G01 X35.4595 Y-32.4451 F120.00
G01 X35.4703 Y-32.4692 F120.00
G01 X35.4845 Y-32.4970 F120.00
G01 X35.4946 Y-32.5148 F120.00
G01 X35.5306 Y-32.5760 F120.00
G01 X35.5416 Y-32.5940 F120.00
G01 X35.5497 Y-32.6065 F120.00
G01 X35.5596 Y-32.6208 F120.00
G01 X35.5760 Y-32.6426 F120.00
G01 X35.5870 Y-32.6561 F120.00
G01 X35.6066 Y-32.6785 F120.00
G01 X35.6256 Y-32.6982 F120.00
G01 X35.6363 Y-32.7085 F120.00
G01 X35.6604 Y-32.7300 F120.00
G01 X35.6719 Y-32.7395 F120.00
G01 X35.6935 Y-32.7561 F120.00
G01 X35.7077 Y-32.7662 F120.00
G01 X35.7306 Y-32.7812 F120.00
G01 X35.7455 Y-32.7901 F120.00
G01 X35.7694 Y-32.8034 F120.00
G01 X35.8460 Y-32.8422 F120.00
G01 X35.8753 Y-32.8556 F120.00
G01 X35.9065 Y-32.8679 F120.00
G01 X35.9043 Y-32.8970 F120.00
G01 X35.9007 Y-32.9706 F120.00
G01 X35.9000 Y-32.9939 F120.00
G01 X35.9001 Y-33.0086 F120.00
G01 X35.9007 Y-33.0294 F120.00
G01 X35.9047 Y-33.1091 F120.00
G01 X35.9065 Y-33.1316 F120.00
G00 Z2.0000
G00 X34.5920 Y-41.0920
G01 F60.00
G01 Z-2.4000
G01 F120.00
G01 X35.4080 Y-41.0920 F120.00
G01 X35.4080 Y-48.9080 F120.00
G01 X34.5920 Y-48.9080 F120.00
G01 X34.5920 Y-41.0920 F120.00
G01 X34.5920 Y-41.1216 F120.00
G01 X34.6177 Y-41.1188 F120.00
G01 X34.7131 Y-41.1106 F120.00
G01 X34.8086 Y-41.1047 F120.00
G01 X34.9043 Y-41.1012 F120.00
G01 X35.0000 Y-41.1000 F120.00
G01 X35.0957 Y-41.1012 F120.00
G01 X35.1914 Y-41.1047 F120.00
G01 X35.2869 Y-41.1106 F120.00
G01 X35.3823 Y-41.1188 F120.00
G01 X35.4080 Y-41.1216 F120.00
G01 X35.4080 Y-41.7254 F120.00
G01 X35.4040 Y-41.7248 F120.00
G01 X35.3235 Y-41.7159 F120.00
G01 X35.2428 Y-41.7089 F120.00
G01 X35.1619 Y-41.7040 F120.00
G01 X35.0810 Y-41.7010 F120.00
G01 X35.0000 Y-41.7000 F120.00
G01 X34.9190 Y-41.7010 F120.00
G01 X34.8381 Y-41.7040 F120.00
G01 X34.7572 Y-41.7089 F120.00
G01 X34.6765 Y-41.7159 F120.00
G01 X34.5960 Y-41.7248 F120.00
G01 X34.5920 Y-41.7254 F120.00
G01 X34.5920 Y-42.3311 F120.00
G01 X34.6038 Y-42.3292 F120.00
G01 X34.6695 Y-42.3203 F120.00
G01 X34.7354 Y-42.3130 F120.00
G01 X34.8014 Y-42.3073 F120.00
G01 X34.8675 Y-42.3033 F120.00
G01 X34.9337 Y-42.3008 F120.00
G01 X35.0000 Y-42.3000 F120.00
G01 X35.0663 Y-42.3008 F120.00
G01 X35.1325 Y-42.3033 F120.00
G01 X35.1986 Y-42.3073 F120.00
G01 X35.2646 Y-42.3130 F120.00
G01 X35.3305 Y-42.3203 F120.00
G01 X35.3962 Y-42.3292 F120.00
G01 X35.4080 Y-42.3311 F120.00
G01 X35.4080 Y-42.9400 F120.00
G01 X35.3590 Y-42.9309 F120.00
G01 X35.3081 Y-42.9227 F120.00
G01 X35.2571 Y-42.9158 F120.00
G01 X35.2058 Y-42.9101 F120.00
G01 X35.1545 Y-42.9057 F120.00
G01 X35.1030 Y-42.9025 F120.00
G01 X35.0515 Y-42.9006 F120.00
G01 X35.0000 Y-42.9000 F120.00
G01 X34.9485 Y-42.9006 F120.00
G01 X34.8970 Y-42.9025 F120.00
G01 X34.8455 Y-42.9057 F120.00
G01 X34.7942 Y-42.9101 F120.00
G01 X34.7429 Y-42.9158 F120.00
G01 X34.6919 Y-42.9227 F120.00
G01 X34.6410 Y-42.9309 F120.00
G01 X34.5920 Y-42.9400 F120.00
G01 X34.5920 Y-43.5566 F120.00
G01 X34.5999 Y-43.5543 F120.00
G01 X34.6355 Y-43.5450 F120.00
G01 X34.6713 Y-43.5364 F120.00
G01 X34.7074 Y-43.5288 F120.00
G01 X34.7436 Y-43.5221 F120.00
G01 X34.7799 Y-43.5162 F120.00
G01 X34.8164 Y-43.5113 F120.00
G01 X34.8530 Y-43.5072 F120.00
G01 X34.8897 Y-43.5041 F120.00
G01 X34.9264 Y-43.5018 F120.00
G01 X34.9632 Y-43.5005 F120.00
G01 X35.0000 Y-43.5000 F120.00
G01 X35.0368 Y-43.5005 F120.00
G01 X35.0736 Y-43.5018 F120.00
G01 X35.1103 Y-43.5041 F120.00
G01 X35.1470 Y-43.5072 F120.00
G01 X35.1836 Y-43.5113 F120.00
G01 X35.2201 Y-43.5162 F120.00
G01 X35.2564 Y-43.5221 F120.00
G01 X35.2926 Y-43.5288 F120.00
G01 X35.3287 Y-43.5364 F120.00
G01 X35.3645 Y-43.5450 F120.00
G01 X35.4001 Y-43.5543 F120.00
G01 X35.4080 Y-43.5566 F120.00
G01 X35.4080 Y-44.1978 F120.00
G01 X35.4047 Y-44.1961 F120.00
G01 X35.3848 Y-44.1864 F120.00
G01 X35.3647 Y-44.1772 F120.00
G01 X35.3444 Y-44.1685 F120.00
G01 X35.3239 Y-44.1603 F120.00
G01 X35.3032 Y-44.1526 F120.00
G01 X35.2823 Y-44.1454 F120.00
G01 X35.2613 Y-44.1388 F120.00
G01 X35.2400 Y-44.1326 F120.00
G01 X35.2187 Y-44.1270 F120.00
G01 X35.1972 Y-44.1219 F120.00
G01 X35.1756 Y-44.1173 F120.00
G01 X35.1539 Y-44.1133 F120.00
G01 X35.1321 Y-44.1097 F120.00
G01 X35.1102 Y-44.1068 F120.00
G01 X35.0882 Y-44.1043 F120.00
G01 X35.0662 Y-44.1024 F120.00
G01 X35.0442 Y-44.1011 F120.00
G01 X35.0221 Y-44.1003 F120.00
G01 X35.0000 Y-44.1000 F120.00
G01 X34.9779 Y-44.1003 F120.00
G01 X34.9558 Y-44.1011 F120.00
G01 X34.9338 Y-44.1024 F120.00
G01 X34.9118 Y-44.1043 F120.00
G01 X34.8898 Y-44.1068 F120.00
G01 X34.8679 Y-44.1097 F120.00
G01 X34.8461 Y-44.1133 F120.00
G01 X34.8244 Y-44.1173 F120.00
G01 X34.8028 Y-44.1219 F120.00
G01 X34.7813 Y-44.1270 F120.00
G01 X34.7600 Y-44.1326 F120.00
G01 X34.7387 Y-44.1388 F120.00
G01 X34.7177 Y-44.1454 F120.00
G01 X34.6968 Y-44.1526 F120.00
G01 X34.6761 Y-44.1603 F120.00
G01 X34.6556 Y-44.1685 F120.00
G01 X34.6353 Y-44.1772 F120.00
G01 X34.6152 Y-44.1864 F120.00
G01 X34.5953 Y-44.1961 F120.00
G01 X34.5920 Y-44.1978 F120.00
G01 X35.3000 Y-45.0000 F120.00
G01 X35.2996 Y-45.0147 F120.00
G01 X35.2986 Y-45.0294 F120.00
G01 X35.2956 Y-45.0513 F120.00
G01 X35.2927 Y-45.0657 F120.00
G01 X35.2891 Y-45.0800 F120.00
G01 X35.2825 Y-45.1011 F120.00
G01 X35.2772 Y-45.1148 F120.00
G01 X35.2712 Y-45.1283 F120.00
G01 X35.2610 Y-45.1479 F120.00
G01 X35.2494 Y-45.1667 F120.00
G01 X35.2410 Y-45.1787 F120.00
G01 X35.2319 Y-45.1903 F120.00
G01 X35.2173 Y-45.2069 F120.00
G01 X35.2015 Y-45.2223 F120.00
G01 X35.1903 Y-45.2319 F120.00
G01 X35.1787 Y-45.2410 F120.00
G01 X35.1605 Y-45.2535 F120.00
G01 X35.1414 Y-45.2646 F120.00
G01 X35.1283 Y-45.2712 F120.00
G01 X35.1148 Y-45.2772 F120.00
G01 X35.1011 Y-45.2825 F120.00
G01 X35.0871 Y-45.2871 F120.00
G01 X35.0657 Y-45.2927 F120.00
G01 X35.0440 Y-45.2968 F120.00
G01 X35.0294 Y-45.2986 F120.00
G01 X35.0147 Y-45.2996 F120.00
G01 X34.9926 Y-45.2999 F120.00
G01 X34.9706 Y-45.2986 F120.00
G01 X34.9487 Y-45.2956 F120.00
G01 X34.9343 Y-45.2927 F120.00
G01 X34.9200 Y-45.2891 F120.00
G01 X34.9059 Y-45.2849 F120.00
G01 X34.8920 Y-45.2799 F120.00
G01 X34.8717 Y-45.2712 F120.00
G01 X34.8521 Y-45.2610 F120.00
G01 X34.8333 Y-45.2494 F120.00
G01 X34.8213 Y-45.2410 F120.00
G01 X34.8097 Y-45.2319 F120.00
G01 X34.7931 Y-45.2173 F120.00
G01 X34.7777 Y-45.2015 F120.00
G01 X34.7681 Y-45.1903 F120.00
G01 X34.7590 Y-45.1787 F120.00
G01 X34.7465 Y-45.1605 F120.00
G01 X34.7390 Y-45.1479 F120.00
G01 X34.7320 Y-45.1349 F120.00
G01 X34.7257 Y-45.1216 F120.00
G01 X34.7201 Y-45.1080 F120.00
G01 X34.7129 Y-45.0871 F120.00
G01 X34.7090 Y-45.0729 F120.00
G01 X34.7058 Y-45.0585 F120.00
G01 X34.7032 Y-45.0440 F120.00
G01 X34.7014 Y-45.0294 F120.00
G01 X34.7001 Y-45.0074 F120.00
G01 X34.7001 Y-44.9926 F120.00
G01 X34.7008 Y-44.9779 F120.00
G01 X34.7023 Y-44.9633 F120.00
G01 X34.7044 Y-44.9487 F120.00
G01 X34.7090 Y-44.9271 F120.00
G01 X34.7151 Y-44.9059 F120.00
G01 X34.7201 Y-44.8920 F120.00
G01 X34.7257 Y-44.8784 F120.00
G01 X34.7354 Y-44.8586 F120.00
G01 X34.7427 Y-44.8458 F120.00
G01 X34.7506 Y-44.8333 F120.00
G01 X34.7590 Y-44.8213 F120.00
G01 X34.7681 Y-44.8097 F120.00
G01 X34.7827 Y-44.7931 F120.00
G01 X34.7931 Y-44.7827 F120.00
G01 X34.8040 Y-44.7728 F120.00
G01 X34.8154 Y-44.7635 F120.00
G01 X34.8273 Y-44.7547 F120.00
G01 X34.8395 Y-44.7465 F120.00
G01 X34.8521 Y-44.7390 F120.00
G01 X34.8717 Y-44.7288 F120.00
G01 X34.8920 Y-44.7201 F120.00
G01 X34.9059 Y-44.7151 F120.00
G01 X34.9200 Y-44.7109 F120.00
G01 X34.9343 Y-44.7073 F120.00
G01 X34.9487 Y-44.7044 F120.00
G01 X34.9706 Y-44.7014 F120.00
G01 X34.9853 Y-44.7004 F120.00
G01 X35.0000 Y-44.7000 F120.00
G01 X35.0147 Y-44.7004 F120.00
G01 X35.0294 Y-44.7014 F120.00
G01 X35.0367 Y-44.7023 F120.00
G01 X35.0440 Y-44.7032 F120.00
G01 X35.0513 Y-44.7044 F120.00
G01 X35.0657 Y-44.7073 F120.00
G01 X35.0800 Y-44.7109 F120.00
G01 X35.0941 Y-44.7151 F120.00
G01 X35.1080 Y-44.7201 F120.00
G01 X35.1283 Y-44.7288 F120.00
G01 X35.1414 Y-44.7354 F120.00
G01 X35.1542 Y-44.7427 F120.00
G01 X35.1727 Y-44.7547 F120.00
G01 X35.1903 Y-44.7681 F120.00
G01 X35.2015 Y-44.7777 F120.00
G01 X35.2121 Y-44.7879 F120.00
G01 X35.2272 Y-44.8040 F120.00
G01 X35.2410 Y-44.8213 F120.00
G01 X35.2535 Y-44.8395 F120.00
G01 X35.2646 Y-44.8586 F120.00
G01 X35.2743 Y-44.8784 F120.00
G01 X35.2825 Y-44.8989 F120.00
G01 X35.2891 Y-44.9200 F120.00
G01 X35.2942 Y-44.9415 F120.00
G01 X35.2968 Y-44.9560 F120.00
G01 X35.2986 Y-44.9706 F120.00
G01 X35.2996 Y-44.9853 F120.00
G01 X35.3000 Y-45.0000 F120.00
G01 X35.4080 Y-45.8022 F120.00
G01 X35.4047 Y-45.8039 F120.00
G01 X35.3848 Y-45.8136 F120.00
G01 X35.3647 Y-45.8228 F120.00
G01 X35.3444 Y-45.8315 F120.00
G01 X35.3239 Y-45.8397 F120.00
G01 X35.3032 Y-45.8474 F120.00
G01 X35.2823 Y-45.8546 F120.00
G01 X35.2613 Y-45.8612 F120.00
G01 X35.2400 Y-45.8674 F120.00
G01 X35.2187 Y-45.8730 F120.00
G01 X35.1972 Y-45.8781 F120.00
G01 X35.1756 Y-45.8827 F120.00
G01 X35.1539 Y-45.8867 F120.00
G01 X35.1321 Y-45.8903 F120.00
G01 X35.1102 Y-45.8932 F120.00
G01 X35.0882 Y-45.8957 F120.00
G01 X35.0662 Y-45.8976 F120.00
G01 X35.0442 Y-45.8989 F120.00
G01 X35.0221 Y-45.8997 F120.00
G01 X35.0000 Y-45.9000 F120.00
G01 X34.9779 Y-45.8997 F120.00
G01 X34.9558 Y-45.8989 F120.00
G01 X34.9338 Y-45.8976 F120.00
G01 X34.9118 Y-45.8957 F120.00
G01 X34.8898 Y-45.8932 F120.00
G01 X34.8679 Y-45.8903 F120.00
G01 X34.8461 Y-45.8867 F120.00
G01 X34.8244 Y-45.8827 F120.00
G01 X34.8028 Y-45.8781 F120.00
G01 X34.7813 Y-45.8730 F120.00
G01 X34.7600 Y-45.8674 F120.00
G01 X34.7387 Y-45.8612 F120.00
G01 X34.7177 Y-45.8546 F120.00
G01 X34.6968 Y-45.8474 F120.00
G01 X34.6761 Y-45.8397 F120.00
G01 X34.6556 Y-45.8315 F120.00
G01 X34.6353 Y-45.8228 F120.00
G01 X34.6152 Y-45.8136 F120.00
G01 X34.5953 Y-45.8039 F120.00
G01 X34.5920 Y-45.8022 F120.00
G01 X34.5920 Y-46.4434 F120.00
G01 X34.5999 Y-46.4457 F120.00
G01 X34.6355 Y-46.4550 F120.00
G01 X34.6713 Y-46.4636 F120.00
G01 X34.7074 Y-46.4712 F120.00
G01 X34.7436 Y-46.4779 F120.00
G01 X34.7799 Y-46.4838 F120.00
G01 X34.8164 Y-46.4887 F120.00
G01 X34.8530 Y-46.4928 F120.00
G01 X34.8897 Y-46.4959 F120.00
G01 X34.9264 Y-46.4982 F120.00
G01 X34.9632 Y-46.4995 F120.00
G01 X35.0000 Y-46.5000 F120.00
G01 X35.0368 Y-46.4995 F120.00
G01 X35.0736 Y-46.4982 F120.00
G01 X35.1103 Y-46.4959 F120.00
G01 X35.1470 Y-46.4928 F120.00
G01 X35.1836 Y-46.4887 F120.00
G01 X35.2201 Y-46.4838 F120.00
G01 X35.2564 Y-46.4779 F120.00
G01 X35.2926 Y-46.4712 F120.00
G01 X35.3287 Y-46.4636 F120.00
G01 X35.3645 Y-46.4550 F120.00
G01 X35.4001 Y-46.4457 F120.00
G01 X35.4080 Y-46.4434 F120.00
G01 X35.4080 Y-47.0600 F120.00
G01 X35.3590 Y-47.0691 F120.00
G01 X35.3081 Y-47.0773 F120.00
G01 X35.2571 Y-47.0842 F120.00
G01 X35.2058 Y-47.0899 F120.00
G01 X35.1545 Y-47.0943 F120.00
G01 X35.1030 Y-47.0975 F120.00
G01 X35.0515 Y-47.0994 F120.00
G01 X35.0000 Y-47.1000 F120.00
G01 X34.9485 Y-47.0994 F120.00
G01 X34.8970 Y-47.0975 F120.00
G01 X34.8455 Y-47.0943 F120.00
G01 X34.7942 Y-47.0899 F120.00
G01 X34.7429 Y-47.0842 F120.00
G01 X34.6919 Y-47.0773 F120.00
G01 X34.6410 Y-47.0691 F120.00
G01 X34.5920 Y-47.0600 F120.00
G01 X34.5920 Y-47.6689 F120.00
G01 X34.6038 Y-47.6708 F120.00
G01 X34.6695 Y-47.6797 F120.00
G01 X34.7354 Y-47.6870 F120.00
G01 X34.8014 Y-47.6927 F120.00
G01 X34.8675 Y-47.6967 F120.00
G01 X34.9337 Y-47.6992 F120.00
G01 X35.0000 Y-47.7000 F120.00
G01 X35.0663 Y-47.6992 F120.00
G01 X35.1325 Y-47.6967 F120.00
G01 X35.1986 Y-47.6927 F120.00
G01 X35.2646 Y-47.6870 F120.00
G01 X35.3305 Y-47.6797 F120.00
G01 X35.3962 Y-47.6708 F120.00
G01 X35.4080 Y-47.6689 F120.00
G01 X35.4080 Y-48.2746 F120.00
G01 X35.4040 Y-48.2752 F120.00
G01 X35.3235 Y-48.2841 F120.00
G01 X35.2428 Y-48.2911 F120.00
G01 X35.1619 Y-48.2960 F120.00
G01 X35.0810 Y-48.2990 F120.00
G01 X35.0000 Y-48.3000 F120.00
G01 X34.9190 Y-48.2990 F120.00
G01 X34.8381 Y-48.2960 F120.00
G01 X34.7572 Y-48.2911 F120.00
G01 X34.6765 Y-48.2841 F120.00
G01 X34.5960 Y-48.2752 F120.00
G01 X34.5920 Y-48.2746 F120.00
G01 X34.5920 Y-48.8784 F120.00
G01 X34.6177 Y-48.8812 F120.00
G01 X34.7131 Y-48.8894 F120.00
G01 X34.8086 Y-48.8953 F120.00
G01 X34.9043 Y-48.8988 F120.00
G01 X35.0000 Y-48.9000 F120.00
G01 X35.0957 Y-48.8988 F120.00
G01 X35.1914 Y-48.8953 F120.00
G01 X35.2869 Y-48.8894 F120.00
G01 X35.3823 Y-48.8812 F120.00
G01 X35.4080 Y-48.8784 F120.00
G00 Z2.0000
G00 X34.5920 Y-51.0920
G01 F60.00
G01 Z-2.4000
G01 F120.00
G01 X35.4080 Y-51.0920 F120.00
G01 X35.4080 Y-58.9080 F120.00
G01 X34.5920 Y-58.9080 F120.00
G01 X34.5920 Y-51.0920 F120.00
G01 X34.5920 Y-51.1216 F120.00
G01 X34.6177 Y-51.1188 F120.00
G01 X34.7131 Y-51.1106 F120.00
G01 X34.8086 Y-51.1047 F120.00
G01 X34.9043 Y-51.1012 F120.00
G01 X35.0000 Y-51.1000 F120.00
G01 X35.0957 Y-51.1012 F120.00
G01 X35.1914 Y-51.1047 F120.00
G01 X35.2869 Y-51.1106 F120.00
G01 X35.3823 Y-51.1188 F120.00
G01 X35.4080 Y-51.1216 F120.00
G01 X35.4080 Y-51.7254 F120.00
G01 X35.4040 Y-51.7248 F120.00
G01 X35.3235 Y-51.7159 F120.00
G01 X35.2428 Y-51.7089 F120.00
G01 X35.1619 Y-51.7040 F120.00
G01 X35.0810 Y-51.7010 F120.00
G01 X35.0000 Y-51.7000 F120.00
G01 X34.9190 Y-51.7010 F120.00
G01 X34.8381 Y-51.7040 F120.00
G01 X34.7572 Y-51.7089 F120.00
G01 X34.6765 Y-51.7159 F120.00
G01 X34.5960 Y-51.7248 F120.00
G01 X34.5920 Y-51.7254 F120.00
G01 X34.5920 Y-52.3311 F120.00
G01 X34.6038 Y-52.3292 F120.00
G01 X34.6695 Y-52.3203 F120.00
G01 X34.7354 Y-52.3130 F120.00
G01 X34.8014 Y-52.3073 F120.00
G01 X34.8675 Y-52.3033 F120.00
G01 X34.9337 Y-52.3008 F120.00
G01 X35.0000 Y-52.3000 F120.00
G01 X35.0663 Y-52.3008 F120.00
G01 X35.1325 Y-52.3033 F120.00
G01 X35.1986 Y-52.3073 F120.00
G01 X35.2646 Y-52.3130 F120.00
G01 X35.3305 Y-52.3203 F120.00
G01 X35.3962 Y-52.3292 F120.00
G01 X35.4080 Y-52.3311 F120.00
G01 X35.4080 Y-52.9400 F120.00
G01 X35.3590 Y-52.9309 F120.00
G01 X35.3081 Y-52.9227 F120.00
G01 X35.2571 Y-52.9158 F120.00
G01 X35.2058 Y-52.9101 F120.00
G01 X35.1545 Y-52.9057 F120.00
G01 X35.1030 Y-52.9025 F120.00
G01 X35.0515 Y-52.9006 F120.00
G01 X35.0000 Y-52.9000 F120.00
G01 X34.9485 Y-52.9006 F120.00
G01 X34.8970 Y-52.9025 F120.00
G01 X34.8455 Y-52.9057 F120.00
G01 X34.7942 Y-52.9101 F120.00
G01 X34.7429 Y-52.9158 F120.00
G01 X34.6919 Y-52.9227 F120.00
G01 X34.6410 Y-52.9309 F120.00
G01 X34.5920 Y-52.9400 F120.00
G01 X34.5920 Y-53.5566 F120.00
G01 X34.5999 Y-53.5543 F120.00
G01 X34.6355 Y-53.5450 F120.00
G01 X34.6713 Y-53.5364 F120.00
G01 X34.7074 Y-53.5288 F120.00
G01 X34.7436 Y-53.5221 F120.00
G01 X34.7799 Y-53.5162 F120.00
G01 X34.8164 Y-53.5113 F120.00
G01 X34.8530 Y-53.5072 F120.00
G01 X34.8897 Y-53.5041 F120.00
G01 X34.9264 Y-53.5018 F120.00
G01 X34.9632 Y-53.5005 F120.00
G01 X35.0000 Y-53.5000 F120.00
G01 X35.0368 Y-53.5005 F120.00
G01 X35.0736 Y-53.5018 F120.00
G01 X35.1103 Y-53.5041 F120.00
G01 X35.1470 Y-53.5072 F120.00
G01 X35.1836 Y-53.5113 F120.00
G01 X35.2201 Y-53.5162 F120.00
G01 X35.2564 Y-53.5221 F120.00
G01 X35.2926 Y-53.5288 F120.00
G01 X35.3287 Y-53.5364 F120.00
G01 X35.3645 Y-53.5450 F120.00
G01 X35.4001 Y-53.5543 F120.00
G01 X35.4080 Y-53.5566 F120.00
G01 X35.4080 Y-54.1978 F120.00
G01 X35.4047 Y-54.1961 F120.00
G01 X35.3848 Y-54.1864 F120.00
G01 X35.3647 Y-54.1772 F120.00
G01 X35.3444 Y-54.1685 F120.00
G01 X35.3239 Y-54.1603 F120.00
G01 X35.3032 Y-54.1526 F120.00
G01 X35.2823 Y-54.1454 F120.00
G01 X35.2613 Y-54.1388 F120.00
G01 X35.2400 Y-54.1326 F120.00
G01 X35.2187 Y-54.1270 F120.00
G01 X35.1972 Y-54.1219 F120.00
G01 X35.1756 Y-54.1173 F120.00
G01 X35.1539 Y-54.1133 F120.00
G01 X35.1321 Y-54.1097 F120.00
G01 X35.1102 Y-54.1068 F120.00
G01 X35.0882 Y-54.1043 F120.00
G01 X35.0662 Y-54.1024 F120.00
G01 X35.0442 Y-54.1011 F120.00
G01 X35.0221 Y-54.1003 F120.00
G01 X35.0000 Y-54.1000 F120.00
G01 X34.9779 Y-54.1003 F120.00
G01 X34.9558 Y-54.1011 F120.00
G01 X34.9338 Y-54.1024 F120.00
G01 X34.9118 Y-54.1043 F120.00
G01 X34.8898 Y-54.1068 F120.00
G01 X34.8679 Y-54.1097 F120.00
G01 X34.8461 Y-54.1133 F120.00
G01 X34.8244 Y-54.1173 F120.00
G01 X34.8028 Y-54.1219 F120.00
G01 X34.7813 Y-54.1270 F120.00
G01 X34.7600 Y-54.1326 F120.00
G01 X34.7387 Y-54.1388 F120.00
G01 X34.7177 Y-54.1454 F120.00
G01 X34.6968 Y-54.1526 F120.00
G01 X34.6761 Y-54.1603 F120.00
G01 X34.6556 Y-54.1685 F120.00
G01 X34.6353 Y-54.1772 F120.00
G01 X34.6152 Y-54.1864 F120.00
G01 X34.5953 Y-54.1961 F120.00
G01 X34.5920 Y-54.1978 F120.00
G01 X35.3000 Y-55.0000 F120.00
G01 X35.2996 Y-55.0147 F120.00
G01 X35.2986 Y-55.0294 F120.00
G01 X35.2956 Y-55.0513 F120.00
G01 X35.2927 Y-55.0657 F120.00
G01 X35.2891 Y-55.0800 F120.00
G01 X35.2825 Y-55.1011 F120.00
G01 X35.2772 Y-55.1148 F120.00
G01 X35.2712 Y-55.1283 F120.00
G01 X35.2610 Y-55.1479 F120.00
G01 X35.2494 Y-55.1667 F120.00
G01 X35.2410 Y-55.1787 F120.00
G01 X35.2319 Y-55.1903 F120.00
G01 X35.2173 Y-55.2069 F120.00
G01 X35.2015 Y-55.2223 F120.00
G01 X35.1903 Y-55.2319 F120.00
G01 X35.1787 Y-55.2410 F120.00
G01 X35.1605 Y-55.2535 F120.00
G01 X35.1414 Y-55.2646 F120.00
G01 X35.1283 Y-55.2712 F120.00
G01 X35.1148 Y-55.2772 F120.00
G01 X35.1011 Y-55.2825 F120.00
G01 X35.0871 Y-55.2871 F120.00
G01 X35.0657 Y-55.2927 F120.00
G01 X35.0440 Y-55.2968 F120.00
G01 X35.0294 Y-55.2986 F120.00
G01 X35.0147 Y-55.2996 F120.00
G01 X34.9926 Y-55.2999 F120.00
G01 X34.9706 Y-55.2986 F120.00
G01 X34.9487 Y-55.2956 F120.00
G01 X34.9343 Y-55.2927 F120.00
G01 X34.9200 Y-55.2891 F120.00
G01 X34.9059 Y-55.2849 F120.00
G01 X34.8920 Y-55.2799 F120.00
G01 X34.8717 Y-55.2712 F120.00
G01 X34.8521 Y-55.2610 F120.00
G01 X34.8333 Y-55.2494 F120.00
G01 X34.8213 Y-55.2410 F120.00
G01 X34.8097 Y-55.2319 F120.00
G01 X34.7931 Y-55.2173 F120.00
G01 X34.7777 Y-55.2015 F120.00
G01 X34.7681 Y-55.1903 F120.00
G01 X34.7590 Y-55.1787 F120.00
G01 X34.7465 Y-55.1605 F120.00
G01 X34.7390 Y-55.1479 F120.00
G01 X34.7320 Y-55.1349 F120.00
G01 X34.7257 Y-55.1216 F120.00
G01 X34.7201 Y-55.1080 F120.00
G01 X34.7129 Y-55.0871 F120.00
G01 X34.7090 Y-55.0729 F120.00
G01 X34.7058 Y-55.0585 F120.00
G01 X34.7032 Y-55.0440 F120.00
G01 X34.7014 Y-55.0294 F120.00
G01 X34.7001 Y-55.0074 F120.00
G01 X34.7001 Y-54.9926 F120.00
G01 X34.7008 Y-54.9779 F120.00
G01 X34.7023 Y-54.9633 F120.00
G01 X34.7044 Y-54.9487 F120.00
G01 X34.7090 Y-54.9271 F120.00
G01 X34.7151 Y-54.9059 F120.00
G01 X34.7201 Y-54.8920 F120.00
G01 X34.7257 Y-54.8784 F120.00
G01 X34.7354 Y-54.8586 F120.00
G01 X34.7427 Y-54.8458 F120.00
G01 X34.7506 Y-54.8333 F120.00
G01 X34.7590 Y-54.8213 F120.00
G01 X34.7681 Y-54.8097 F120.00
G01 X34.7827 Y-54.7931 F120.00
G01 X34.7931 Y-54.7827 F120.00
G01 X34.8040 Y-54.7728 F120.00
G01 X34.8154 Y-54.7635 F120.00
G01 X34.8273 Y-54.7547 F120.00
G01 X34.8395 Y-54.7465 F120.00
G01 X34.8521 Y-54.7390 F120.00
G01 X34.8717 Y-54.7288 F120.00
G01 X34.8920 Y-54.7201 F120.00
G01 X34.9059 Y-54.7151 F120.00
G01 X34.9200 Y-54.7109 F120.00
G01 X34.9343 Y-54.7073 F120.00
G01 X34.9487 Y-54.7044 F120.00
G01 X34.9706 Y-54.7014 F120.00
G01 X34.9853 Y-54.7004 F120.00
G01 X35.0000 Y-54.7000 F120.00
G01 X35.0147 Y-54.7004 F120.00
G01 X35.0294 Y-54.7014 F120.00
G01 X35.0367 Y-54.7023 F120.00
G01 X35.0440 Y-54.7032 F120.00
G01 X35.0513 Y-54.7044 F120.00
G01 X35.0657 Y-54.7073 F120.00
G01 X35.0800 Y-54.7109 F120.00
G01 X35.0941 Y-54.7151 F120.00
G01 X35.1080 Y-54.7201 F120.00
G01 X35.1283 Y-54.7288 F120.00
G01 X35.1414 Y-54.7354 F120.00
G01 X35.1542 Y-54.7427 F120.00
G01 X35.1727 Y-54.7547 F120.00
G01 X35.1903 Y-54.7681 F120.00
G01 X35.2015 Y-54.7777 F120.00
G01 X35.2121 Y-54.7879 F120.00
G01 X35.2272 Y-54.8040 F120.00
G01 X35.2410 Y-54.8213 F120.00
G01 X35.2535 Y-54.8395 F120.00
G01 X35.2646 Y-54.8586 F120.00
G01 X35.2743 Y-54.8784 F120.00
G01 X35.2825 Y-54.8989 F120.00
G01 X35.2891 Y-54.9200 F120.00
G01 X35.2942 Y-54.9415 F120.00
G01 X35.2968 Y-54.9560 F120.00
G01 X35.2986 Y-54.9706 F120.00
G01 X35.2996 Y-54.9853 F120.00
G01 X35.3000 Y-55.0000 F120.00
G01 X35.4080 Y-55.8022 F120.00
G01 X35.4047 Y-55.8039 F120.00
G01 X35.3848 Y-55.8136 F120.00
G01 X35.3647 Y-55.8228 F120.00
G01 X35.3444 Y-55.8315 F120.00
G01 X35.3239 Y-55.8397 F120.00
G01 X35.3032 Y-55.8474 F120.00
G01 X35.2823 Y-55.8546 F120.00
G01 X35.2613 Y-55.8612 F120.00
G01 X35.2400 Y-55.8674 F120.00
G01 X35.2187 Y-55.8730 F120.00
G01 X35.1972 Y-55.8781 F120.00
G01 X35.1756 Y-55.8827 F120.00
G01 X35.1539 Y-55.8867 F120.00
G01 X35.1321 Y-55.8903 F120.00
G01 X35.1102 Y-55.8932 F120.00
G01 X35.0882 Y-55.8957 F120.00
G01 X35.0662 Y-55.8976 F120.00
G01 X35.0442 Y-55.8989 F120.00
G01 X35.0221 Y-55.8997 F120.00
G01 X35.0000 Y-55.9000 F120.00
G01 X34.9779 Y-55.8997 F120.00
G01 X34.9558 Y-55.8989 F120.00
G01 X34.9338 Y-55.8976 F120.00
G01 X34.9118 Y-55.8957 F120.00
G01 X34.8898 Y-55.8932 F120.00
G01 X34.8679 Y-55.8903 F120.00
G01 X34.8461 Y-55.8867 F120.00
G01 X34.8244 Y-55.8827 F120.00
G01 X34.8028 Y-55.8781 F120.00
G01 X34.7813 Y-55.8730 F120.00
G01 X34.7600 Y-55.8674 F120.00
G01 X34.7387 Y-55.8612 F120.00
G01 X34.7177 Y-55.8546 F120.00
G01 X34.6968 Y-55.8474 F120.00
G01 X34.6761 Y-55.8397 F120.00
G01 X34.6556 Y-55.8315 F120.00
G01 X34.6353 Y-55.8228 F120.00
G01 X34.6152 Y-55.8136 F120.00
G01 X34.5953 Y-55.8039 F120.00
G01 X34.5920 Y-55.8022 F120.00
G01 X34.5920 Y-56.4434 F120.00
G01 X34.5999 Y-56.4457 F120.00
G01 X34.6355 Y-56.4550 F120.00
G01 X34.6713 Y-56.4636 F120.00
G01 X34.7074 Y-56.4712 F120.00
G01 X34.7436 Y-56.4779 F120.00
G01 X34.7799 Y-56.4838 F120.00
G01 X34.8164 Y-56.4887 F120.00
G01 X34.8530 Y-56.4928 F120.00
G01 X34.8897 Y-56.4959 F120.00
G01 X34.9264 Y-56.4982 F120.00
G01 X34.9632 Y-56.4995 F120.00
G01 X35.0000 Y-56.5000 F120.00
G01 X35.0368 Y-56.4995 F120.00
G01 X35.0736 Y-56.4982 F120.00
G01 X35.1103 Y-56.4959 F120.00
G01 X35.1470 Y-56.4928 F120.00
G01 X35.1836 Y-56.4887 F120.00
G01 X35.2201 Y-56.4838 F120.00
G01 X35.2564 Y-56.4779 F120.00
G01 X35.2926 Y-56.4712 F120.00
G01 X35.3287 Y-56.4636 F120.00
G01 X35.3645 Y-56.4550 F120.00
G01 X35.4001 Y-56.4457 F120.00
G01 X35.4080 Y-56.4434 F120.00
G01 X35.4080 Y-57.0600 F120.00
G01 X35.3590 Y-57.0691 F120.00
G01 X35.3081 Y-57.0773 F120.00
G01 X35.2571 Y-57.0842 F120.00
G01 X35.2058 Y-57.0899 F120.00
G01 X35.1545 Y-57.0943 F120.00
G01 X35.1030 Y-57.0975 F120.00
G01 X35.0515 Y-57.0994 F120.00
G01 X35.0000 Y-57.1000 F120.00
G01 X34.9485 Y-57.0994 F120.00
G01 X34.8970 Y-57.0975 F120.00
G01 X34.8455 Y-57.0943 F120.00
G01 X34.7942 Y-57.0899 F120.00
G01 X34.7429 Y-57.0842 F120.00
G01 X34.6919 Y-57.0773 F120.00
G01 X34.6410 Y-57.0691 F120.00
G01 X34.5920 Y-57.0600 F120.00
G01 X34.5920 Y-57.6689 F120.00
G01 X34.6038 Y-57.6708 F120.00
G01 X34.6695 Y-57.6797 F120.00
G01 X34.7354 Y-57.6870 F120.00
G01 X34.8014 Y-57.6927 F120.00
G01 X34.8675 Y-57.6967 F120.00
G01 X34.9337 Y-57.6992 F120.00
G01 X35.0000 Y-57.7000 F120.00
G01 X35.0663 Y-57.6992 F120.00
G01 X35.1325 Y-57.6967 F120.00
G01 X35.1986 Y-57.6927 F120.00
G01 X35.2646 Y-57.6870 F120.00
G01 X35.3305 Y-57.6797 F120.00
G01 X35.3962 Y-57.6708 F120.00
G01 X35.4080 Y-57.6689 F120.00
G01 X35.4080 Y-58.2746 F120.00
G01 X35.4040 Y-58.2752 F120.00
G01 X35.3235 Y-58.2841 F120.00
G01 X35.2428 Y-58.2911 F120.00
G01 X35.1619 Y-58.2960 F120.00
G01 X35.0810 Y-58.2990 F120.00
G01 X35.0000 Y-58.3000 F120.00
G01 X34.9190 Y-58.2990 F120.00
G01 X34.8381 Y-58.2960 F120.00
G01 X34.7572 Y-58.2911 F120.00
G01 X34.6765 Y-58.2841 F120.00
G01 X34.5960 Y-58.2752 F120.00
G01 X34.5920 Y-58.2746 F120.00
G01 X34.5920 Y-58.8784 F120.00
G01 X34.6177 Y-58.8812 F120.00
G01 X34.7131 Y-58.8894 F120.00
G01 X34.8086 Y-58.8953 F120.00
G01 X34.9043 Y-58.8988 F120.00
G01 X35.0000 Y-58.9000 F120.00
G01 X35.0957 Y-58.8988 F120.00
G01 X35.1914 Y-58.8953 F120.00
G01 X35.2869 Y-58.8894 F120.00
G01 X35.3823 Y-58.8812 F120.00
G01 X35.4080 Y-58.8784 F120.00
G00 Z2.0000
G00 X38.1556 Y-65.7500
G01 F60.00
G01 Z-2.4000
G01 F120.00
G01 X38.1896 Y-65.7191 F120.00
G01 X38.2089 Y-65.7002 F120.00
G01 X38.2249 Y-65.6833 F120.00
G01 X38.2743 Y-65.6287 F120.00
G01 X38.2881 Y-65.6130 F120.00
G01 X38.2990 Y-65.5997 F120.00
G01 X38.3362 Y-65.5501 F120.00
G01 X43.6686 Y-65.5501 F120.00
G01 X44.0684 Y-65.9499 F120.00
G01 X38.3362 Y-65.9499 F120.00
G01 X38.2990 Y-65.9003 F120.00
G01 X38.2881 Y-65.8870 F120.00
G01 X38.2743 Y-65.8713 F120.00
G01 X38.2249 Y-65.8167 F120.00
G01 X38.2089 Y-65.7998 F120.00
G01 X38.1896 Y-65.7809 F120.00
G01 X38.1556 Y-65.7500 F120.00
G00 Z2.0000
G00 X38.3195 Y-65.9273
G01 F60.00
G01 Z-2.4000
G01 F120.00
G01 X38.3159 Y-65.8699 F120.00
G01 X38.3135 Y-65.8037 F120.00
G01 X38.3127 Y-65.7375 F120.00
G01 X38.3135 Y-65.6712 F120.00
G01 X38.3159 Y-65.6050 F120.00
G01 X38.3178 Y-65.5750 F120.00
G01 X38.9212 Y-65.5501 F120.00
G01 X38.9184 Y-65.5830 F120.00
G01 X38.9152 Y-65.6344 F120.00
G01 X38.9133 Y-65.6859 F120.00
G01 X38.9127 Y-65.7375 F120.00
G01 X38.9133 Y-65.7890 F120.00
G01 X38.9152 Y-65.8405 F120.00
G01 X38.9184 Y-65.8919 F120.00
G01 X38.9235 Y-65.9499 F120.00
G01 X39.5279 Y-65.9499 F120.00
G01 X39.5240 Y-65.9211 F120.00
G01 X39.5199 Y-65.8845 F120.00
G01 X39.5167 Y-65.8478 F120.00
G01 X39.5145 Y-65.8111 F120.00
G01 X39.5131 Y-65.7743 F120.00
G01 X39.5127 Y-65.7375 F120.00
G01 X39.5131 Y-65.7006 F120.00
G01 X39.5145 Y-65.6638 F120.00
G01 X39.5167 Y-65.6271 F120.00
G01 X39.5199 Y-65.5904 F120.00
G01 X39.5245 Y-65.5501 F120.00
G01 X40.1325 Y-65.5501 F120.00
G01 X40.1259 Y-65.5836 F120.00
G01 X40.1224 Y-65.6054 F120.00
G01 X40.1194 Y-65.6273 F120.00
G01 X40.1170 Y-65.6492 F120.00
G01 X40.1151 Y-65.6712 F120.00
G01 X40.1138 Y-65.6933 F120.00
G01 X40.1129 Y-65.7154 F120.00
G01 X40.1127 Y-65.7375 F120.00
G01 X40.1129 Y-65.7595 F120.00
G01 X40.1138 Y-65.7816 F120.00
G01 X40.1151 Y-65.8037 F120.00
G01 X40.1170 Y-65.8257 F120.00
G01 X40.1194 Y-65.8476 F120.00
G01 X40.1224 Y-65.8695 F120.00
G01 X40.1259 Y-65.8913 F120.00
G01 X40.1300 Y-65.9130 F120.00
G01 X40.1382 Y-65.9499 F120.00
G01 X40.8009 Y-65.9499 F120.00
G01 X40.7855 Y-65.9334 F120.00
G01 X40.7762 Y-65.9220 F120.00
G01 X40.7674 Y-65.9102 F120.00
G01 X40.7592 Y-65.8979 F120.00
G01 X40.7517 Y-65.8853 F120.00
G01 X40.7447 Y-65.8723 F120.00
G01 X40.7384 Y-65.8590 F120.00
G01 X40.7328 Y-65.8454 F120.00
G01 X40.7278 Y-65.8316 F120.00
G01 X40.7235 Y-65.8175 F120.00
G01 X40.7200 Y-65.8032 F120.00
G01 X40.7159 Y-65.7815 F120.00
G01 X40.7141 Y-65.7669 F120.00
G01 X40.7130 Y-65.7522 F120.00
G01 X40.7127 Y-65.7375 F120.00
G01 X40.7130 Y-65.7227 F120.00
G01 X40.7141 Y-65.7080 F120.00
G01 X40.7159 Y-65.6934 F120.00
G01 X40.7200 Y-65.6717 F120.00
G01 X40.7235 Y-65.6574 F120.00
G01 X40.7278 Y-65.6433 F120.00
G01 X40.7355 Y-65.6226 F120.00
G01 X40.7415 Y-65.6092 F120.00
G01 X40.7481 Y-65.5960 F120.00
G01 X40.7554 Y-65.5832 F120.00
G01 X40.7632 Y-65.5708 F120.00
G01 X40.7717 Y-65.5587 F120.00
G01 X40.7784 Y-65.5501 F120.00
G01 X41.2470 Y-65.5501 F120.00
G01 X41.2536 Y-65.5587 F120.00
G01 X41.2621 Y-65.5708 F120.00
G01 X41.2737 Y-65.5896 F120.00
G01 X41.2806 Y-65.6026 F120.00
G01 X41.2869 Y-65.6159 F120.00
G01 X41.2951 Y-65.6364 F120.00
G01 X41.3018 Y-65.6574 F120.00
G01 X41.3054 Y-65.6717 F120.00
G01 X41.3083 Y-65.6862 F120.00
G01 X41.3112 Y-65.7080 F120.00
G01 X41.3123 Y-65.7227 F120.00
G01 X41.3127 Y-65.7375 F120.00
G01 X41.2245 Y-65.9499 F120.00
G01 X41.2350 Y-65.9389 F120.00
G01 X41.2446 Y-65.9278 F120.00
G01 X41.2536 Y-65.9162 F120.00
G01 X41.2621 Y-65.9041 F120.00
G01 X41.2700 Y-65.8917 F120.00
G01 X41.2773 Y-65.8789 F120.00
G01 X41.2839 Y-65.8657 F120.00
G01 X41.2898 Y-65.8523 F120.00
G01 X41.2951 Y-65.8385 F120.00
G01 X41.2998 Y-65.8245 F120.00
G01 X41.3037 Y-65.8103 F120.00
G01 X41.3069 Y-65.7960 F120.00
G01 X41.3094 Y-65.7815 F120.00
G01 X41.3112 Y-65.7669 F120.00
G01 X41.3123 Y-65.7522 F120.00
G01 X41.3127 Y-65.7375 F120.00
G01 X41.8929 Y-65.5501 F120.00
G01 X41.8994 Y-65.5836 F120.00
G01 X41.9029 Y-65.6054 F120.00
G01 X41.9059 Y-65.6273 F120.00
G01 X41.9083 Y-65.6492 F120.00
G01 X41.9102 Y-65.6712 F120.00
G01 X41.9116 Y-65.6933 F120.00
G01 X41.9124 Y-65.7154 F120.00
G01 X41.9127 Y-65.7375 F120.00
G01 X41.9124 Y-65.7595 F120.00
G01 X41.9116 Y-65.7816 F120.00
G01 X41.9102 Y-65.8037 F120.00
G01 X41.9083 Y-65.8257 F120.00
G01 X41.9059 Y-65.8476 F120.00
G01 X41.9029 Y-65.8695 F120.00
G01 X41.8994 Y-65.8913 F120.00
G01 X41.8954 Y-65.9130 F120.00
G01 X41.8872 Y-65.9499 F120.00
G01 X42.4975 Y-65.9499 F120.00
G01 X42.5014 Y-65.9211 F120.00
G01 X42.5055 Y-65.8845 F120.00
G01 X42.5086 Y-65.8478 F120.00
G01 X42.5109 Y-65.8111 F120.00
G01 X42.5122 Y-65.7743 F120.00
G01 X42.5127 Y-65.7375 F120.00
G01 X42.5122 Y-65.7006 F120.00
G01 X42.5109 Y-65.6638 F120.00
G01 X42.5086 Y-65.6271 F120.00
G01 X42.5055 Y-65.5904 F120.00
G01 X42.5009 Y-65.5501 F120.00
G01 X43.1042 Y-65.5501 F120.00
G01 X43.1070 Y-65.5830 F120.00
G01 X43.1101 Y-65.6344 F120.00
G01 X43.1120 Y-65.6859 F120.00
G01 X43.1127 Y-65.7375 F120.00
G01 X43.1120 Y-65.7890 F120.00
G01 X43.1101 Y-65.8405 F120.00
G01 X43.1070 Y-65.8919 F120.00
G01 X43.1018 Y-65.9499 F120.00
G01 X43.7042 Y-65.9499 F120.00
G01 X43.7054 Y-65.9361 F120.00
G01 X43.7094 Y-65.8699 F120.00
G01 X43.7119 Y-65.8037 F120.00
G01 X43.7127 Y-65.7375 F120.00
G01 X43.7119 Y-65.6712 F120.00
G01 X43.7094 Y-65.6050 F120.00
G01 X43.7085 Y-65.5900 F120.00
G00 Z2.0000
G00 X35.9037 Y-68.6593
G01 F60.00
G01 Z-2.4000
G01 F120.00
G01 X35.8755 Y-68.6636 F120.00
G01 X35.8462 Y-68.6695 F120.00
G01 X35.8174 Y-68.6769 F120.00
G01 X35.7889 Y-68.6856 F120.00
G01 X35.7609 Y-68.6958 F120.00
G01 X35.7448 Y-68.7024 F120.00
G01 X35.7177 Y-68.7147 F120.00
G01 X35.6912 Y-68.7284 F120.00
G01 X35.6654 Y-68.7434 F120.00
G01 X35.5931 Y-68.7890 F120.00
G01 X35.5695 Y-68.8051 F120.00
G01 X35.5486 Y-68.8208 F120.00
G01 X35.5266 Y-68.8390 F120.00
G01 X35.5037 Y-68.8599 F120.00
G01 X35.4836 Y-68.8802 F120.00
G01 X35.4586 Y-68.9080 F120.00
G01 X34.5421 Y-68.9080 F120.00
G01 X34.5229 Y-68.8862 F120.00
G01 X34.5018 Y-68.8644 F120.00
G01 X34.4813 Y-68.8453 F120.00
G01 X34.4438 Y-68.8125 F120.00
G01 X34.4204 Y-68.7936 F120.00
G01 X34.3961 Y-68.7759 F120.00
G01 X34.3710 Y-68.7594 F120.00
G01 X34.3473 Y-68.7455 F120.00
G01 X34.3318 Y-68.7372 F120.00
G01 X34.3048 Y-68.7240 F120.00
G01 X34.2795 Y-68.7131 F120.00
G01 X34.2514 Y-68.7026 F120.00
G01 X34.2287 Y-68.6952 F120.00
G01 X34.1524 Y-68.6722 F120.00
G01 X34.1236 Y-68.6647 F120.00
G01 X34.0963 Y-68.6590 F120.00
G01 X34.0952 Y-68.6385 F120.00
G01 X34.0926 Y-68.6091 F120.00
G01 X34.0899 Y-68.5884 F120.00
G01 X34.0778 Y-68.5072 F120.00
G01 X34.0752 Y-68.4927 F120.00
G01 X34.0696 Y-68.4662 F120.00
G01 X34.0476 Y-68.3782 F120.00
G01 X34.0401 Y-68.3523 F120.00
G01 X34.0347 Y-68.3359 F120.00
G01 X34.0078 Y-68.2609 F120.00
G01 X34.0005 Y-68.2413 F120.00
G01 X33.9879 Y-68.2120 F120.00
G01 X33.9512 Y-68.1344 F120.00
G01 X33.9435 Y-68.1190 F120.00
G01 X33.9304 Y-68.0954 F120.00
G01 X33.8882 Y-68.0249 F120.00
G01 X33.8772 Y-68.0072 F120.00
G01 X33.8592 Y-67.9809 F120.00
G01 X33.8065 Y-67.9099 F120.00
G01 X33.7896 Y-67.8889 F120.00
G01 X33.7800 Y-67.8777 F120.00
G01 X33.7191 Y-67.8104 F120.00
G01 X33.7002 Y-67.7911 F120.00
G01 X33.6896 Y-67.7809 F120.00
G01 X33.6556 Y-67.7500 F120.00
G01 X33.6896 Y-67.7191 F120.00
G01 X33.7106 Y-67.6985 F120.00
G01 X33.7249 Y-67.6833 F120.00
G01 X33.7800 Y-67.6223 F120.00
G01 X33.7974 Y-67.6017 F120.00
G01 X33.8065 Y-67.5901 F120.00
G01 X33.8606 Y-67.5172 F120.00
G01 X33.8759 Y-67.4949 F120.00
G01 X33.8851 Y-67.4804 F120.00
G01 X33.9261 Y-67.4120 F120.00
G01 X33.9365 Y-67.3939 F120.00
G01 X33.9512 Y-67.3656 F120.00
G01 X33.9889 Y-67.2858 F120.00
G01 X33.9996 Y-67.2609 F120.00
G01 X34.0057 Y-67.2449 F120.00
G01 X34.0326 Y-67.1698 F120.00
G01 X34.0401 Y-67.1477 F120.00
G01 X34.0443 Y-67.1336 F120.00
G01 X34.0497 Y-67.1135 F120.00
G01 X34.0676 Y-67.0421 F120.00
G01 X34.0728 Y-67.0194 F120.00
G01 X34.0757 Y-67.0049 F120.00
G01 X34.0791 Y-66.9844 F120.00
G01 X34.0899 Y-66.9116 F120.00
G01 X34.0929 Y-66.8884 F120.00
G01 X34.0943 Y-66.8738 F120.00
G01 X34.0957 Y-66.8530 F120.00
G01 X34.0993 Y-66.7794 F120.00
G01 X34.1000 Y-66.7561 F120.00
G01 X34.0999 Y-66.7414 F120.00
G01 X34.0993 Y-66.7206 F120.00
G01 X34.0953 Y-66.6409 F120.00
G01 X34.0929 Y-66.6116 F120.00
G01 X34.0899 Y-66.5884 F120.00
G01 X34.0791 Y-66.5156 F120.00
G01 X34.0757 Y-66.4951 F120.00
G01 X34.0728 Y-66.4806 F120.00
G01 X34.0676 Y-66.4579 F120.00
G01 X34.0497 Y-66.3865 F120.00
G01 X34.0443 Y-66.3664 F120.00
G01 X34.0401 Y-66.3523 F120.00
G01 X34.0326 Y-66.3302 F120.00
G01 X34.0078 Y-66.2609 F120.00
G01 X34.0005 Y-66.2413 F120.00
G01 X33.9939 Y-66.2255 F120.00
G01 X33.9853 Y-66.2065 F120.00
G01 X33.9538 Y-66.1399 F120.00
G01 X33.9446 Y-66.1212 F120.00
G01 X33.9377 Y-66.1082 F120.00
G01 X33.9261 Y-66.0880 F120.00
G01 X33.8851 Y-66.0196 F120.00
G01 X33.8759 Y-66.0051 F120.00
G01 X33.8606 Y-65.9828 F120.00
G01 X33.8065 Y-65.9099 F120.00
G01 X33.7896 Y-65.8889 F120.00
G01 X33.7800 Y-65.8777 F120.00
G01 X33.7249 Y-65.8167 F120.00
G01 X33.7106 Y-65.8015 F120.00
G01 X33.6896 Y-65.7809 F120.00
G01 X33.6556 Y-65.7500 F120.00
G01 X33.6896 Y-65.7191 F120.00
G01 X33.7106 Y-65.6985 F120.00
G01 X33.7249 Y-65.6833 F120.00
G01 X33.7800 Y-65.6223 F120.00
G01 X33.7974 Y-65.6017 F120.00
G01 X33.8080 Y-65.5881 F120.00
G01 X33.8555 Y-65.5241 F120.00
G01 X33.8677 Y-65.5071 F120.00
G01 X33.8772 Y-65.4928 F120.00
G01 X33.8882 Y-65.4751 F120.00
G01 X33.9292 Y-65.4067 F120.00
G01 X33.9435 Y-65.3810 F120.00
G01 X33.9538 Y-65.3601 F120.00
G01 X33.9853 Y-65.2935 F120.00
G01 X33.9939 Y-65.2745 F120.00
G01 X34.0005 Y-65.2587 F120.00
G01 X34.0078 Y-65.2391 F120.00
G01 X34.0355 Y-65.1617 F120.00
G01 X34.0436 Y-65.1360 F120.00
G01 X34.0482 Y-65.1194 F120.00
G01 X34.0676 Y-65.0421 F120.00
G01 X34.0728 Y-65.0194 F120.00
G01 X34.0782 Y-64.9904 F120.00
G01 X34.0899 Y-64.9116 F120.00
G01 X34.0929 Y-64.8884 F120.00
G01 X34.0952 Y-64.8615 F120.00
G01 X34.0993 Y-64.7794 F120.00
G01 X34.0999 Y-64.7586 F120.00
G01 X34.0999 Y-64.7414 F120.00
G01 X34.0993 Y-64.7206 F120.00
G01 X34.0953 Y-64.6409 F120.00
G01 X34.0935 Y-64.6184 F120.00
G01 X34.1134 Y-64.6120 F120.00
G01 X34.1390 Y-64.6026 F120.00
G01 X34.1551 Y-64.5959 F120.00
G01 X34.1822 Y-64.5835 F120.00
G01 X34.2064 Y-64.5709 F120.00
G01 X34.2322 Y-64.5560 F120.00
G01 X34.2469 Y-64.5467 F120.00
G01 X34.2694 Y-64.5312 F120.00
G01 X34.2833 Y-64.5208 F120.00
G01 X34.3046 Y-64.5037 F120.00
G01 X34.3649 Y-64.4516 F120.00
G01 X34.3806 Y-64.4375 F120.00
G01 X34.3932 Y-64.4255 F120.00
G01 X34.4122 Y-64.4058 F120.00
G01 X34.4238 Y-64.3929 F120.00
G01 X34.4413 Y-64.3719 F120.00
G01 X34.4519 Y-64.3582 F120.00
G01 X34.4678 Y-64.3360 F120.00
G01 X34.4774 Y-64.3215 F120.00
G01 X34.4916 Y-64.2981 F120.00
G01 X34.5001 Y-64.2830 F120.00
G01 X34.5125 Y-64.2586 F120.00
G01 X34.5198 Y-64.2429 F120.00
G01 X34.5304 Y-64.2177 F120.00
G01 X34.5365 Y-64.2014 F120.00
G01 X34.5452 Y-64.1755 F120.00
G01 X34.5700 Y-64.0910 F120.00
G01 X34.5736 Y-64.0772 F120.00
G01 X34.5795 Y-64.0517 F120.00
G01 X34.5827 Y-64.0354 F120.00
G01 X34.5867 Y-64.0095 F120.00
G01 X34.5887 Y-63.9930 F120.00
G01 X34.5909 Y-63.9669 F120.00
G01 X34.5917 Y-63.9502 F120.00
G01 X34.5920 Y-63.9300 F120.00
G01 X34.5920 Y-61.0920 F120.00
G01 X35.4080 Y-61.0920 F120.00
G01 X35.4080 Y-63.9300 F120.00
G01 X35.4084 Y-63.9509 F120.00
G01 X35.4091 Y-63.9656 F120.00
G01 X35.4115 Y-63.9951 F120.00
G01 X35.4174 Y-64.0426 F120.00
G01 X35.4216 Y-64.0687 F120.00
G01 X35.4244 Y-64.0829 F120.00
G01 X35.4280 Y-64.0993 F120.00
G01 X35.4347 Y-64.1249 F120.00
G01 X35.4395 Y-64.1410 F120.00
G01 X35.4480 Y-64.1660 F120.00
G01 X35.4540 Y-64.1817 F120.00
G01 X35.4643 Y-64.2061 F120.00
G01 X35.4714 Y-64.2214 F120.00
G01 X35.4834 Y-64.2449 F120.00
G01 X35.4946 Y-64.2648 F120.00
G01 X35.5306 Y-64.3260 F120.00
G01 X35.5416 Y-64.3440 F120.00
G01 X35.5497 Y-64.3565 F120.00
G01 X35.5596 Y-64.3708 F120.00
G01 X35.5760 Y-64.3926 F120.00
G01 X35.5870 Y-64.4061 F120.00
G01 X35.6049 Y-64.4267 F120.00
G01 X35.6273 Y-64.4499 F120.00
G01 X35.6473 Y-64.4686 F120.00
G01 X35.6604 Y-64.4800 F120.00
G01 X35.6719 Y-64.4895 F120.00
G01 X35.6935 Y-64.5061 F120.00
G01 X35.7077 Y-64.5162 F120.00
G01 X35.7306 Y-64.5312 F120.00
G01 X35.7455 Y-64.5401 F120.00
G01 X35.7694 Y-64.5534 F120.00
G01 X35.8460 Y-64.5922 F120.00
G01 X35.8753 Y-64.6056 F120.00
G01 X35.9065 Y-64.6179 F120.00
G01 X35.9047 Y-64.6409 F120.00
G01 X35.9007 Y-64.7206 F120.00
G01 X35.9001 Y-64.7414 F120.00
G01 X35.9000 Y-64.7561 F120.00
G01 X35.9007 Y-64.7794 F120.00
G01 X35.9048 Y-64.8615 F120.00
G01 X35.9071 Y-64.8884 F120.00
G01 X35.9101 Y-64.9116 F120.00
G01 X35.9218 Y-64.9904 F120.00
G01 X35.9272 Y-65.0194 F120.00
G01 X35.9324 Y-65.0421 F120.00
G01 X35.9518 Y-65.1194 F120.00
G01 X35.9564 Y-65.1360 F120.00
G01 X35.9645 Y-65.1617 F120.00
G01 X35.9922 Y-65.2391 F120.00
G01 X35.9995 Y-65.2587 F120.00
G01 X36.0061 Y-65.2745 F120.00
G01 X36.0147 Y-65.2935 F120.00
G01 X36.0488 Y-65.3656 F120.00
G01 X36.0623 Y-65.3918 F120.00
G01 X36.0739 Y-65.4120 F120.00
G01 X36.1118 Y-65.4751 F120.00
G01 X36.1228 Y-65.4928 F120.00
G01 X36.1323 Y-65.5071 F120.00
G01 X36.1445 Y-65.5241 F120.00
G01 X36.1920 Y-65.5881 F120.00
G01 X36.2026 Y-65.6017 F120.00
G01 X36.2200 Y-65.6223 F120.00
G01 X36.2751 Y-65.6833 F120.00
G01 X36.2894 Y-65.6985 F120.00
G01 X36.3104 Y-65.7191 F120.00
G01 X36.3444 Y-65.7500 F120.00
G01 X36.3104 Y-65.7809 F120.00
G01 X36.2894 Y-65.8015 F120.00
G01 X36.2751 Y-65.8167 F120.00
G01 X36.2216 Y-65.8758 F120.00
G01 X36.2010 Y-65.9003 F120.00
G01 X36.1883 Y-65.9168 F120.00
G01 X36.1445 Y-65.9759 F120.00
G01 X36.1310 Y-65.9949 F120.00
G01 X36.1228 Y-66.0072 F120.00
G01 X36.1118 Y-66.0249 F120.00
G01 X36.0739 Y-66.0880 F120.00
G01 X36.0635 Y-66.1061 F120.00
G01 X36.0554 Y-66.1212 F120.00
G01 X36.0462 Y-66.1399 F120.00
G01 X36.0147 Y-66.2065 F120.00
G01 X36.0051 Y-66.2277 F120.00
G01 X35.9943 Y-66.2551 F120.00
G01 X35.9653 Y-66.3359 F120.00
G01 X35.9599 Y-66.3523 F120.00
G01 X35.9524 Y-66.3782 F120.00
G01 X35.9324 Y-66.4579 F120.00
G01 X35.9277 Y-66.4782 F120.00
G01 X35.9248 Y-66.4927 F120.00
G01 X35.9209 Y-66.5156 F120.00
G01 X35.9101 Y-66.5884 F120.00
G01 X35.9071 Y-66.6116 F120.00
G01 X35.9047 Y-66.6409 F120.00
G01 X35.9007 Y-66.7206 F120.00
G01 X35.9000 Y-66.7439 F120.00
G01 X35.9004 Y-66.7709 F120.00
G01 X35.9048 Y-66.8615 F120.00
G01 X35.9071 Y-66.8884 F120.00
G01 X35.9092 Y-66.9055 F120.00
G01 X35.9209 Y-66.9844 F120.00
G01 X35.9248 Y-67.0073 F120.00
G01 X35.9309 Y-67.0361 F120.00
G01 X35.9518 Y-67.1194 F120.00
G01 X35.9564 Y-67.1360 F120.00
G01 X35.9645 Y-67.1617 F120.00
G01 X35.9922 Y-67.2391 F120.00
G01 X36.0004 Y-67.2609 F120.00
G01 X36.0121 Y-67.2880 F120.00
G01 X36.0462 Y-67.3601 F120.00
G01 X36.0565 Y-67.3810 F120.00
G01 X36.0696 Y-67.4046 F120.00
G01 X36.1118 Y-67.4751 F120.00
G01 X36.1228 Y-67.4928 F120.00
G01 X36.1323 Y-67.5071 F120.00
G01 X36.1445 Y-67.5241 F120.00
G01 X36.1920 Y-67.5881 F120.00
G01 X36.2119 Y-67.6130 F120.00
G01 X36.2257 Y-67.6287 F120.00
G01 X36.2751 Y-67.6833 F120.00
G01 X36.2894 Y-67.6985 F120.00
G01 X36.3104 Y-67.7191 F120.00
G01 X36.3444 Y-67.7500 F120.00
G01 X36.3104 Y-67.7809 F120.00
G01 X36.2998 Y-67.7911 F120.00
G01 X36.2809 Y-67.8104 F120.00
G01 X36.2200 Y-67.8777 F120.00
G01 X36.2026 Y-67.8983 F120.00
G01 X36.1935 Y-67.9099 F120.00
G01 X36.1408 Y-67.9809 F120.00
G01 X36.1228 Y-68.0072 F120.00
G01 X36.1118 Y-68.0249 F120.00
G01 X36.0696 Y-68.0954 F120.00
G01 X36.0565 Y-68.1190 F120.00
G01 X36.0488 Y-68.1344 F120.00
G01 X36.0121 Y-68.2120 F120.00
G01 X35.9995 Y-68.2413 F120.00
G01 X35.9922 Y-68.2609 F120.00
G01 X35.9653 Y-68.3359 F120.00
G01 X35.9599 Y-68.3523 F120.00
G01 X35.9524 Y-68.3782 F120.00
G01 X35.9304 Y-68.4662 F120.00
G01 X35.9248 Y-68.4927 F120.00
G01 X35.9222 Y-68.5072 F120.00
G01 X35.9101 Y-68.5884 F120.00
G01 X35.9074 Y-68.6091 F120.00
G01 X35.9048 Y-68.6385 F120.00
G01 X35.9037 Y-68.6593 F120.00
G00 Z2.0000
G00 X34.5920 Y-71.0920
G01 F60.00
G01 Z-2.4000
G01 F120.00
G01 X35.4080 Y-71.0920 F120.00
G01 X35.4080 Y-78.9080 F120.00
G01 X34.5920 Y-78.9080 F120.00
G01 X34.5920 Y-71.0920 F120.00
G01 X34.5920 Y-71.1216 F120.00
G01 X34.6177 Y-71.1188 F120.00
G01 X34.7131 Y-71.1106 F120.00
G01 X34.8086 Y-71.1047 F120.00
G01 X34.9043 Y-71.1012 F120.00
G01 X35.0000 Y-71.1000 F120.00
G01 X35.0957 Y-71.1012 F120.00
G01 X35.1914 Y-71.1047 F120.00
G01 X35.2869 Y-71.1106 F120.00
G01 X35.3823 Y-71.1188 F120.00
G01 X35.4080 Y-71.1216 F120.00
G01 X35.4080 Y-71.7254 F120.00
G01 X35.4040 Y-71.7248 F120.00
G01 X35.3235 Y-71.7159 F120.00
G01 X35.2428 Y-71.7089 F120.00
G01 X35.1619 Y-71.7040 F120.00
G01 X35.0810 Y-71.7010 F120.00
G01 X35.0000 Y-71.7000 F120.00
G01 X34.9190 Y-71.7010 F120.00
G01 X34.8381 Y-71.7040 F120.00
G01 X34.7572 Y-71.7089 F120.00
G01 X34.6765 Y-71.7159 F120.00
G01 X34.5960 Y-71.7248 F120.00
G01 X34.5920 Y-71.7254 F120.00
G01 X34.5920 Y-72.3311 F120.00
G01 X34.6038 Y-72.3292 F120.00
G01 X34.6695 Y-72.3203 F120.00
G01 X34.7354 Y-72.3130 F120.00
G01 X34.8014 Y-72.3073 F120.00
G01 X34.8675 Y-72.3033 F120.00
G01 X34.9337 Y-72.3008 F120.00
G01 X35.0000 Y-72.3000 F120.00
G01 X35.0663 Y-72.3008 F120.00
G01 X35.1325 Y-72.3033 F120.00
G01 X35.1986 Y-72.3073 F120.00
G01 X35.2646 Y-72.3130 F120.00
G01 X35.3305 Y-72.3203 F120.00
G01 X35.3962 Y-72.3292 F120.00
G01 X35.4080 Y-72.3311 F120.00
G01 X35.4080 Y-72.9400 F120.00
G01 X35.3590 Y-72.9309 F120.00
G01 X35.3081 Y-72.9227 F120.00
G01 X35.2571 Y-72.9158 F120.00
G01 X35.2058 Y-72.9101 F120.00
G01 X35.1545 Y-72.9057 F120.00
G01 X35.1030 Y-72.9025 F120.00
G01 X35.0515 Y-72.9006 F120.00
G01 X35.0000 Y-72.9000 F120.00
G01 X34.9485 Y-72.9006 F120.00
G01 X34.8970 Y-72.9025 F120.00
G01 X34.8455 Y-72.9057 F120.00
G01 X34.7942 Y-72.9101 F120.00
G01 X34.7429 Y-72.9158 F120.00
G01 X34.6919 Y-72.9227 F120.00
G01 X34.6410 Y-72.9309 F120.00
G01 X34.5920 Y-72.9400 F120.00
G01 X34.5920 Y-73.5566 F120.00
G01 X34.5999 Y-73.5543 F120.00
G01 X34.6355 Y-73.5450 F120.00
G01 X34.6713 Y-73.5364 F120.00
G01 X34.7074 Y-73.5288 F120.00
G01 X34.7436 Y-73.5221 F120.00
G01 X34.7799 Y-73.5162 F120.00
G01 X34.8164 Y-73.5113 F120.00
G01 X34.8530 Y-73.5072 F120.00
G01 X34.8897 Y-73.5041 F120.00
G01 X34.9264 Y-73.5018 F120.00
G01 X34.9632 Y-73.5005 F120.00
G01 X35.0000 Y-73.5000 F120.00
G01 X35.0368 Y-73.5005 F120.00
G01 X35.0736 Y-73.5018 F120.00
G01 X35.1103 Y-73.5041 F120.00
G01 X35.1470 Y-73.5072 F120.00
G01 X35.1836 Y-73.5113 F120.00
G01 X35.2201 Y-73.5162 F120.00
G01 X35.2564 Y-73.5221 F120.00
G01 X35.2926 Y-73.5288 F120.00
G01 X35.3287 Y-73.5364 F120.00
G01 X35.3645 Y-73.5450 F120.00
G01 X35.4001 Y-73.5543 F120.00
G01 X35.4080 Y-73.5566 F120.00
G01 X35.4080 Y-74.1978 F120.00
G01 X35.4047 Y-74.1961 F120.00
G01 X35.3848 Y-74.1864 F120.00
G01 X35.3647 Y-74.1772 F120.00
G01 X35.3444 Y-74.1685 F120.00
G01 X35.3239 Y-74.1603 F120.00
G01 X35.3032 Y-74.1526 F120.00
G01 X35.2823 Y-74.1454 F120.00
G01 X35.2613 Y-74.1388 F120.00
G01 X35.2400 Y-74.1326 F120.00
G01 X35.2187 Y-74.1270 F120.00
G01 X35.1972 Y-74.1219 F120.00
G01 X35.1756 Y-74.1173 F120.00
G01 X35.1539 Y-74.1133 F120.00
G01 X35.1321 Y-74.1097 F120.00
G01 X35.1102 Y-74.1068 F120.00
G01 X35.0882 Y-74.1043 F120.00
G01 X35.0662 Y-74.1024 F120.00
G01 X35.0442 Y-74.1011 F120.00
G01 X35.0221 Y-74.1003 F120.00
G01 X35.0000 Y-74.1000 F120.00
G01 X34.9779 Y-74.1003 F120.00
G01 X34.9558 Y-74.1011 F120.00
G01 X34.9338 Y-74.1024 F120.00
G01 X34.9118 Y-74.1043 F120.00
G01 X34.8898 Y-74.1068 F120.00
G01 X34.8679 Y-74.1097 F120.00
G01 X34.8461 Y-74.1133 F120.00
G01 X34.8244 Y-74.1173 F120.00
G01 X34.8028 Y-74.1219 F120.00
G01 X34.7813 Y-74.1270 F120.00
G01 X34.7600 Y-74.1326 F120.00
G01 X34.7387 Y-74.1388 F120.00
G01 X34.7177 Y-74.1454 F120.00
G01 X34.6968 Y-74.1526 F120.00
G01 X34.6761 Y-74.1603 F120.00
G01 X34.6556 Y-74.1685 F120.00
G01 X34.6353 Y-74.1772 F120.00
G01 X34.6152 Y-74.1864 F120.00
G01 X34.5953 Y-74.1961 F120.00
G01 X34.5920 Y-74.1978 F120.00
G01 X35.3000 Y-75.0000 F120.00
G01 X35.2996 Y-75.0147 F120.00
G01 X35.2986 Y-75.0294 F120.00
G01 X35.2956 Y-75.0513 F120.00
G01 X35.2927 Y-75.0657 F120.00
G01 X35.2891 Y-75.0800 F120.00
G01 X35.2825 Y-75.1011 F120.00
G01 X35.2743 Y-75.1216 F120.00
G01 X35.2646 Y-75.1414 F120.00
G01 X35.2573 Y-75.1542 F120.00
G01 X35.2494 Y-75.1667 F120.00
G01 X35.2365 Y-75.1846 F120.00
G01 X35.2272 Y-75.1960 F120.00
G01 X35.2173 Y-75.2069 F120.00
G01 X35.2015 Y-75.2223 F120.00
G01 X35.1846 Y-75.2365 F120.00
G01 X35.1667 Y-75.2494 F120.00
G01 X35.1479 Y-75.2610 F120.00
G01 X35.1349 Y-75.2680 F120.00
G01 X35.1216 Y-75.2743 F120.00
G01 X35.1011 Y-75.2825 F120.00
G01 X35.0871 Y-75.2871 F120.00
G01 X35.0729 Y-75.2910 F120.00
G01 X35.0513 Y-75.2956 F120.00
G01 X35.0367 Y-75.2977 F120.00
G01 X35.0221 Y-75.2992 F120.00
G01 X35.0000 Y-75.3000 F120.00
G01 X34.9779 Y-75.2992 F120.00
G01 X34.9633 Y-75.2977 F120.00
G01 X34.9487 Y-75.2956 F120.00
G01 X34.9271 Y-75.2910 F120.00
G01 X34.9129 Y-75.2871 F120.00
G01 X34.8989 Y-75.2825 F120.00
G01 X34.8784 Y-75.2743 F120.00
G01 X34.8651 Y-75.2680 F120.00
G01 X34.8521 Y-75.2610 F120.00
G01 X34.8333 Y-75.2494 F120.00
G01 X34.8213 Y-75.2410 F120.00
G01 X34.8097 Y-75.2319 F120.00
G01 X34.7931 Y-75.2173 F120.00
G01 X34.7827 Y-75.2069 F120.00
G01 X34.7728 Y-75.1960 F120.00
G01 X34.7590 Y-75.1787 F120.00
G01 X34.7465 Y-75.1605 F120.00
G01 X34.7390 Y-75.1479 F120.00
G01 X34.7320 Y-75.1349 F120.00
G01 X34.7257 Y-75.1216 F120.00
G01 X34.7201 Y-75.1080 F120.00
G01 X34.7129 Y-75.0871 F120.00
G01 X34.7090 Y-75.0729 F120.00
G01 X34.7058 Y-75.0585 F120.00
G01 X34.7032 Y-75.0440 F120.00
G01 X34.7014 Y-75.0294 F120.00
G01 X34.7001 Y-75.0074 F120.00
G01 X34.7001 Y-74.9926 F120.00
G01 X34.7008 Y-74.9779 F120.00
G01 X34.7023 Y-74.9633 F120.00
G01 X34.7044 Y-74.9487 F120.00
G01 X34.7090 Y-74.9271 F120.00
G01 X34.7129 Y-74.9129 F120.00
G01 X34.7175 Y-74.8989 F120.00
G01 X34.7228 Y-74.8852 F120.00
G01 X34.7288 Y-74.8717 F120.00
G01 X34.7354 Y-74.8586 F120.00
G01 X34.7427 Y-74.8458 F120.00
G01 X34.7547 Y-74.8273 F120.00
G01 X34.7681 Y-74.8097 F120.00
G01 X34.7777 Y-74.7985 F120.00
G01 X34.7879 Y-74.7879 F120.00
G01 X34.8040 Y-74.7728 F120.00
G01 X34.8154 Y-74.7635 F120.00
G01 X34.8273 Y-74.7547 F120.00
G01 X34.8395 Y-74.7465 F120.00
G01 X34.8521 Y-74.7390 F120.00
G01 X34.8717 Y-74.7288 F120.00
G01 X34.8852 Y-74.7228 F120.00
G01 X34.8989 Y-74.7175 F120.00
G01 X34.9200 Y-74.7109 F120.00
G01 X34.9343 Y-74.7073 F120.00
G01 X34.9487 Y-74.7044 F120.00
G01 X34.9706 Y-74.7014 F120.00
G01 X34.9926 Y-74.7001 F120.00
G01 X35.0074 Y-74.7001 F120.00
G01 X35.0221 Y-74.7008 F120.00
G01 X35.0367 Y-74.7023 F120.00
G01 X35.0440 Y-74.7032 F120.00
G01 X35.0513 Y-74.7044 F120.00
G01 X35.0729 Y-74.7090 F120.00
G01 X35.0871 Y-74.7129 F120.00
G01 X35.1011 Y-74.7175 F120.00
G01 X35.1216 Y-74.7257 F120.00
G01 X35.1349 Y-74.7320 F120.00
G01 X35.1479 Y-74.7390 F120.00
G01 X35.1667 Y-74.7506 F120.00
G01 X35.1787 Y-74.7590 F120.00
G01 X35.1903 Y-74.7681 F120.00
G01 X35.2015 Y-74.7777 F120.00
G01 X35.2121 Y-74.7879 F120.00
G01 X35.2272 Y-74.8040 F120.00
G01 X35.2410 Y-74.8213 F120.00
G01 X35.2535 Y-74.8395 F120.00
G01 X35.2646 Y-74.8586 F120.00
G01 X35.2743 Y-74.8784 F120.00
G01 X35.2825 Y-74.8989 F120.00
G01 X35.2891 Y-74.9200 F120.00
G01 X35.2942 Y-74.9415 F120.00
G01 X35.2968 Y-74.9560 F120.00
G01 X35.2986 Y-74.9706 F120.00
G01 X35.2996 Y-74.9853 F120.00
G01 X35.3000 Y-75.0000 F120.00
G01 X35.4080 Y-75.8022 F120.00
G01 X35.4047 Y-75.8039 F120.00
G01 X35.3848 Y-75.8136 F120.00
G01 X35.3647 Y-75.8228 F120.00
G01 X35.3444 Y-75.8315 F120.00
G01 X35.3239 Y-75.8397 F120.00
G01 X35.3032 Y-75.8474 F120.00
G01 X35.2823 Y-75.8546 F120.00
G01 X35.2613 Y-75.8612 F120.00
G01 X35.2400 Y-75.8674 F120.00
G01 X35.2187 Y-75.8730 F120.00
G01 X35.1972 Y-75.8781 F120.00
G01 X35.1756 Y-75.8827 F120.00
G01 X35.1539 Y-75.8867 F120.00
G01 X35.1321 Y-75.8903 F120.00
G01 X35.1102 Y-75.8932 F120.00
G01 X35.0882 Y-75.8957 F120.00
G01 X35.0662 Y-75.8976 F120.00
G01 X35.0442 Y-75.8989 F120.00
G01 X35.0221 Y-75.8997 F120.00
G01 X35.0000 Y-75.9000 F120.00
G01 X34.9779 Y-75.8997 F120.00
G01 X34.9558 Y-75.8989 F120.00
G01 X34.9338 Y-75.8976 F120.00
G01 X34.9118 Y-75.8957 F120.00
G01 X34.8898 Y-75.8932 F120.00
G01 X34.8679 Y-75.8903 F120.00
G01 X34.8461 Y-75.8867 F120.00
G01 X34.8244 Y-75.8827 F120.00
G01 X34.8028 Y-75.8781 F120.00
G01 X34.7813 Y-75.8730 F120.00
G01 X34.7600 Y-75.8674 F120.00
G01 X34.7387 Y-75.8612 F120.00
G01 X34.7177 Y-75.8546 F120.00
G01 X34.6968 Y-75.8474 F120.00
G01 X34.6761 Y-75.8397 F120.00
G01 X34.6556 Y-75.8315 F120.00
G01 X34.6353 Y-75.8228 F120.00
G01 X34.6152 Y-75.8136 F120.00
G01 X34.5953 Y-75.8039 F120.00
G01 X34.5920 Y-75.8022 F120.00
G01 X34.5920 Y-76.4434 F120.00
G01 X34.5999 Y-76.4457 F120.00
G01 X34.6355 Y-76.4550 F120.00
G01 X34.6713 Y-76.4636 F120.00
G01 X34.7074 Y-76.4712 F120.00
G01 X34.7436 Y-76.4779 F120.00
G01 X34.7799 Y-76.4838 F120.00
G01 X34.8164 Y-76.4887 F120.00
G01 X34.8530 Y-76.4928 F120.00
G01 X34.8897 Y-76.4959 F120.00
G01 X34.9264 Y-76.4982 F120.00
G01 X34.9632 Y-76.4995 F120.00
G01 X35.0000 Y-76.5000 F120.00
G01 X35.0368 Y-76.4995 F120.00
G01 X35.0736 Y-76.4982 F120.00
G01 X35.1103 Y-76.4959 F120.00
G01 X35.1470 Y-76.4928 F120.00
G01 X35.1836 Y-76.4887 F120.00
G01 X35.2201 Y-76.4838 F120.00
G01 X35.2564 Y-76.4779 F120.00
G01 X35.2926 Y-76.4712 F120.00
G01 X35.3287 Y-76.4636 F120.00
G01 X35.3645 Y-76.4550 F120.00
G01 X35.4001 Y-76.4457 F120.00
G01 X35.4080 Y-76.4434 F120.00
G01 X35.4080 Y-77.0600 F120.00
G01 X35.3590 Y-77.0691 F120.00
G01 X35.3081 Y-77.0773 F120.00
G01 X35.2571 Y-77.0842 F120.00
G01 X35.2058 Y-77.0899 F120.00
G01 X35.1545 Y-77.0943 F120.00
G01 X35.1030 Y-77.0975 F120.00
G01 X35.0515 Y-77.0994 F120.00
G01 X35.0000 Y-77.1000 F120.00
G01 X34.9485 Y-77.0994 F120.00
G01 X34.8970 Y-77.0975 F120.00
G01 X34.8455 Y-77.0943 F120.00
G01 X34.7942 Y-77.0899 F120.00
G01 X34.7429 Y-77.0842 F120.00
G01 X34.6919 Y-77.0773 F120.00
G01 X34.6410 Y-77.0691 F120.00
G01 X34.5920 Y-77.0600 F120.00
G01 X34.5920 Y-77.6689 F120.00
G01 X34.6038 Y-77.6708 F120.00
G01 X34.6695 Y-77.6797 F120.00
G01 X34.7354 Y-77.6870 F120.00
G01 X34.8014 Y-77.6927 F120.00
G01 X34.8675 Y-77.6967 F120.00
G01 X34.9337 Y-77.6992 F120.00
G01 X35.0000 Y-77.7000 F120.00
G01 X35.0663 Y-77.6992 F120.00
G01 X35.1325 Y-77.6967 F120.00
G01 X35.1986 Y-77.6927 F120.00
G01 X35.2646 Y-77.6870 F120.00
G01 X35.3305 Y-77.6797 F120.00
G01 X35.3962 Y-77.6708 F120.00
G01 X35.4080 Y-77.6689 F120.00
G01 X35.4080 Y-78.2746 F120.00
G01 X35.4040 Y-78.2752 F120.00
G01 X35.3235 Y-78.2841 F120.00
G01 X35.2428 Y-78.2911 F120.00
G01 X35.1619 Y-78.2960 F120.00
G01 X35.0810 Y-78.2990 F120.00
G01 X35.0000 Y-78.3000 F120.00
G01 X34.9190 Y-78.2990 F120.00
G01 X34.8381 Y-78.2960 F120.00
G01 X34.7572 Y-78.2911 F120.00
G01 X34.6765 Y-78.2841 F120.00
G01 X34.5960 Y-78.2752 F120.00
G01 X34.5920 Y-78.2746 F120.00
G01 X34.5920 Y-78.8784 F120.00
G01 X34.6177 Y-78.8812 F120.00
G01 X34.7131 Y-78.8894 F120.00
G01 X34.8086 Y-78.8953 F120.00
G01 X34.9043 Y-78.8988 F120.00
G01 X35.0000 Y-78.9000 F120.00
G01 X35.0957 Y-78.8988 F120.00
G01 X35.1914 Y-78.8953 F120.00
G01 X35.2869 Y-78.8894 F120.00
G01 X35.3823 Y-78.8812 F120.00
G01 X35.4080 Y-78.8784 F120.00
G00 Z2.0000
G00 X34.5920 Y-81.0920
G01 F60.00
G01 Z-2.4000
G01 F120.00
G01 X35.4080 Y-81.0920 F120.00
G01 X35.4080 Y-88.9080 F120.00
G01 X34.5920 Y-88.9080 F120.00
G01 X34.5920 Y-81.0920 F120.00
G01 X34.5920 Y-81.1216 F120.00
G01 X34.6177 Y-81.1188 F120.00
G01 X34.7131 Y-81.1106 F120.00
G01 X34.8086 Y-81.1047 F120.00
G01 X34.9043 Y-81.1012 F120.00
G01 X35.0000 Y-81.1000 F120.00
G01 X35.0957 Y-81.1012 F120.00
G01 X35.1914 Y-81.1047 F120.00
G01 X35.2869 Y-81.1106 F120.00
G01 X35.3823 Y-81.1188 F120.00
G01 X35.4080 Y-81.1216 F120.00
G01 X35.4080 Y-81.7254 F120.00
G01 X35.4040 Y-81.7248 F120.00
G01 X35.3235 Y-81.7159 F120.00
G01 X35.2428 Y-81.7089 F120.00
G01 X35.1619 Y-81.7040 F120.00
G01 X35.0810 Y-81.7010 F120.00
G01 X35.0000 Y-81.7000 F120.00
G01 X34.9190 Y-81.7010 F120.00
G01 X34.8381 Y-81.7040 F120.00
G01 X34.7572 Y-81.7089 F120.00
G01 X34.6765 Y-81.7159 F120.00
G01 X34.5960 Y-81.7248 F120.00
G01 X34.5920 Y-81.7254 F120.00
G01 X34.5920 Y-82.3311 F120.00
G01 X34.6038 Y-82.3292 F120.00
G01 X34.6695 Y-82.3203 F120.00
G01 X34.7354 Y-82.3130 F120.00
G01 X34.8014 Y-82.3073 F120.00
G01 X34.8675 Y-82.3033 F120.00
G01 X34.9337 Y-82.3008 F120.00
G01 X35.0000 Y-82.3000 F120.00
G01 X35.0663 Y-82.3008 F120.00
G01 X35.1325 Y-82.3033 F120.00
G01 X35.1986 Y-82.3073 F120.00
G01 X35.2646 Y-82.3130 F120.00
G01 X35.3305 Y-82.3203 F120.00
G01 X35.3962 Y-82.3292 F120.00
G01 X35.4080 Y-82.3311 F120.00
G01 X35.4080 Y-82.9400 F120.00
G01 X35.3590 Y-82.9309 F120.00
G01 X35.3081 Y-82.9227 F120.00
G01 X35.2571 Y-82.9158 F120.00
G01 X35.2058 Y-82.9101 F120.00
G01 X35.1545 Y-82.9057 F120.00
G01 X35.1030 Y-82.9025 F120.00
G01 X35.0515 Y-82.9006 F120.00
G01 X35.0000 Y-82.9000 F120.00
G01 X34.9485 Y-82.9006 F120.00
G01 X34.8970 Y-82.9025 F120.00
G01 X34.8455 Y-82.9057 F120.00
G01 X34.7942 Y-82.9101 F120.00
G01 X34.7429 Y-82.9158 F120.00
G01 X34.6919 Y-82.9227 F120.00
G01 X34.6410 Y-82.9309 F120.00
G01 X34.5920 Y-82.9400 F120.00
G01 X34.5920 Y-83.5566 F120.00
G01 X34.5999 Y-83.5543 F120.00
G01 X34.6355 Y-83.5450 F120.00
G01 X34.6713 Y-83.5364 F120.00
G01 X34.7074 Y-83.5288 F120.00
G01 X34.7436 Y-83.5221 F120.00
G01 X34.7799 Y-83.5162 F120.00
G01 X34.8164 Y-83.5113 F120.00
G01 X34.8530 Y-83.5072 F120.00
G01 X34.8897 Y-83.5041 F120.00
G01 X34.9264 Y-83.5018 F120.00
G01 X34.9632 Y-83.5005 F120.00
G01 X35.0000 Y-83.5000 F120.00
G01 X35.0368 Y-83.5005 F120.00
G01 X35.0736 Y-83.5018 F120.00
G01 X35.1103 Y-83.5041 F120.00
G01 X35.1470 Y-83.5072 F120.00
G01 X35.1836 Y-83.5113 F120.00
G01 X35.2201 Y-83.5162 F120.00
G01 X35.2564 Y-83.5221 F120.00
G01 X35.2926 Y-83.5288 F120.00
G01 X35.3287 Y-83.5364 F120.00
G01 X35.3645 Y-83.5450 F120.00
G01 X35.4001 Y-83.5543 F120.00
G01 X35.4080 Y-83.5566 F120.00
G01 X35.4080 Y-84.1978 F120.00
G01 X35.4047 Y-84.1961 F120.00
G01 X35.3848 Y-84.1864 F120.00
G01 X35.3647 Y-84.1772 F120.00
G01 X35.3444 Y-84.1685 F120.00
G01 X35.3239 Y-84.1603 F120.00
G01 X35.3032 Y-84.1526 F120.00
G01 X35.2823 Y-84.1454 F120.00
G01 X35.2613 Y-84.1388 F120.00
G01 X35.2400 Y-84.1326 F120.00
G01 X35.2187 Y-84.1270 F120.00
G01 X35.1972 Y-84.1219 F120.00
G01 X35.1756 Y-84.1173 F120.00
G01 X35.1539 Y-84.1133 F120.00
G01 X35.1321 Y-84.1097 F120.00
G01 X35.1102 Y-84.1068 F120.00
G01 X35.0882 Y-84.1043 F120.00
G01 X35.0662 Y-84.1024 F120.00
G01 X35.0442 Y-84.1011 F120.00
G01 X35.0221 Y-84.1003 F120.00
G01 X35.0000 Y-84.1000 F120.00
G01 X34.9779 Y-84.1003 F120.00
G01 X34.9558 Y-84.1011 F120.00
G01 X34.9338 Y-84.1024 F120.00
G01 X34.9118 Y-84.1043 F120.00
G01 X34.8898 Y-84.1068 F120.00
G01 X34.8679 Y-84.1097 F120.00
G01 X34.8461 Y-84.1133 F120.00
G01 X34.8244 Y-84.1173 F120.00
G01 X34.8028 Y-84.1219 F120.00
G01 X34.7813 Y-84.1270 F120.00
G01 X34.7600 Y-84.1326 F120.00
G01 X34.7387 Y-84.1388 F120.00
G01 X34.7177 Y-84.1454 F120.00
G01 X34.6968 Y-84.1526 F120.00
G01 X34.6761 Y-84.1603 F120.00
G01 X34.6556 Y-84.1685 F120.00
G01 X34.6353 Y-84.1772 F120.00
G01 X34.6152 Y-84.1864 F120.00
G01 X34.5953 Y-84.1961 F120.00
G01 X34.5920 Y-84.1978 F120.00
G01 X35.3000 Y-85.0000 F120.00
G01 X35.2996 Y-85.0147 F120.00
G01 X35.2986 Y-85.0294 F120.00
G01 X35.2956 Y-85.0513 F120.00
G01 X35.2927 Y-85.0657 F120.00
G01 X35.2891 Y-85.0800 F120.00
G01 X35.2825 Y-85.1011 F120.00
G01 X35.2743 Y-85.1216 F120.00
G01 X35.2646 Y-85.1414 F120.00
G01 X35.2573 Y-85.1542 F120.00
G01 X35.2494 Y-85.1667 F120.00
G01 X35.2365 Y-85.1846 F120.00
G01 X35.2272 Y-85.1960 F120.00
G01 X35.2173 Y-85.2069 F120.00
G01 X35.2015 Y-85.2223 F120.00
G01 X35.1846 Y-85.2365 F120.00
G01 X35.1667 Y-85.2494 F120.00
G01 X35.1479 Y-85.2610 F120.00
G01 X35.1349 Y-85.2680 F120.00
G01 X35.1216 Y-85.2743 F120.00
G01 X35.1011 Y-85.2825 F120.00
G01 X35.0871 Y-85.2871 F120.00
G01 X35.0729 Y-85.2910 F120.00
G01 X35.0513 Y-85.2956 F120.00
G01 X35.0367 Y-85.2977 F120.00
G01 X35.0221 Y-85.2992 F120.00
G01 X35.0000 Y-85.3000 F120.00
G01 X34.9779 Y-85.2992 F120.00
G01 X34.9633 Y-85.2977 F120.00
G01 X34.9487 Y-85.2956 F120.00
G01 X34.9271 Y-85.2910 F120.00
G01 X34.9129 Y-85.2871 F120.00
G01 X34.8989 Y-85.2825 F120.00
G01 X34.8784 Y-85.2743 F120.00
G01 X34.8651 Y-85.2680 F120.00
G01 X34.8521 Y-85.2610 F120.00
G01 X34.8333 Y-85.2494 F120.00
G01 X34.8213 Y-85.2410 F120.00
G01 X34.8097 Y-85.2319 F120.00
G01 X34.7931 Y-85.2173 F120.00
G01 X34.7827 Y-85.2069 F120.00
G01 X34.7728 Y-85.1960 F120.00
G01 X34.7590 Y-85.1787 F120.00
G01 X34.7465 Y-85.1605 F120.00
G01 X34.7390 Y-85.1479 F120.00
G01 X34.7320 Y-85.1349 F120.00
G01 X34.7257 Y-85.1216 F120.00
G01 X34.7201 Y-85.1080 F120.00
G01 X34.7129 Y-85.0871 F120.00
G01 X34.7090 Y-85.0729 F120.00
G01 X34.7058 Y-85.0585 F120.00
G01 X34.7032 Y-85.0440 F120.00
G01 X34.7014 Y-85.0294 F120.00
G01 X34.7001 Y-85.0074 F120.00
G01 X34.7001 Y-84.9926 F120.00
G01 X34.7008 Y-84.9779 F120.00
G01 X34.7023 Y-84.9633 F120.00
G01 X34.7044 Y-84.9487 F120.00
G01 X34.7090 Y-84.9271 F120.00
G01 X34.7129 Y-84.9129 F120.00
G01 X34.7175 Y-84.8989 F120.00
G01 X34.7228 Y-84.8852 F120.00
G01 X34.7288 Y-84.8717 F120.00
G01 X34.7354 Y-84.8586 F120.00
G01 X34.7427 Y-84.8458 F120.00
G01 X34.7547 Y-84.8273 F120.00
G01 X34.7681 Y-84.8097 F120.00
G01 X34.7777 Y-84.7985 F120.00
G01 X34.7879 Y-84.7879 F120.00
G01 X34.8040 Y-84.7728 F120.00
G01 X34.8154 Y-84.7635 F120.00
G01 X34.8273 Y-84.7547 F120.00
G01 X34.8395 Y-84.7465 F120.00
G01 X34.8521 Y-84.7390 F120.00
G01 X34.8717 Y-84.7288 F120.00
G01 X34.8852 Y-84.7228 F120.00
G01 X34.8989 Y-84.7175 F120.00
G01 X34.9200 Y-84.7109 F120.00
G01 X34.9343 Y-84.7073 F120.00
G01 X34.9487 Y-84.7044 F120.00
G01 X34.9706 Y-84.7014 F120.00
G01 X34.9926 Y-84.7001 F120.00
G01 X35.0074 Y-84.7001 F120.00
G01 X35.0221 Y-84.7008 F120.00
G01 X35.0367 Y-84.7023 F120.00
G01 X35.0440 Y-84.7032 F120.00
G01 X35.0513 Y-84.7044 F120.00
G01 X35.0729 Y-84.7090 F120.00
G01 X35.0871 Y-84.7129 F120.00
G01 X35.1011 Y-84.7175 F120.00
G01 X35.1216 Y-84.7257 F120.00
G01 X35.1349 Y-84.7320 F120.00
G01 X35.1479 Y-84.7390 F120.00
G01 X35.1667 Y-84.7506 F120.00
G01 X35.1787 Y-84.7590 F120.00
G01 X35.1903 Y-84.7681 F120.00
G01 X35.2015 Y-84.7777 F120.00
G01 X35.2121 Y-84.7879 F120.00
G01 X35.2272 Y-84.8040 F120.00
G01 X35.2410 Y-84.8213 F120.00
G01 X35.2535 Y-84.8395 F120.00
G01 X35.2646 Y-84.8586 F120.00
G01 X35.2743 Y-84.8784 F120.00
G01 X35.2825 Y-84.8989 F120.00
G01 X35.2891 Y-84.9200 F120.00
G01 X35.2942 Y-84.9415 F120.00
G01 X35.2968 Y-84.9560 F120.00
G01 X35.2986 Y-84.9706 F120.00
G01 X35.2996 Y-84.9853 F120.00
G01 X35.3000 Y-85.0000 F120.00
G01 X35.4080 Y-85.8022 F120.00
G01 X35.4047 Y-85.8039 F120.00
G01 X35.3848 Y-85.8136 F120.00
G01 X35.3647 Y-85.8228 F120.00
G01 X35.3444 Y-85.8315 F120.00
G01 X35.3239 Y-85.8397 F120.00
G01 X35.3032 Y-85.8474 F120.00
G01 X35.2823 Y-85.8546 F120.00
G01 X35.2613 Y-85.8612 F120.00
G01 X35.2400 Y-85.8674 F120.00
G01 X35.2187 Y-85.8730 F120.00
G01 X35.1972 Y-85.8781 F120.00
G01 X35.1756 Y-85.8827 F120.00
G01 X35.1539 Y-85.8867 F120.00
G01 X35.1321 Y-85.8903 F120.00
G01 X35.1102 Y-85.8932 F120.00
G01 X35.0882 Y-85.8957 F120.00
G01 X35.0662 Y-85.8976 F120.00
G01 X35.0442 Y-85.8989 F120.00
G01 X35.0221 Y-85.8997 F120.00
G01 X35.0000 Y-85.9000 F120.00
G01 X34.9779 Y-85.8997 F120.00
G01 X34.9558 Y-85.8989 F120.00
G01 X34.9338 Y-85.8976 F120.00
G01 X34.9118 Y-85.8957 F120.00
G01 X34.8898 Y-85.8932 F120.00
G01 X34.8679 Y-85.8903 F120.00
G01 X34.8461 Y-85.8867 F120.00
G01 X34.8244 Y-85.8827 F120.00
G01 X34.8028 Y-85.8781 F120.00
G01 X34.7813 Y-85.8730 F120.00
G01 X34.7600 Y-85.8674 F120.00
G01 X34.7387 Y-85.8612 F120.00
G01 X34.7177 Y-85.8546 F120.00
G01 X34.6968 Y-85.8474 F120.00
G01 X34.6761 Y-85.8397 F120.00
G01 X34.6556 Y-85.8315 F120.00
G01 X34.6353 Y-85.8228 F120.00
G01 X34.6152 Y-85.8136 F120.00
G01 X34.5953 Y-85.8039 F120.00
G01 X34.5920 Y-85.8022 F120.00
G01 X34.5920 Y-86.4434 F120.00
G01 X34.5999 Y-86.4457 F120.00
G01 X34.6355 Y-86.4550 F120.00
G01 X34.6713 Y-86.4636 F120.00
G01 X34.7074 Y-86.4712 F120.00
G01 X34.7436 Y-86.4779 F120.00
G01 X34.7799 Y-86.4838 F120.00
G01 X34.8164 Y-86.4887 F120.00
G01 X34.8530 Y-86.4928 F120.00
G01 X34.8897 Y-86.4959 F120.00
G01 X34.9264 Y-86.4982 F120.00
G01 X34.9632 Y-86.4995 F120.00
G01 X35.0000 Y-86.5000 F120.00
G01 X35.0368 Y-86.4995 F120.00
G01 X35.0736 Y-86.4982 F120.00
G01 X35.1103 Y-86.4959 F120.00
G01 X35.1470 Y-86.4928 F120.00
G01 X35.1836 Y-86.4887 F120.00
G01 X35.2201 Y-86.4838 F120.00
G01 X35.2564 Y-86.4779 F120.00
G01 X35.2926 Y-86.4712 F120.00
G01 X35.3287 Y-86.4636 F120.00
G01 X35.3645 Y-86.4550 F120.00
G01 X35.4001 Y-86.4457 F120.00
G01 X35.4080 Y-86.4434 F120.00
G01 X35.4080 Y-87.0600 F120.00
G01 X35.3590 Y-87.0691 F120.00
G01 X35.3081 Y-87.0773 F120.00
G01 X35.2571 Y-87.0842 F120.00
G01 X35.2058 Y-87.0899 F120.00
G01 X35.1545 Y-87.0943 F120.00
G01 X35.1030 Y-87.0975 F120.00
G01 X35.0515 Y-87.0994 F120.00
G01 X35.0000 Y-87.1000 F120.00
G01 X34.9485 Y-87.0994 F120.00
G01 X34.8970 Y-87.0975 F120.00
G01 X34.8455 Y-87.0943 F120.00
G01 X34.7942 Y-87.0899 F120.00
G01 X34.7429 Y-87.0842 F120.00
G01 X34.6919 Y-87.0773 F120.00
G01 X34.6410 Y-87.0691 F120.00
G01 X34.5920 Y-87.0600 F120.00
G01 X34.5920 Y-87.6689 F120.00
G01 X34.6038 Y-87.6708 F120.00
G01 X34.6695 Y-87.6797 F120.00
G01 X34.7354 Y-87.6870 F120.00
G01 X34.8014 Y-87.6927 F120.00
G01 X34.8675 Y-87.6967 F120.00
G01 X34.9337 Y-87.6992 F120.00
G01 X35.0000 Y-87.7000 F120.00
G01 X35.0663 Y-87.6992 F120.00
G01 X35.1325 Y-87.6967 F120.00
G01 X35.1986 Y-87.6927 F120.00
G01 X35.2646 Y-87.6870 F120.00
G01 X35.3305 Y-87.6797 F120.00
G01 X35.3962 Y-87.6708 F120.00
G01 X35.4080 Y-87.6689 F120.00
G01 X35.4080 Y-88.2746 F120.00
G01 X35.4040 Y-88.2752 F120.00
G01 X35.3235 Y-88.2841 F120.00
G01 X35.2428 Y-88.2911 F120.00
G01 X35.1619 Y-88.2960 F120.00
G01 X35.0810 Y-88.2990 F120.00
G01 X35.0000 Y-88.3000 F120.00
G01 X34.9190 Y-88.2990 F120.00
G01 X34.8381 Y-88.2960 F120.00
G01 X34.7572 Y-88.2911 F120.00
G01 X34.6765 Y-88.2841 F120.00
G01 X34.5960 Y-88.2752 F120.00
G01 X34.5920 Y-88.2746 F120.00
G01 X34.5920 Y-88.8784 F120.00
G01 X34.6177 Y-88.8812 F120.00
G01 X34.7131 Y-88.8894 F120.00
G01 X34.8086 Y-88.8953 F120.00
G01 X34.9043 Y-88.8988 F120.00
G01 X35.0000 Y-88.9000 F120.00
G01 X35.0957 Y-88.8988 F120.00
G01 X35.1914 Y-88.8953 F120.00
G01 X35.2869 Y-88.8894 F120.00
G01 X35.3823 Y-88.8812 F120.00
G01 X35.4080 Y-88.8784 F120.00
G00 Z2.0000
G00 X34.5920 Y-91.0920
G01 F60.00
G01 Z-2.4000
G01 F120.00
G01 X35.4080 Y-91.0920 F120.00
G01 X35.4080 Y-98.9080 F120.00
G01 X34.5920 Y-98.9080 F120.00
G01 X34.5920 Y-91.0920 F120.00
G01 X34.5920 Y-91.1216 F120.00
G01 X34.6177 Y-91.1188 F120.00
G01 X34.7131 Y-91.1106 F120.00
G01 X34.8086 Y-91.1047 F120.00
G01 X34.9043 Y-91.1012 F120.00
G01 X35.0000 Y-91.1000 F120.00
G01 X35.0957 Y-91.1012 F120.00
G01 X35.1914 Y-91.1047 F120.00
G01 X35.2869 Y-91.1106 F120.00
G01 X35.3823 Y-91.1188 F120.00
G01 X35.4080 Y-91.1216 F120.00
G01 X35.4080 Y-91.7254 F120.00
G01 X35.4040 Y-91.7248 F120.00
G01 X35.3235 Y-91.7159 F120.00
G01 X35.2428 Y-91.7089 F120.00
G01 X35.1619 Y-91.7040 F120.00
G01 X35.0810 Y-91.7010 F120.00
G01 X35.0000 Y-91.7000 F120.00
G01 X34.9190 Y-91.7010 F120.00
G01 X34.8381 Y-91.7040 F120.00
G01 X34.7572 Y-91.7089 F120.00
G01 X34.6765 Y-91.7159 F120.00
G01 X34.5960 Y-91.7248 F120.00
G01 X34.5920 Y-91.7254 F120.00
G01 X34.5920 Y-92.3311 F120.00
G01 X34.6038 Y-92.3292 F120.00
G01 X34.6695 Y-92.3203 F120.00
G01 X34.7354 Y-92.3130 F120.00
G01 X34.8014 Y-92.3073 F120.00
G01 X34.8675 Y-92.3033 F120.00
G01 X34.9337 Y-92.3008 F120.00
G01 X35.0000 Y-92.3000 F120.00
G01 X35.0663 Y-92.3008 F120.00
G01 X35.1325 Y-92.3033 F120.00
G01 X35.1986 Y-92.3073 F120.00
G01 X35.2646 Y-92.3130 F120.00
G01 X35.3305 Y-92.3203 F120.00
G01 X35.3962 Y-92.3292 F120.00
G01 X35.4080 Y-92.3311 F120.00
G01 X35.4080 Y-92.9400 F120.00
G01 X35.3590 Y-92.9309 F120.00
G01 X35.3081 Y-92.9227 F120.00
G01 X35.2571 Y-92.9158 F120.00
G01 X35.2058 Y-92.9101 F120.00
G01 X35.1545 Y-92.9057 F120.00
G01 X35.1030 Y-92.9025 F120.00
G01 X35.0515 Y-92.9006 F120.00
G01 X35.0000 Y-92.9000 F120.00
G01 X34.9485 Y-92.9006 F120.00
G01 X34.8970 Y-92.9025 F120.00
G01 X34.8455 Y-92.9057 F120.00
G01 X34.7942 Y-92.9101 F120.00
G01 X34.7429 Y-92.9158 F120.00
G01 X34.6919 Y-92.9227 F120.00
G01 X34.6410 Y-92.9309 F120.00
G01 X34.5920 Y-92.9400 F120.00
G01 X34.5920 Y-93.5566 F120.00
G01 X34.5999 Y-93.5543 F120.00
G01 X34.6355 Y-93.5450 F120.00
G01 X34.6713 Y-93.5364 F120.00
G01 X34.7074 Y-93.5288 F120.00
G01 X34.7436 Y-93.5221 F120.00
G01 X34.7799 Y-93.5162 F120.00
G01 X34.8164 Y-93.5113 F120.00
G01 X34.8530 Y-93.5072 F120.00
G01 X34.8897 Y-93.5041 F120.00
G01 X34.9264 Y-93.5018 F120.00
G01 X34.9632 Y-93.5005 F120.00
G01 X35.0000 Y-93.5000 F120.00
G01 X35.0368 Y-93.5005 F120.00
G01 X35.0736 Y-93.5018 F120.00
G01 X35.1103 Y-93.5041 F120.00
G01 X35.1470 Y-93.5072 F120.00
G01 X35.1836 Y-93.5113 F120.00
G01 X35.2201 Y-93.5162 F120.00
G01 X35.2564 Y-93.5221 F120.00
G01 X35.2926 Y-93.5288 F120.00
G01 X35.3287 Y-93.5364 F120.00
G01 X35.3645 Y-93.5450 F120.00
G01 X35.4001 Y-93.5543 F120.00
G01 X35.4080 Y-93.5566 F120.00
G01 X35.4080 Y-94.1978 F120.00
G01 X35.4047 Y-94.1961 F120.00
G01 X35.3848 Y-94.1864 F120.00
G01 X35.3647 Y-94.1772 F120.00
G01 X35.3444 Y-94.1685 F120.00
G01 X35.3239 Y-94.1603 F120.00
G01 X35.3032 Y-94.1526 F120.00
G01 X35.2823 Y-94.1454 F120.00
G01 X35.2613 Y-94.1388 F120.00
G01 X35.2400 Y-94.1326 F120.00
G01 X35.2187 Y-94.1270 F120.00
G01 X35.1972 Y-94.1219 F120.00
G01 X35.1756 Y-94.1173 F120.00
G01 X35.1539 Y-94.1133 F120.00
G01 X35.1321 Y-94.1097 F120.00
G01 X35.1102 Y-94.1068 F120.00
G01 X35.0882 Y-94.1043 F120.00
G01 X35.0662 Y-94.1024 F120.00
G01 X35.0442 Y-94.1011 F120.00
G01 X35.0221 Y-94.1003 F120.00
G01 X35.0000 Y-94.1000 F120.00
G01 X34.9779 Y-94.1003 F120.00
G01 X34.9558 Y-94.1011 F120.00
G01 X34.9338 Y-94.1024 F120.00
G01 X34.9118 Y-94.1043 F120.00
G01 X34.8898 Y-94.1068 F120.00
G01 X34.8679 Y-94.1097 F120.00
G01 X34.8461 Y-94.1133 F120.00
G01 X34.8244 Y-94.1173 F120.00
G01 X34.8028 Y-94.1219 F120.00
G01 X34.7813 Y-94.1270 F120.00
G01 X34.7600 Y-94.1326 F120.00
G01 X34.7387 Y-94.1388 F120.00
G01 X34.7177 Y-94.1454 F120.00
G01 X34.6968 Y-94.1526 F120.00
G01 X34.6761 Y-94.1603 F120.00
G01 X34.6556 Y-94.1685 F120.00
G01 X34.6353 Y-94.1772 F120.00
G01 X34.6152 Y-94.1864 F120.00
G01 X34.5953 Y-94.1961 F120.00
G01 X34.5920 Y-94.1978 F120.00
G01 X35.3000 Y-95.0000 F120.00
G01 X35.2996 Y-95.0147 F120.00
G01 X35.2986 Y-95.0294 F120.00
G01 X35.2956 Y-95.0513 F120.00
G01 X35.2927 Y-95.0657 F120.00
G01 X35.2891 Y-95.0800 F120.00
G01 X35.2825 Y-95.1011 F120.00
G01 X35.2743 Y-95.1216 F120.00
G01 X35.2646 Y-95.1414 F120.00
G01 X35.2573 Y-95.1542 F120.00
G01 X35.2494 Y-95.1667 F120.00
G01 X35.2365 Y-95.1846 F120.00
G01 X35.2272 Y-95.1960 F120.00
G01 X35.2173 Y-95.2069 F120.00
G01 X35.2015 Y-95.2223 F120.00
G01 X35.1846 Y-95.2365 F120.00
G01 X35.1667 Y-95.2494 F120.00
G01 X35.1479 Y-95.2610 F120.00
G01 X35.1349 Y-95.2680 F120.00
G01 X35.1216 Y-95.2743 F120.00
G01 X35.1011 Y-95.2825 F120.00
G01 X35.0871 Y-95.2871 F120.00
G01 X35.0729 Y-95.2910 F120.00
G01 X35.0513 Y-95.2956 F120.00
G01 X35.0367 Y-95.2977 F120.00
G01 X35.0221 Y-95.2992 F120.00
G01 X35.0000 Y-95.3000 F120.00
G01 X34.9779 Y-95.2992 F120.00
G01 X34.9633 Y-95.2977 F120.00
G01 X34.9487 Y-95.2956 F120.00
G01 X34.9271 Y-95.2910 F120.00
G01 X34.9129 Y-95.2871 F120.00
G01 X34.8989 Y-95.2825 F120.00
G01 X34.8784 Y-95.2743 F120.00
G01 X34.8651 Y-95.2680 F120.00
G01 X34.8521 Y-95.2610 F120.00
G01 X34.8333 Y-95.2494 F120.00
G01 X34.8213 Y-95.2410 F120.00
G01 X34.8097 Y-95.2319 F120.00
G01 X34.7931 Y-95.2173 F120.00
G01 X34.7827 Y-95.2069 F120.00
G01 X34.7728 Y-95.1960 F120.00
G01 X34.7590 Y-95.1787 F120.00
G01 X34.7465 Y-95.1605 F120.00
G01 X34.7390 Y-95.1479 F120.00
G01 X34.7320 Y-95.1349 F120.00
G01 X34.7257 Y-95.1216 F120.00
G01 X34.7201 Y-95.1080 F120.00
G01 X34.7129 Y-95.0871 F120.00
G01 X34.7090 Y-95.0729 F120.00
G01 X34.7058 Y-95.0585 F120.00
G01 X34.7032 Y-95.0440 F120.00
G01 X34.7014 Y-95.0294 F120.00
G01 X34.7001 Y-95.0074 F120.00
G01 X34.7001 Y-94.9926 F120.00
G01 X34.7008 Y-94.9779 F120.00
G01 X34.7023 Y-94.9633 F120.00
G01 X34.7044 Y-94.9487 F120.00
G01 X34.7090 Y-94.9271 F120.00
G01 X34.7129 Y-94.9129 F120.00
G01 X34.7175 Y-94.8989 F120.00
G01 X34.7228 Y-94.8852 F120.00
G01 X34.7288 Y-94.8717 F120.00
G01 X34.7354 Y-94.8586 F120.00
G01 X34.7427 Y-94.8458 F120.00
G01 X34.7547 Y-94.8273 F120.00
G01 X34.7681 Y-94.8097 F120.00
G01 X34.7777 Y-94.7985 F120.00
G01 X34.7879 Y-94.7879 F120.00
G01 X34.8040 Y-94.7728 F120.00
G01 X34.8154 Y-94.7635 F120.00
G01 X34.8273 Y-94.7547 F120.00
G01 X34.8395 Y-94.7465 F120.00
G01 X34.8521 Y-94.7390 F120.00
G01 X34.8717 Y-94.7288 F120.00
G01 X34.8852 Y-94.7228 F120.00
G01 X34.8989 Y-94.7175 F120.00
G01 X34.9200 Y-94.7109 F120.00
G01 X34.9343 Y-94.7073 F120.00
G01 X34.9487 Y-94.7044 F120.00
G01 X34.9706 Y-94.7014 F120.00
G01 X34.9926 Y-94.7001 F120.00
G01 X35.0074 Y-94.7001 F120.00
G01 X35.0221 Y-94.7008 F120.00
G01 X35.0367 Y-94.7023 F120.00
G01 X35.0440 Y-94.7032 F120.00
G01 X35.0513 Y-94.7044 F120.00
G01 X35.0729 Y-94.7090 F120.00
G01 X35.0871 Y-94.7129 F120.00
G01 X35.1011 Y-94.7175 F120.00
G01 X35.1216 Y-94.7257 F120.00
G01 X35.1349 Y-94.7320 F120.00
G01 X35.1479 Y-94.7390 F120.00
G01 X35.1667 Y-94.7506 F120.00
G01 X35.1787 Y-94.7590 F120.00
G01 X35.1903 Y-94.7681 F120.00
G01 X35.2015 Y-94.7777 F120.00
G01 X35.2121 Y-94.7879 F120.00
G01 X35.2272 Y-94.8040 F120.00
G01 X35.2410 Y-94.8213 F120.00
G01 X35.2535 Y-94.8395 F120.00
G01 X35.2646 Y-94.8586 F120.00
G01 X35.2743 Y-94.8784 F120.00
G01 X35.2825 Y-94.8989 F120.00
G01 X35.2891 Y-94.9200 F120.00
G01 X35.2942 Y-94.9415 F120.00
G01 X35.2968 Y-94.9560 F120.00
G01 X35.2986 Y-94.9706 F120.00
G01 X35.2996 Y-94.9853 F120.00
G01 X35.3000 Y-95.0000 F120.00
G01 X35.4080 Y-95.8022 F120.00
G01 X35.4047 Y-95.8039 F120.00
G01 X35.3848 Y-95.8136 F120.00
G01 X35.3647 Y-95.8228 F120.00
G01 X35.3444 Y-95.8315 F120.00
G01 X35.3239 Y-95.8397 F120.00
G01 X35.3032 Y-95.8474 F120.00
G01 X35.2823 Y-95.8546 F120.00
G01 X35.2613 Y-95.8612 F120.00
G01 X35.2400 Y-95.8674 F120.00
G01 X35.2187 Y-95.8730 F120.00
G01 X35.1972 Y-95.8781 F120.00
G01 X35.1756 Y-95.8827 F120.00
G01 X35.1539 Y-95.8867 F120.00
G01 X35.1321 Y-95.8903 F120.00
G01 X35.1102 Y-95.8932 F120.00
G01 X35.0882 Y-95.8957 F120.00
G01 X35.0662 Y-95.8976 F120.00
G01 X35.0442 Y-95.8989 F120.00
G01 X35.0221 Y-95.8997 F120.00
G01 X35.0000 Y-95.9000 F120.00
G01 X34.9779 Y-95.8997 F120.00
G01 X34.9558 Y-95.8989 F120.00
G01 X34.9338 Y-95.8976 F120.00
G01 X34.9118 Y-95.8957 F120.00
G01 X34.8898 Y-95.8932 F120.00
G01 X34.8679 Y-95.8903 F120.00
G01 X34.8461 Y-95.8867 F120.00
G01 X34.8244 Y-95.8827 F120.00
G01 X34.8028 Y-95.8781 F120.00
G01 X34.7813 Y-95.8730 F120.00
G01 X34.7600 Y-95.8674 F120.00
G01 X34.7387 Y-95.8612 F120.00
G01 X34.7177 Y-95.8546 F120.00
G01 X34.6968 Y-95.8474 F120.00
G01 X34.6761 Y-95.8397 F120.00
G01 X34.6556 Y-95.8315 F120.00
G01 X34.6353 Y-95.8228 F120.00
G01 X34.6152 Y-95.8136 F120.00
G01 X34.5953 Y-95.8039 F120.00
G01 X34.5920 Y-95.8022 F120.00
G01 X34.5920 Y-96.4434 F120.00
G01 X34.5999 Y-96.4457 F120.00
G01 X34.6355 Y-96.4550 F120.00
G01 X34.6713 Y-96.4636 F120.00
G01 X34.7074 Y-96.4712 F120.00
G01 X34.7436 Y-96.4779 F120.00
G01 X34.7799 Y-96.4838 F120.00
G01 X34.8164 Y-96.4887 F120.00
G01 X34.8530 Y-96.4928 F120.00
G01 X34.8897 Y-96.4959 F120.00
G01 X34.9264 Y-96.4982 F120.00
G01 X34.9632 Y-96.4995 F120.00
G01 X35.0000 Y-96.5000 F120.00
G01 X35.0368 Y-96.4995 F120.00
G01 X35.0736 Y-96.4982 F120.00
G01 X35.1103 Y-96.4959 F120.00
G01 X35.1470 Y-96.4928 F120.00
G01 X35.1836 Y-96.4887 F120.00
G01 X35.2201 Y-96.4838 F120.00
G01 X35.2564 Y-96.4779 F120.00
G01 X35.2926 Y-96.4712 F120.00
G01 X35.3287 Y-96.4636 F120.00
G01 X35.3645 Y-96.4550 F120.00
G01 X35.4001 Y-96.4457 F120.00
G01 X35.4080 Y-96.4434 F120.00
G01 X35.4080 Y-97.0600 F120.00
G01 X35.3590 Y-97.0691 F120.00
G01 X35.3081 Y-97.0773 F120.00
G01 X35.2571 Y-97.0842 F120.00
G01 X35.2058 Y-97.0899 F120.00
G01 X35.1545 Y-97.0943 F120.00
G01 X35.1030 Y-97.0975 F120.00
G01 X35.0515 Y-97.0994 F120.00
G01 X35.0000 Y-97.1000 F120.00
G01 X34.9485 Y-97.0994 F120.00
G01 X34.8970 Y-97.0975 F120.00
G01 X34.8455 Y-97.0943 F120.00
G01 X34.7942 Y-97.0899 F120.00
G01 X34.7429 Y-97.0842 F120.00
G01 X34.6919 Y-97.0773 F120.00
G01 X34.6410 Y-97.0691 F120.00
G01 X34.5920 Y-97.0600 F120.00
G01 X34.5920 Y-97.6689 F120.00
G01 X34.6038 Y-97.6708 F120.00
G01 X34.6695 Y-97.6797 F120.00
G01 X34.7354 Y-97.6870 F120.00
G01 X34.8014 Y-97.6927 F120.00
G01 X34.8675 Y-97.6967 F120.00
G01 X34.9337 Y-97.6992 F120.00
G01 X35.0000 Y-97.7000 F120.00
G01 X35.0663 Y-97.6992 F120.00
G01 X35.1325 Y-97.6967 F120.00
G01 X35.1986 Y-97.6927 F120.00
G01 X35.2646 Y-97.6870 F120.00
G01 X35.3305 Y-97.6797 F120.00
G01 X35.3962 Y-97.6708 F120.00
G01 X35.4080 Y-97.6689 F120.00
G01 X35.4080 Y-98.2746 F120.00
G01 X35.4040 Y-98.2752 F120.00
G01 X35.3235 Y-98.2841 F120.00
G01 X35.2428 Y-98.2911 F120.00
G01 X35.1619 Y-98.2960 F120.00
G01 X35.0810 Y-98.2990 F120.00
G01 X35.0000 Y-98.3000 F120.00
G01 X34.9190 Y-98.2990 F120.00
G01 X34.8381 Y-98.2960 F120.00
G01 X34.7572 Y-98.2911 F120.00
G01 X34.6765 Y-98.2841 F120.00
G01 X34.5960 Y-98.2752 F120.00
G01 X34.5920 Y-98.2746 F120.00
G01 X34.5920 Y-98.8784 F120.00
G01 X34.6177 Y-98.8812 F120.00
G01 X34.7131 Y-98.8894 F120.00
G01 X34.8086 Y-98.8953 F120.00
G01 X34.9043 Y-98.8988 F120.00
G01 X35.0000 Y-98.9000 F120.00
G01 X35.0957 Y-98.8988 F120.00
G01 X35.1914 Y-98.8953 F120.00
G01 X35.2869 Y-98.8894 F120.00
G01 X35.3823 Y-98.8812 F120.00
G01 X35.4080 Y-98.8784 F120.00
G00 Z2.0000
G00 X35.8207 Y-108.5400
G01 F60.00
G01 Z-2.4000
G01 F120.00
G01 X35.7953 Y-108.5504 F120.00
G01 X35.7683 Y-108.5631 F120.00
G01 X35.7420 Y-108.5771 F120.00
G01 X35.7164 Y-108.5923 F120.00
G01 X35.6916 Y-108.6089 F120.00
G01 X35.6676 Y-108.6266 F120.00
G01 X35.6446 Y-108.6455 F120.00
G01 X35.6225 Y-108.6655 F120.00
G01 X35.6119 Y-108.6759 F120.00
G01 X35.5930 Y-108.6957 F120.00
G01 X35.5402 Y-108.7553 F120.00
G01 X35.5255 Y-108.7725 F120.00
G01 X35.5079 Y-108.7950 F120.00
G01 X35.4995 Y-108.8066 F120.00
G01 X35.4849 Y-108.8283 F120.00
G01 X35.4700 Y-108.8527 F120.00
G01 X35.4552 Y-108.8798 F120.00
G01 X35.4416 Y-108.9080 F120.00
G01 X34.5920 Y-108.9080 F120.00
G01 X34.5920 Y-101.0920 F120.00
G01 X35.2873 Y-101.0920 F120.00
G01 X35.2738 Y-101.1230 F120.00
G01 X35.2655 Y-101.1448 F120.00
G01 X35.2495 Y-101.1899 F120.00
G01 X35.2413 Y-101.2156 F120.00
G01 X35.2374 Y-101.2298 F120.00
G01 X35.2242 Y-101.2821 F120.00
G01 X35.2181 Y-101.3109 F120.00
G01 X35.2142 Y-101.3339 F120.00
G01 X35.2057 Y-101.3934 F120.00
G01 X35.2031 Y-101.4228 F120.00
G01 X35.2005 Y-101.4767 F120.00
G01 X35.2000 Y-101.4939 F120.00
G01 X35.2005 Y-101.5233 F120.00
G01 X35.2031 Y-101.5772 F120.00
G01 X35.2055 Y-101.6041 F120.00
G01 X35.2084 Y-101.6272 F120.00
G01 X35.2176 Y-101.6867 F120.00
G01 X35.2236 Y-101.7155 F120.00
G01 X35.2367 Y-101.7678 F120.00
G01 X35.2449 Y-101.7961 F120.00
G01 X35.2503 Y-101.8125 F120.00
G01 X35.2685 Y-101.8633 F120.00
G01 X35.2785 Y-101.8883 F120.00
G01 X35.2881 Y-101.9096 F120.00
G01 X35.3075 Y-101.9506 F120.00
G01 X35.3152 Y-101.9660 F120.00
G01 X35.3295 Y-101.9917 F120.00
G01 X35.3572 Y-102.0380 F120.00
G01 X35.3720 Y-102.0607 F120.00
G01 X35.3855 Y-102.0796 F120.00
G01 X35.4140 Y-102.1180 F120.00
G01 X35.4309 Y-102.1391 F120.00
G01 X35.4421 Y-102.1521 F120.00
G01 X35.4726 Y-102.1858 F120.00
G01 X35.4889 Y-102.2031 F120.00
G01 X35.4812 Y-102.2194 F120.00
G01 X35.4743 Y-102.2353 F120.00
G01 X35.4643 Y-102.2608 F120.00
G01 X35.4594 Y-102.2748 F120.00
G01 X35.4523 Y-102.2973 F120.00
G01 X35.4323 Y-102.3655 F120.00
G01 X35.4264 Y-102.3873 F120.00
G01 X35.4230 Y-102.4012 F120.00
G01 X35.4178 Y-102.4268 F120.00
G01 X35.4130 Y-102.4574 F120.00
G01 X35.4102 Y-102.4834 F120.00
G01 X35.4091 Y-102.4976 F120.00
G01 X35.4081 Y-102.5262 F120.00
G01 X35.4080 Y-107.8851 F120.00
G01 X35.4084 Y-107.9064 F120.00
G01 X35.4091 Y-107.9215 F120.00
G01 X35.4117 Y-107.9516 F120.00
G01 X35.4139 Y-107.9690 F120.00
G01 X35.4184 Y-107.9963 F120.00
G01 X35.4219 Y-108.0135 F120.00
G01 X35.4253 Y-108.0282 F120.00
G01 X35.4308 Y-108.0489 F120.00
G01 X35.4496 Y-108.1151 F120.00
G01 X35.4564 Y-108.1373 F120.00
G01 X35.4653 Y-108.1627 F120.00
G01 X35.4706 Y-108.1763 F120.00
G01 X35.4772 Y-108.1921 F120.00
G01 X35.4886 Y-108.2165 F120.00
G01 X35.5034 Y-108.2446 F120.00
G01 X35.5170 Y-108.2677 F120.00
G01 X35.5263 Y-108.2821 F120.00
G01 X35.5430 Y-108.3062 F120.00
G01 X35.5594 Y-108.3275 F120.00
G01 X35.5783 Y-108.3499 F120.00
G01 X35.5899 Y-108.3625 F120.00
G01 X35.6088 Y-108.3817 F120.00
G01 X35.6194 Y-108.3918 F120.00
G01 X35.6850 Y-108.4507 F120.00
G01 X35.6964 Y-108.4604 F120.00
G01 X35.7178 Y-108.4774 F120.00
G01 X35.7318 Y-108.4876 F120.00
G01 X35.7544 Y-108.5030 F120.00
G01 X35.7820 Y-108.5197 F120.00
G01 X35.8060 Y-108.5327 F120.00
G01 X35.8207 Y-108.5400 F120.00
G00 Z2.0000
G00 X33.9784 Y-120.0920
G01 F60.00
G01 Z-2.4000
G01 F120.00
G01 X34.0127 Y-120.0910 F120.00
G01 X34.0411 Y-120.0887 F120.00
G01 X34.0692 Y-120.0851 F120.00
G01 X34.0996 Y-120.0796 F120.00
G01 X34.1249 Y-120.0738 F120.00
G01 X34.1387 Y-120.0702 F120.00
G01 X34.2145 Y-120.0481 F120.00
G01 X34.2369 Y-120.0411 F120.00
G01 X34.2649 Y-120.0309 F120.00
G01 X34.2923 Y-120.0194 F120.00
G01 X34.3191 Y-120.0066 F120.00
G01 X34.3452 Y-119.9924 F120.00
G01 X34.3706 Y-119.9769 F120.00
G01 X34.3952 Y-119.9603 F120.00
G01 X34.4190 Y-119.9424 F120.00
G01 X34.4418 Y-119.9233 F120.00
G01 X34.4636 Y-119.9032 F120.00
G01 X34.4828 Y-119.8838 F120.00
G01 X34.4928 Y-119.8729 F120.00
G01 X34.5452 Y-119.8128 F120.00
G01 X34.5604 Y-119.7948 F120.00
G01 X34.5770 Y-119.7731 F120.00
G01 X34.5940 Y-119.7486 F120.00
G01 X34.6098 Y-119.7233 F120.00
G01 X34.6243 Y-119.6973 F120.00
G01 X34.6385 Y-119.6683 F120.00
G01 X34.6502 Y-119.6409 F120.00
G01 X34.6605 Y-119.6130 F120.00
G01 X34.6695 Y-119.5845 F120.00
G01 X34.6770 Y-119.5557 F120.00
G01 X34.6827 Y-119.5290 F120.00
G01 X34.6865 Y-119.5057 F120.00
G01 X34.6980 Y-119.4269 F120.00
G01 X34.6998 Y-119.4121 F120.00
G01 X34.7021 Y-119.3848 F120.00
G01 X34.7031 Y-119.3551 F120.00
G01 X34.7031 Y-119.3377 F120.00
G01 X34.7020 Y-119.3104 F120.00
G01 X34.6993 Y-119.2807 F120.00
G01 X34.6971 Y-119.2635 F120.00
G01 X34.6927 Y-119.2365 F120.00
G01 X34.6892 Y-119.2195 F120.00
G01 X34.6820 Y-119.1905 F120.00
G01 X34.6743 Y-119.1644 F120.00
G01 X34.6687 Y-119.1479 F120.00
G01 X34.6635 Y-119.1339 F120.00
G01 X34.6532 Y-119.1086 F120.00
G01 X34.6387 Y-119.0764 F120.00
G01 X34.6303 Y-119.0558 F120.00
G01 X34.6193 Y-119.0313 F120.00
G01 X34.6060 Y-119.0053 F120.00
G01 X34.5920 Y-118.9808 F120.00
G01 X34.5920 Y-111.0920 F120.00
G01 X35.4080 Y-111.0920 F120.00
G01 X35.4080 Y-118.9801 F120.00
G01 X35.3967 Y-118.9990 F120.00
G01 X35.3839 Y-119.0228 F120.00
G01 X35.3712 Y-119.0493 F120.00
G01 X35.3643 Y-119.0651 F120.00
G01 X35.3330 Y-119.1461 F120.00
G01 X35.3236 Y-119.1746 F120.00
G01 X35.3162 Y-119.2012 F120.00
G01 X35.3122 Y-119.2182 F120.00
G01 X35.3068 Y-119.2452 F120.00
G01 X35.3041 Y-119.2625 F120.00
G01 X35.3006 Y-119.2924 F120.00
G01 X35.2986 Y-119.3198 F120.00
G01 X35.2981 Y-119.3374 F120.00
G01 X35.2982 Y-119.3649 F120.00
G01 X35.2998 Y-119.3949 F120.00
G01 X35.3032 Y-119.4273 F120.00
G01 X35.3142 Y-119.5037 F120.00
G01 X35.3180 Y-119.5270 F120.00
G01 X35.3235 Y-119.5538 F120.00
G01 X35.3310 Y-119.5826 F120.00
G01 X35.3399 Y-119.6111 F120.00
G01 X35.3510 Y-119.6413 F120.00
G01 X35.3628 Y-119.6687 F120.00
G01 X35.3748 Y-119.6933 F120.00
G01 X35.3818 Y-119.7064 F120.00
G01 X35.3967 Y-119.7322 F120.00
G01 X35.4129 Y-119.7572 F120.00
G01 X35.4304 Y-119.7814 F120.00
G01 X35.4506 Y-119.8065 F120.00
G01 X35.5052 Y-119.8696 F120.00
G01 X35.5169 Y-119.8824 F120.00
G01 X35.5378 Y-119.9037 F120.00
G01 X35.5598 Y-119.9238 F120.00
G01 X35.5827 Y-119.9429 F120.00
G01 X35.6065 Y-119.9607 F120.00
G01 X35.6312 Y-119.9774 F120.00
G01 X35.6567 Y-119.9928 F120.00
G01 X35.6829 Y-120.0070 F120.00
G01 X35.7098 Y-120.0198 F120.00
G01 X35.7373 Y-120.0313 F120.00
G01 X35.7630 Y-120.0406 F120.00
G01 X35.7855 Y-120.0477 F120.00
G01 X35.8616 Y-120.0700 F120.00
G01 X35.8754 Y-120.0736 F120.00
G01 X35.9010 Y-120.0795 F120.00
G01 X35.9290 Y-120.0846 F120.00
G01 X35.9597 Y-120.0887 F120.00
G01 X35.9882 Y-120.0910 F120.00
G01 X36.0227 Y-120.0920 F120.00
G01 X33.9784 Y-120.0920 F120.00
G00 Z2.0000
G00 X20.6281 Y-120.0920
G01 F60.00
G01 Z-2.4000
G01 F120.00
G01 X20.6340 Y-120.0920 F120.00
G01 X20.6310 Y-120.0920 F120.00
G01 X20.6281 Y-120.0920 F120.00
G00 Z2.0000
G00 X20.6138 Y-120.0917
G01 F60.00
G01 Z-2.4000
G01 F120.00
G01 X20.6257 Y-120.0919 F120.00
G01 X20.6197 Y-120.0919 F120.00
G01 X20.6138 Y-120.0917 F120.00
G00 Z2.0000
G00 X20.5995 Y-120.0910
G01 F60.00
G01 Z-2.4000
G01 F120.00
G01 X20.6114 Y-120.0916 F120.00
G01 X20.6054 Y-120.0914 F120.00
G01 X20.5995 Y-120.0910 F120.00
G00 Z2.0000
G00 X20.5853 Y-120.0900
G01 F60.00
G01 Z-2.4000
G01 F120.00
G01 X20.5971 Y-120.0909 F120.00
G01 X20.5912 Y-120.0905 F120.00
G01 X20.5853 Y-120.0900 F120.00
G00 Z2.0000
G00 X20.5710 Y-120.0887
G01 F60.00
G01 Z-2.4000
G01 F120.00
G01 X20.5829 Y-120.0898 F120.00
G01 X20.5770 Y-120.0893 F120.00
G01 X20.5710 Y-120.0887 F120.00
G00 Z2.0000
G00 X20.5569 Y-120.0870
G01 F60.00
G01 Z-2.4000
G01 F120.00
G01 X20.5687 Y-120.0884 F120.00
G01 X20.5710 Y-120.0887 F120.00
G01 X20.5628 Y-120.0878 F120.00
G01 X20.5569 Y-120.0870 F120.00
G00 Z2.0000
G00 X20.5427 Y-120.0850
G01 F60.00
G01 Z-2.4000
G01 F120.00
G01 X20.5545 Y-120.0867 F120.00
G01 X20.5486 Y-120.0859 F120.00
G01 X20.5427 Y-120.0850 F120.00
G00 Z2.0000
