(G-CODE GENERATED BY FLATCAM v8.994 - www.flatcam.org - Version Date: 2020/11/7)

(Name: tbi-F_Cu.gbr_iso_combined_cnc)
(Type: G-code from Geometry)
(Units: MM)

(Created on Friday, 04 February 2022 at 21:39)

(This preprocessor is used with a motion controller loaded with GRBL firmware.)
(It is configured to be compatible with almost any version of GRBL firmware.)

(TOOL DIAMETER: 0.2 mm)
(Feedrate_XY: 120.0 mm/min)
(Feedrate_Z: 60.0 mm/min)
(Feedrate rapids 1500.0 mm/min)

(Z_Cut: 0.0 mm)
(Z_Move: 0.25 mm)
(Z Start: None mm)
(Z End: 15.0 mm)
(X,Y End: None mm)
(Steps per circle: 64)
(Steps per circle: 64)
(Preprocessor Geometry: grbl_11)

(X range:   20.4080 ...   84.5920  mm)
(Y range: -119.5920 ...  -20.4080  mm)

(Spindle Speed: 4000.0 RPM)
G21
G90
G17
G94


G01 F120.00

M5             
G00 Z15.0000
G00 X0.0000 Y0.0000                
T1
M6
(MSG, Change to Tool Dia = 0.2000)
M0
G00 Z15.0000

M03 S4000.0
G4 P1.0
G01 F120.00
G00 X23.6500 Y-23.0000
G01 F60.00
G01 Z0.0000
G01 F120.00
G01 X23.6553 Y-23.1078 F120.00
G01 X23.6711 Y-23.2146 F120.00
G01 X23.6974 Y-23.3193 F120.00
G01 X23.7337 Y-23.4210 F120.00
G01 X23.7799 Y-23.5185 F120.00
G01 X23.8354 Y-23.6111 F120.00
G01 X23.8997 Y-23.6978 F120.00
G01 X23.9722 Y-23.7778 F120.00
G01 X24.0522 Y-23.8503 F120.00
G01 X24.1389 Y-23.9146 F120.00
G01 X24.2315 Y-23.9701 F120.00
G01 X24.3290 Y-24.0163 F120.00
G01 X24.4307 Y-24.0526 F120.00
G01 X24.5354 Y-24.0789 F120.00
G01 X24.6422 Y-24.0947 F120.00
G01 X24.7500 Y-24.1000 F120.00
G01 X24.8578 Y-24.0947 F120.00
G01 X24.9646 Y-24.0789 F120.00
G01 X25.0693 Y-24.0526 F120.00
G01 X25.1710 Y-24.0163 F120.00
G01 X25.2685 Y-23.9701 F120.00
G01 X25.3611 Y-23.9146 F120.00
G01 X25.4478 Y-23.8503 F120.00
G01 X25.5278 Y-23.7778 F120.00
G01 X25.6003 Y-23.6978 F120.00
G01 X25.6646 Y-23.6111 F120.00
G01 X25.7201 Y-23.5185 F120.00
G01 X25.7663 Y-23.4210 F120.00
G01 X25.8026 Y-23.3193 F120.00
G01 X25.8289 Y-23.2146 F120.00
G01 X25.8447 Y-23.1078 F120.00
G01 X25.8500 Y-23.0000 F120.00
G01 X25.8447 Y-22.8922 F120.00
G01 X25.8289 Y-22.7854 F120.00
G01 X25.8026 Y-22.6807 F120.00
G01 X25.7663 Y-22.5790 F120.00
G01 X25.7201 Y-22.4815 F120.00
G01 X25.6646 Y-22.3889 F120.00
G01 X25.6003 Y-22.3022 F120.00
G01 X25.5278 Y-22.2222 F120.00
G01 X25.4478 Y-22.1497 F120.00
G01 X25.3611 Y-22.0854 F120.00
G01 X25.2685 Y-22.0299 F120.00
G01 X25.1710 Y-21.9837 F120.00
G01 X25.0693 Y-21.9474 F120.00
G01 X24.9646 Y-21.9211 F120.00
G01 X24.8578 Y-21.9053 F120.00
G01 X24.7500 Y-21.9000 F120.00
G01 X24.6422 Y-21.9053 F120.00
G01 X24.5354 Y-21.9211 F120.00
G01 X24.4307 Y-21.9474 F120.00
G01 X24.3290 Y-21.9837 F120.00
G01 X24.2315 Y-22.0299 F120.00
G01 X24.1389 Y-22.0854 F120.00
G01 X24.0522 Y-22.1497 F120.00
G01 X23.9722 Y-22.2222 F120.00
G01 X23.8997 Y-22.3022 F120.00
G01 X23.8354 Y-22.3889 F120.00
G01 X23.7799 Y-22.4815 F120.00
G01 X23.7337 Y-22.5790 F120.00
G01 X23.6974 Y-22.6807 F120.00
G01 X23.6711 Y-22.7854 F120.00
G01 X23.6553 Y-22.8922 F120.00
G01 X23.6500 Y-23.0000 F120.00
G00 Z0.2500
G00 X23.7510 Y-23.9990
G01 F60.00
G01 Z0.0000
G01 F120.00
G01 X23.9195 Y-24.1430 F120.00
G01 X24.1086 Y-24.2589 F120.00
G01 X24.3134 Y-24.3437 F120.00
G01 X24.5290 Y-24.3955 F120.00
G01 X24.7500 Y-24.4129 F120.00
G01 X24.9710 Y-24.3955 F120.00
G01 X25.1866 Y-24.3437 F120.00
G01 X25.3914 Y-24.2589 F120.00
G01 X25.5805 Y-24.1430 F120.00
G01 X25.7490 Y-23.9990 F120.00
G01 X25.8930 Y-23.8305 F120.00
G01 X26.0089 Y-23.6414 F120.00
G01 X26.0937 Y-23.4366 F120.00
G01 X26.1455 Y-23.2210 F120.00
G01 X26.1629 Y-23.0000 F120.00
G01 X26.1455 Y-22.7790 F120.00
G01 X26.0937 Y-22.5634 F120.00
G01 X26.0089 Y-22.3586 F120.00
G01 X25.8930 Y-22.1695 F120.00
G01 X25.7490 Y-22.0010 F120.00
G01 X25.5805 Y-21.8570 F120.00
G01 X25.3914 Y-21.7411 F120.00
G01 X25.1866 Y-21.6563 F120.00
G01 X24.9710 Y-21.6045 F120.00
G01 X24.7500 Y-21.5871 F120.00
G01 X24.5290 Y-21.6045 F120.00
G01 X24.3134 Y-21.6563 F120.00
G01 X24.1086 Y-21.7411 F120.00
G01 X23.9195 Y-21.8570 F120.00
G01 X23.7510 Y-22.0010 F120.00
G01 X23.6070 Y-22.1695 F120.00
G01 X23.4911 Y-22.3586 F120.00
G01 X23.4706 Y-22.4082 F120.00
G01 X23.4063 Y-22.5634 F120.00
G01 X23.3545 Y-22.7790 F120.00
G01 X23.3371 Y-23.0000 F120.00
G01 X23.3545 Y-23.2210 F120.00
G01 X23.4063 Y-23.4366 F120.00
G01 X23.4911 Y-23.6414 F120.00
G01 X23.6070 Y-23.8305 F120.00
G01 X23.7510 Y-23.9990 F120.00
G00 Z0.2500
G00 X28.2510 Y-23.9990
G01 F60.00
G01 Z0.0000
G01 F120.00
G01 X28.4195 Y-24.1430 F120.00
G01 X28.6086 Y-24.2589 F120.00
G01 X28.8134 Y-24.3437 F120.00
G01 X29.0290 Y-24.3955 F120.00
G01 X29.2500 Y-24.4129 F120.00
G01 X29.4710 Y-24.3955 F120.00
G01 X29.6866 Y-24.3437 F120.00
G01 X29.8914 Y-24.2589 F120.00
G01 X30.0805 Y-24.1430 F120.00
G01 X30.2490 Y-23.9990 F120.00
G01 X30.3930 Y-23.8305 F120.00
G01 X30.5089 Y-23.6414 F120.00
G01 X30.5937 Y-23.4366 F120.00
G01 X30.6455 Y-23.2210 F120.00
G01 X30.6629 Y-23.0000 F120.00
G01 X30.6455 Y-22.7790 F120.00
G01 X30.5937 Y-22.5634 F120.00
G01 X30.5089 Y-22.3586 F120.00
G01 X30.3930 Y-22.1695 F120.00
G01 X30.2490 Y-22.0010 F120.00
G01 X30.0805 Y-21.8570 F120.00
G01 X29.8914 Y-21.7411 F120.00
G01 X29.6866 Y-21.6563 F120.00
G01 X29.4710 Y-21.6045 F120.00
G01 X29.2500 Y-21.5871 F120.00
G01 X29.0290 Y-21.6045 F120.00
G01 X28.8134 Y-21.6563 F120.00
G01 X28.6086 Y-21.7411 F120.00
G01 X28.4195 Y-21.8570 F120.00
G01 X28.2510 Y-22.0010 F120.00
G01 X28.1070 Y-22.1695 F120.00
G01 X27.9911 Y-22.3586 F120.00
G01 X27.9706 Y-22.4082 F120.00
G01 X27.9063 Y-22.5634 F120.00
G01 X27.8545 Y-22.7790 F120.00
G01 X27.8371 Y-23.0000 F120.00
G01 X27.8545 Y-23.2210 F120.00
G01 X27.9063 Y-23.4366 F120.00
G01 X27.9911 Y-23.6414 F120.00
G01 X28.1070 Y-23.8305 F120.00
G01 X28.2510 Y-23.9990 F120.00
G00 Z0.2500
G00 X28.1500 Y-23.0000
G01 F60.00
G01 Z0.0000
G01 F120.00
G01 X28.1553 Y-23.1078 F120.00
G01 X28.1711 Y-23.2146 F120.00
G01 X28.1974 Y-23.3193 F120.00
G01 X28.2337 Y-23.4210 F120.00
G01 X28.2799 Y-23.5185 F120.00
G01 X28.3354 Y-23.6111 F120.00
G01 X28.3997 Y-23.6978 F120.00
G01 X28.4722 Y-23.7778 F120.00
G01 X28.5522 Y-23.8503 F120.00
G01 X28.6389 Y-23.9146 F120.00
G01 X28.7315 Y-23.9701 F120.00
G01 X28.8290 Y-24.0163 F120.00
G01 X28.9307 Y-24.0526 F120.00
G01 X29.0354 Y-24.0789 F120.00
G01 X29.1422 Y-24.0947 F120.00
G01 X29.2500 Y-24.1000 F120.00
G01 X29.3578 Y-24.0947 F120.00
G01 X29.4646 Y-24.0789 F120.00
G01 X29.5693 Y-24.0526 F120.00
G01 X29.6710 Y-24.0163 F120.00
G01 X29.7685 Y-23.9701 F120.00
G01 X29.8611 Y-23.9146 F120.00
G01 X29.9478 Y-23.8503 F120.00
G01 X30.0278 Y-23.7778 F120.00
G01 X30.1003 Y-23.6978 F120.00
G01 X30.1646 Y-23.6111 F120.00
G01 X30.2201 Y-23.5185 F120.00
G01 X30.2663 Y-23.4210 F120.00
G01 X30.3026 Y-23.3193 F120.00
G01 X30.3289 Y-23.2146 F120.00
G01 X30.3447 Y-23.1078 F120.00
G01 X30.3500 Y-23.0000 F120.00
G01 X30.3447 Y-22.8922 F120.00
G01 X30.3289 Y-22.7854 F120.00
G01 X30.3026 Y-22.6807 F120.00
G01 X30.2663 Y-22.5790 F120.00
G01 X30.2201 Y-22.4815 F120.00
G01 X30.1646 Y-22.3889 F120.00
G01 X30.1003 Y-22.3022 F120.00
G01 X30.0278 Y-22.2222 F120.00
G01 X29.9478 Y-22.1497 F120.00
G01 X29.8611 Y-22.0854 F120.00
G01 X29.7685 Y-22.0299 F120.00
G01 X29.6710 Y-21.9837 F120.00
G01 X29.5693 Y-21.9474 F120.00
G01 X29.4646 Y-21.9211 F120.00
G01 X29.3578 Y-21.9053 F120.00
G01 X29.2500 Y-21.9000 F120.00
G01 X29.1422 Y-21.9053 F120.00
G01 X29.0354 Y-21.9211 F120.00
G01 X28.9307 Y-21.9474 F120.00
G01 X28.8290 Y-21.9837 F120.00
G01 X28.7315 Y-22.0299 F120.00
G01 X28.6389 Y-22.0854 F120.00
G01 X28.5522 Y-22.1497 F120.00
G01 X28.4722 Y-22.2222 F120.00
G01 X28.3997 Y-22.3022 F120.00
G01 X28.3354 Y-22.3889 F120.00
G01 X28.2799 Y-22.4815 F120.00
G01 X28.2337 Y-22.5790 F120.00
G01 X28.1974 Y-22.6807 F120.00
G01 X28.1711 Y-22.7854 F120.00
G01 X28.1553 Y-22.8922 F120.00
G01 X28.1500 Y-23.0000 F120.00
G00 Z0.2500
G00 X28.1500 Y-29.5000
G01 F60.00
G01 Z0.0000
G01 F120.00
G01 X28.1553 Y-29.6078 F120.00
G01 X28.1711 Y-29.7146 F120.00
G01 X28.1974 Y-29.8193 F120.00
G01 X28.2337 Y-29.9210 F120.00
G01 X28.2799 Y-30.0185 F120.00
G01 X28.3354 Y-30.1111 F120.00
G01 X28.3997 Y-30.1978 F120.00
G01 X28.4722 Y-30.2778 F120.00
G01 X28.5522 Y-30.3503 F120.00
G01 X28.6389 Y-30.4146 F120.00
G01 X28.7315 Y-30.4701 F120.00
G01 X28.8290 Y-30.5163 F120.00
G01 X28.9307 Y-30.5526 F120.00
G01 X29.0354 Y-30.5789 F120.00
G01 X29.1422 Y-30.5947 F120.00
G01 X29.2500 Y-30.6000 F120.00
G01 X29.3578 Y-30.5947 F120.00
G01 X29.4646 Y-30.5789 F120.00
G01 X29.5693 Y-30.5526 F120.00
G01 X29.6710 Y-30.5163 F120.00
G01 X29.7685 Y-30.4701 F120.00
G01 X29.8611 Y-30.4146 F120.00
G01 X29.9478 Y-30.3503 F120.00
G01 X30.0278 Y-30.2778 F120.00
G01 X30.1003 Y-30.1978 F120.00
G01 X30.1646 Y-30.1111 F120.00
G01 X30.2201 Y-30.0185 F120.00
G01 X30.2663 Y-29.9210 F120.00
G01 X30.3026 Y-29.8193 F120.00
G01 X30.3289 Y-29.7146 F120.00
G01 X30.3447 Y-29.6078 F120.00
G01 X30.3500 Y-29.5000 F120.00
G01 X30.3447 Y-29.3922 F120.00
G01 X30.3289 Y-29.2854 F120.00
G01 X30.3026 Y-29.1807 F120.00
G01 X30.2663 Y-29.0790 F120.00
G01 X30.2201 Y-28.9815 F120.00
G01 X30.1646 Y-28.8889 F120.00
G01 X30.1003 Y-28.8022 F120.00
G01 X30.0278 Y-28.7222 F120.00
G01 X29.9478 Y-28.6497 F120.00
G01 X29.8611 Y-28.5854 F120.00
G01 X29.7685 Y-28.5299 F120.00
G01 X29.6710 Y-28.4837 F120.00
G01 X29.5693 Y-28.4474 F120.00
G01 X29.4646 Y-28.4211 F120.00
G01 X29.3578 Y-28.4053 F120.00
G01 X29.2500 Y-28.4000 F120.00
G01 X29.1422 Y-28.4053 F120.00
G01 X29.0354 Y-28.4211 F120.00
G01 X28.9307 Y-28.4474 F120.00
G01 X28.8290 Y-28.4837 F120.00
G01 X28.7315 Y-28.5299 F120.00
G01 X28.6389 Y-28.5854 F120.00
G01 X28.5522 Y-28.6497 F120.00
G01 X28.4722 Y-28.7222 F120.00
G01 X28.3997 Y-28.8022 F120.00
G01 X28.3354 Y-28.8889 F120.00
G01 X28.2799 Y-28.9815 F120.00
G01 X28.2337 Y-29.0790 F120.00
G01 X28.1974 Y-29.1807 F120.00
G01 X28.1711 Y-29.2854 F120.00
G01 X28.1553 Y-29.3922 F120.00
G01 X28.1500 Y-29.5000 F120.00
G00 Z0.2500
G00 X28.4195 Y-30.6430
G01 F60.00
G01 Z0.0000
G01 F120.00
G01 X28.6086 Y-30.7589 F120.00
G01 X28.8134 Y-30.8437 F120.00
G01 X29.0290 Y-30.8955 F120.00
G01 X29.2500 Y-30.9129 F120.00
G01 X29.4710 Y-30.8955 F120.00
G01 X29.6866 Y-30.8437 F120.00
G01 X29.8914 Y-30.7589 F120.00
G01 X30.0805 Y-30.6430 F120.00
G01 X30.2490 Y-30.4990 F120.00
G01 X30.3930 Y-30.3305 F120.00
G01 X30.5089 Y-30.1414 F120.00
G01 X30.5937 Y-29.9366 F120.00
G01 X30.6455 Y-29.7210 F120.00
G01 X30.6629 Y-29.5000 F120.00
G01 X30.6455 Y-29.2790 F120.00
G01 X30.5937 Y-29.0634 F120.00
G01 X30.5089 Y-28.8586 F120.00
G01 X30.3930 Y-28.6695 F120.00
G01 X30.2490 Y-28.5010 F120.00
G01 X30.0805 Y-28.3570 F120.00
G01 X29.8914 Y-28.2411 F120.00
G01 X29.6866 Y-28.1563 F120.00
G01 X29.4710 Y-28.1045 F120.00
G01 X29.2500 Y-28.0871 F120.00
G01 X29.0290 Y-28.1045 F120.00
G01 X28.8134 Y-28.1563 F120.00
G01 X28.6086 Y-28.2411 F120.00
G01 X28.4195 Y-28.3570 F120.00
G01 X28.2510 Y-28.5010 F120.00
G01 X28.1070 Y-28.6695 F120.00
G01 X27.9911 Y-28.8586 F120.00
G01 X27.9063 Y-29.0634 F120.00
G01 X27.8889 Y-29.1357 F120.00
G01 X27.8545 Y-29.2790 F120.00
G01 X27.8371 Y-29.5000 F120.00
G01 X27.8545 Y-29.7210 F120.00
G01 X27.9063 Y-29.9366 F120.00
G01 X27.9911 Y-30.1414 F120.00
G01 X28.1070 Y-30.3305 F120.00
G01 X28.2510 Y-30.4990 F120.00
G01 X28.4195 Y-30.6430 F120.00
G00 Z0.2500
G00 X31.9000 Y-33.0000
G01 F60.00
G01 Z0.0000
G01 F120.00
G01 X31.9041 Y-33.0833 F120.00
G01 X31.9163 Y-33.1658 F120.00
G01 X31.9366 Y-33.2467 F120.00
G01 X31.9647 Y-33.3253 F120.00
G01 X32.0004 Y-33.4007 F120.00
G01 X32.0433 Y-33.4722 F120.00
G01 X32.0929 Y-33.5392 F120.00
G01 X32.1490 Y-33.6010 F120.00
G01 X32.2108 Y-33.6571 F120.00
G01 X32.2778 Y-33.7067 F120.00
G01 X32.3493 Y-33.7496 F120.00
G01 X32.4247 Y-33.7853 F120.00
G01 X32.5033 Y-33.8134 F120.00
G01 X32.5842 Y-33.8337 F120.00
G01 X32.6667 Y-33.8459 F120.00
G01 X32.7500 Y-33.8500 F120.00
G01 X32.8333 Y-33.8459 F120.00
G01 X32.9158 Y-33.8337 F120.00
G01 X32.9967 Y-33.8134 F120.00
G01 X33.0753 Y-33.7853 F120.00
G01 X33.1507 Y-33.7496 F120.00
G01 X33.2222 Y-33.7067 F120.00
G01 X33.2892 Y-33.6571 F120.00
G01 X33.3510 Y-33.6010 F120.00
G01 X33.4071 Y-33.5392 F120.00
G01 X33.4567 Y-33.4722 F120.00
G01 X33.4996 Y-33.4007 F120.00
G01 X33.5353 Y-33.3253 F120.00
G01 X33.5634 Y-33.2467 F120.00
G01 X33.5837 Y-33.1658 F120.00
G01 X33.5959 Y-33.0833 F120.00
G01 X33.6000 Y-33.0000 F120.00
G01 X33.5959 Y-32.9167 F120.00
G01 X33.5837 Y-32.8342 F120.00
G01 X33.5634 Y-32.7533 F120.00
G01 X33.5353 Y-32.6747 F120.00
G01 X33.4996 Y-32.5993 F120.00
G01 X33.4567 Y-32.5278 F120.00
G01 X33.4071 Y-32.4608 F120.00
G01 X33.3510 Y-32.3990 F120.00
G01 X33.2892 Y-32.3429 F120.00
G01 X33.2222 Y-32.2933 F120.00
G01 X33.1507 Y-32.2504 F120.00
G01 X33.0753 Y-32.2147 F120.00
G01 X32.9967 Y-32.1866 F120.00
G01 X32.9158 Y-32.1663 F120.00
G01 X32.8333 Y-32.1541 F120.00
G01 X32.7500 Y-32.1500 F120.00
G01 X32.6667 Y-32.1541 F120.00
G01 X32.5842 Y-32.1663 F120.00
G01 X32.5033 Y-32.1866 F120.00
G01 X32.4247 Y-32.2147 F120.00
G01 X32.3493 Y-32.2504 F120.00
G01 X32.2778 Y-32.2933 F120.00
G01 X32.2108 Y-32.3429 F120.00
G01 X32.1490 Y-32.3990 F120.00
G01 X32.0929 Y-32.4608 F120.00
G01 X32.0433 Y-32.5278 F120.00
G01 X32.0004 Y-32.5993 F120.00
G01 X31.9647 Y-32.6747 F120.00
G01 X31.9366 Y-32.7533 F120.00
G01 X31.9163 Y-32.8342 F120.00
G01 X31.9041 Y-32.9167 F120.00
G01 X31.9000 Y-33.0000 F120.00
G00 Z0.2500
G00 X36.4000 Y-33.0000
G01 F60.00
G01 Z0.0000
G01 F120.00
G01 X36.4041 Y-33.0833 F120.00
G01 X36.4163 Y-33.1658 F120.00
G01 X36.4366 Y-33.2467 F120.00
G01 X36.4647 Y-33.3253 F120.00
G01 X36.5004 Y-33.4007 F120.00
G01 X36.5433 Y-33.4722 F120.00
G01 X36.5929 Y-33.5392 F120.00
G01 X36.6490 Y-33.6010 F120.00
G01 X36.7108 Y-33.6571 F120.00
G01 X36.7778 Y-33.7067 F120.00
G01 X36.8493 Y-33.7496 F120.00
G01 X36.9247 Y-33.7853 F120.00
G01 X37.0033 Y-33.8134 F120.00
G01 X37.0842 Y-33.8337 F120.00
G01 X37.1667 Y-33.8459 F120.00
G01 X37.2475 Y-33.8500 F120.00
G01 X37.2549 Y-33.8499 F120.00
G01 X37.3333 Y-33.8459 F120.00
G01 X37.4110 Y-33.8345 F120.00
G01 X37.4206 Y-33.8326 F120.00
G01 X37.4967 Y-33.8134 F120.00
G01 X37.5707 Y-33.7871 F120.00
G01 X37.5798 Y-33.7833 F120.00
G01 X37.6507 Y-33.7496 F120.00
G01 X37.7222 Y-33.7067 F120.00
G01 X37.7854 Y-33.6601 F120.00
G01 X37.7930 Y-33.6539 F120.00
G01 X37.8510 Y-33.6010 F120.00
G01 X37.9039 Y-33.5430 F120.00
G01 X37.9101 Y-33.5354 F120.00
G01 X37.9547 Y-33.4752 F120.00
G01 X50.7664 Y-33.4752 F120.00
G01 X63.2662 Y-45.9750 F120.00
G01 X50.2340 Y-59.0072 F120.00
G01 X50.2059 Y-59.0381 F120.00
G01 X50.1997 Y-59.0457 F120.00
G01 X50.1749 Y-59.0792 F120.00
G01 X50.1533 Y-59.1150 F120.00
G01 X50.1487 Y-59.1236 F120.00
G01 X50.1330 Y-59.1569 F120.00
G01 X50.1292 Y-59.1660 F120.00
G01 X50.1153 Y-59.2053 F120.00
G01 X50.1039 Y-59.2505 F120.00
G01 X50.0971 Y-59.2967 F120.00
G01 X50.0949 Y-59.3383 F120.00
G01 X50.0948 Y-61.6067 F120.00
G01 X50.0680 Y-61.6231 F120.00
G01 X50.0010 Y-61.6728 F120.00
G01 X49.9372 Y-61.7302 F120.00
G01 X49.9319 Y-61.7354 F120.00
G01 X49.8775 Y-61.7953 F120.00
G01 X49.8713 Y-61.8029 F120.00
G01 X49.8217 Y-61.8700 F120.00
G01 X49.7775 Y-61.9436 F120.00
G01 X49.7405 Y-62.0211 F120.00
G01 X49.7367 Y-62.0302 F120.00
G01 X49.7088 Y-62.1087 F120.00
G01 X49.6884 Y-62.1896 F120.00
G01 X49.6865 Y-62.1993 F120.00
G01 X49.6743 Y-62.2818 F120.00
G01 X49.6701 Y-62.3651 F120.00
G01 X49.6700 Y-62.3725 F120.00
G01 X49.6743 Y-62.4582 F120.00
G01 X49.6865 Y-62.5407 F120.00
G01 X49.6884 Y-62.5504 F120.00
G01 X49.7074 Y-62.6265 F120.00
G01 X49.7103 Y-62.6359 F120.00
G01 X49.7385 Y-62.7144 F120.00
G01 X49.7763 Y-62.7943 F120.00
G01 X49.8217 Y-62.8700 F120.00
G01 X49.8713 Y-62.9371 F120.00
G01 X49.8775 Y-62.9447 F120.00
G01 X49.9302 Y-63.0028 F120.00
G01 X49.9372 Y-63.0098 F120.00
G01 X49.9990 Y-63.0657 F120.00
G01 X50.0700 Y-63.1183 F120.00
G01 X50.1457 Y-63.1637 F120.00
G01 X50.2211 Y-63.1995 F120.00
G01 X50.2302 Y-63.2033 F120.00
G01 X50.3111 Y-63.2319 F120.00
G01 X50.3944 Y-63.2527 F120.00
G01 X50.4818 Y-63.2657 F120.00
G01 X50.5700 Y-63.2700 F120.00
G01 X50.6533 Y-63.2660 F120.00
G01 X50.6631 Y-63.2651 F120.00
G01 X50.7456 Y-63.2527 F120.00
G01 X50.8265 Y-63.2326 F120.00
G01 X50.8359 Y-63.2297 F120.00
G01 X50.9144 Y-63.2015 F120.00
G01 X50.9899 Y-63.1659 F120.00
G01 X50.9985 Y-63.1613 F120.00
G01 X51.0659 Y-63.1209 F120.00
G01 X51.0740 Y-63.1155 F120.00
G01 X51.1410 Y-63.0657 F120.00
G01 X51.2064 Y-63.0064 F120.00
G01 X51.2657 Y-62.9410 F120.00
G01 X51.3183 Y-62.8700 F120.00
G01 X51.3637 Y-62.7943 F120.00
G01 X51.4015 Y-62.7144 F120.00
G01 X51.4312 Y-62.6313 F120.00
G01 X51.4527 Y-62.5456 F120.00
G01 X51.4657 Y-62.4582 F120.00
G01 X51.4699 Y-62.3749 F120.00
G01 X51.4699 Y-62.3651 F120.00
G01 X51.4657 Y-62.2818 F120.00
G01 X51.4527 Y-62.1944 F120.00
G01 X51.4326 Y-62.1135 F120.00
G01 X51.4297 Y-62.1041 F120.00
G01 X51.4005 Y-62.0233 F120.00
G01 X51.3637 Y-61.9457 F120.00
G01 X51.3209 Y-61.8741 F120.00
G01 X51.3155 Y-61.8660 F120.00
G01 X51.2641 Y-61.7972 F120.00
G01 X51.2064 Y-61.7336 F120.00
G01 X51.1428 Y-61.6759 F120.00
G01 X51.1371 Y-61.6713 F120.00
G01 X51.0720 Y-61.6231 F120.00
G01 X51.0452 Y-61.6067 F120.00
G01 X51.0452 Y-59.5401 F120.00
G01 X64.1351 Y-46.4502 F120.00
G01 X70.0342 Y-46.4502 F120.00
G01 X70.0425 Y-46.4671 F120.00
G01 X70.0576 Y-46.4924 F120.00
G01 X70.0779 Y-46.5201 F120.00
G01 X70.1025 Y-46.5475 F120.00
G01 X70.1261 Y-46.5690 F120.00
G01 X70.1556 Y-46.5910 F120.00
G01 X70.1850 Y-46.6087 F120.00
G01 X70.2161 Y-46.6234 F120.00
G01 X70.2461 Y-46.6342 F120.00
G01 X70.2769 Y-46.6422 F120.00
G01 X70.2866 Y-46.6441 F120.00
G01 X70.3157 Y-46.6483 F120.00
G01 X70.3451 Y-46.6499 F120.00
G01 X70.6499 Y-46.6500 F120.00
G01 X70.6499 Y-47.5136 F120.00
G01 X70.6512 Y-47.5430 F120.00
G01 X70.6522 Y-47.5527 F120.00
G01 X70.6566 Y-47.5819 F120.00
G01 X70.6657 Y-47.6175 F120.00
G01 X70.6748 Y-47.6430 F120.00
G01 X70.6785 Y-47.6520 F120.00
G01 X70.6912 Y-47.6786 F120.00
G01 X70.7063 Y-47.7039 F120.00
G01 X70.7117 Y-47.7121 F120.00
G01 X70.7293 Y-47.7357 F120.00
G01 X70.7524 Y-47.7611 F120.00
G01 X72.4000 Y-49.4087 F120.00
G01 X72.4000 Y-49.5150 F120.00
G01 X72.4008 Y-49.5346 F120.00
G01 X72.4018 Y-49.5444 F120.00
G01 X72.4048 Y-49.5638 F120.00
G01 X72.4108 Y-49.5876 F120.00
G01 X72.4190 Y-49.6107 F120.00
G01 X72.4273 Y-49.6285 F120.00
G01 X72.4319 Y-49.6371 F120.00
G01 X72.4421 Y-49.6539 F120.00
G01 X72.4567 Y-49.6736 F120.00
G01 X72.4698 Y-49.6882 F120.00
G01 X72.4768 Y-49.6952 F120.00
G01 X72.4933 Y-49.7098 F120.00
G01 X72.5111 Y-49.7229 F120.00
G01 X72.5322 Y-49.7355 F120.00
G01 X72.5543 Y-49.7460 F120.00
G01 X72.5728 Y-49.7527 F120.00
G01 X72.5822 Y-49.7555 F120.00
G01 X72.6036 Y-49.7606 F120.00
G01 X72.6255 Y-49.7638 F120.00
G01 X72.6475 Y-49.7650 F120.00
G01 X74.3000 Y-49.7650 F120.00
G01 X74.3245 Y-49.7638 F120.00
G01 X74.3464 Y-49.7606 F120.00
G01 X74.3678 Y-49.7555 F120.00
G01 X74.3772 Y-49.7527 F120.00
G01 X74.3957 Y-49.7460 F120.00
G01 X74.4178 Y-49.7355 F120.00
G01 X74.4347 Y-49.7255 F120.00
G01 X74.4429 Y-49.7200 F120.00
G01 X74.4586 Y-49.7083 F120.00
G01 X74.4768 Y-49.6918 F120.00
G01 X74.4933 Y-49.6736 F120.00
G01 X74.5050 Y-49.6579 F120.00
G01 X74.5105 Y-49.6497 F120.00
G01 X74.5205 Y-49.6328 F120.00
G01 X74.5310 Y-49.6107 F120.00
G01 X74.5377 Y-49.5922 F120.00
G01 X74.5405 Y-49.5828 F120.00
G01 X74.5456 Y-49.5614 F120.00
G01 X74.5488 Y-49.5395 F120.00
G01 X74.5500 Y-49.5150 F120.00
G01 X74.5500 Y-49.2150 F120.00
G01 X74.5485 Y-49.1881 F120.00
G01 X74.5452 Y-49.1662 F120.00
G01 X74.5399 Y-49.1448 F120.00
G01 X74.5327 Y-49.1239 F120.00
G01 X74.5290 Y-49.1148 F120.00
G01 X74.5205 Y-49.0972 F120.00
G01 X74.5079 Y-49.0761 F120.00
G01 X74.4933 Y-49.0564 F120.00
G01 X74.4785 Y-49.0400 F120.00
G01 X74.4586 Y-49.0217 F120.00
G01 X74.4389 Y-49.0071 F120.00
G01 X74.4178 Y-48.9945 F120.00
G01 X74.3979 Y-48.9850 F120.00
G01 X74.3726 Y-48.9758 F120.00
G01 X74.3512 Y-48.9703 F120.00
G01 X74.3269 Y-48.9665 F120.00
G01 X74.3049 Y-48.9651 F120.00
G01 X72.9466 Y-48.9650 F120.00
G01 X71.3501 Y-47.3685 F120.00
G01 X71.3501 Y-46.6500 F120.00
G01 X71.6549 Y-46.6499 F120.00
G01 X71.6843 Y-46.6483 F120.00
G01 X71.7134 Y-46.6441 F120.00
G01 X71.7231 Y-46.6422 F120.00
G01 X71.7539 Y-46.6342 F120.00
G01 X71.7841 Y-46.6233 F120.00
G01 X71.8150 Y-46.6087 F120.00
G01 X71.8444 Y-46.5910 F120.00
G01 X71.8739 Y-46.5690 F120.00
G01 X71.8975 Y-46.5475 F120.00
G01 X71.9221 Y-46.5201 F120.00
G01 X71.9424 Y-46.4924 F120.00
G01 X71.9575 Y-46.4671 F120.00
G01 X71.9658 Y-46.4502 F120.00
G01 X72.5342 Y-46.4502 F120.00
G01 X72.5425 Y-46.4671 F120.00
G01 X72.5576 Y-46.4924 F120.00
G01 X72.5764 Y-46.5182 F120.00
G01 X72.5810 Y-46.5239 F120.00
G01 X72.6025 Y-46.5475 F120.00
G01 X72.6242 Y-46.5673 F120.00
G01 X72.6318 Y-46.5736 F120.00
G01 X72.6535 Y-46.5896 F120.00
G01 X72.6850 Y-46.6087 F120.00
G01 X72.7116 Y-46.6214 F120.00
G01 X72.7206 Y-46.6251 F120.00
G01 X72.7484 Y-46.6349 F120.00
G01 X72.7769 Y-46.6422 F120.00
G01 X72.7866 Y-46.6441 F120.00
G01 X72.8181 Y-46.6485 F120.00
G01 X72.8500 Y-46.6500 F120.00
G01 X74.1525 Y-46.6500 F120.00
G01 X74.1843 Y-46.6483 F120.00
G01 X74.2183 Y-46.6433 F120.00
G01 X74.2516 Y-46.6349 F120.00
G01 X74.2841 Y-46.6233 F120.00
G01 X74.3106 Y-46.6109 F120.00
G01 X74.3193 Y-46.6063 F120.00
G01 X74.3444 Y-46.5910 F120.00
G01 X74.3682 Y-46.5736 F120.00
G01 X74.3758 Y-46.5673 F120.00
G01 X74.3975 Y-46.5475 F120.00
G01 X74.4206 Y-46.5220 F120.00
G01 X74.4410 Y-46.4944 F120.00
G01 X74.4563 Y-46.4693 F120.00
G01 X74.4609 Y-46.4606 F120.00
G01 X74.4734 Y-46.4339 F120.00
G01 X74.4834 Y-46.4063 F120.00
G01 X74.4862 Y-46.3969 F120.00
G01 X74.4928 Y-46.3707 F120.00
G01 X74.4983 Y-46.3343 F120.00
G01 X74.5000 Y-46.3000 F120.00
G01 X74.5000 Y-45.6471 F120.00
G01 X75.5718 Y-44.5752 F120.00
G01 X76.5025 Y-44.5752 F120.00
G01 X76.5466 Y-44.5729 F120.00
G01 X76.5903 Y-44.5665 F120.00
G01 X76.6356 Y-44.5554 F120.00
G01 X76.6515 Y-44.5500 F120.00
G01 X76.7275 Y-44.5500 F120.00
G01 X76.7372 Y-44.5492 F120.00
G01 X76.7493 Y-44.5470 F120.00
G01 X76.7587 Y-44.5442 F120.00
G01 X76.7678 Y-44.5404 F120.00
G01 X76.7743 Y-44.5370 F120.00
G01 X76.7826 Y-44.5318 F120.00
G01 X76.7903 Y-44.5257 F120.00
G01 X76.7974 Y-44.5190 F120.00
G01 X76.8038 Y-44.5115 F120.00
G01 X76.8081 Y-44.5056 F120.00
G01 X76.8132 Y-44.4971 F120.00
G01 X76.8164 Y-44.4905 F120.00
G01 X76.8192 Y-44.4837 F120.00
G01 X76.8214 Y-44.4767 F120.00
G01 X76.8231 Y-44.4695 F120.00
G01 X76.8242 Y-44.4622 F120.00
G01 X76.8249 Y-44.4549 F120.00
G01 X76.8250 Y-44.4461 F120.00
G01 X76.8377 Y-44.4343 F120.00
G01 X76.8657 Y-44.4033 F120.00
G01 X76.8703 Y-44.3976 F120.00
G01 X76.8964 Y-44.3619 F120.00
G01 X76.9191 Y-44.3240 F120.00
G01 X76.9370 Y-44.2863 F120.00
G01 X76.9408 Y-44.2773 F120.00
G01 X76.9554 Y-44.2356 F120.00
G01 X76.9661 Y-44.1927 F120.00
G01 X76.9723 Y-44.1514 F120.00
G01 X76.9733 Y-44.1417 F120.00
G01 X76.9752 Y-44.1000 F120.00
G01 X76.9729 Y-44.0534 F120.00
G01 X76.9669 Y-44.0121 F120.00
G01 X76.9650 Y-44.0025 F120.00
G01 X76.9540 Y-43.9597 F120.00
G01 X76.9408 Y-43.9227 F120.00
G01 X76.9370 Y-43.9137 F120.00
G01 X76.9191 Y-43.8760 F120.00
G01 X76.8964 Y-43.8381 F120.00
G01 X76.8703 Y-43.8024 F120.00
G01 X76.8657 Y-43.7967 F120.00
G01 X76.8377 Y-43.7657 F120.00
G01 X76.8250 Y-43.7539 F120.00
G01 X76.8249 Y-43.7451 F120.00
G01 X76.8242 Y-43.7378 F120.00
G01 X76.8231 Y-43.7305 F120.00
G01 X76.8214 Y-43.7233 F120.00
G01 X76.8192 Y-43.7163 F120.00
G01 X76.8164 Y-43.7095 F120.00
G01 X76.8132 Y-43.7029 F120.00
G01 X76.8095 Y-43.6965 F120.00
G01 X76.8038 Y-43.6885 F120.00
G01 X76.7991 Y-43.6828 F120.00
G01 X76.7922 Y-43.6759 F120.00
G01 X76.7865 Y-43.6712 F120.00
G01 X76.7806 Y-43.6669 F120.00
G01 X76.7743 Y-43.6630 F120.00
G01 X76.7655 Y-43.6586 F120.00
G01 X76.7587 Y-43.6558 F120.00
G01 X76.7517 Y-43.6536 F120.00
G01 X76.7445 Y-43.6519 F120.00
G01 X76.7372 Y-43.6508 F120.00
G01 X76.7299 Y-43.6501 F120.00
G01 X76.6515 Y-43.6500 F120.00
G01 X76.6356 Y-43.6446 F120.00
G01 X76.5903 Y-43.6335 F120.00
G01 X76.5466 Y-43.6271 F120.00
G01 X76.5000 Y-43.6248 F120.00
G01 X75.3725 Y-43.6248 F120.00
G01 X75.3333 Y-43.6267 F120.00
G01 X75.3236 Y-43.6277 F120.00
G01 X75.2823 Y-43.6339 F120.00
G01 X75.2394 Y-43.6446 F120.00
G01 X75.1932 Y-43.6610 F120.00
G01 X75.1554 Y-43.6787 F120.00
G01 X75.1467 Y-43.6833 F120.00
G01 X75.1110 Y-43.7049 F120.00
G01 X75.0774 Y-43.7297 F120.00
G01 X75.0698 Y-43.7359 F120.00
G01 X75.0407 Y-43.7623 F120.00
G01 X73.5030 Y-45.3000 F120.00
G01 X72.8500 Y-45.3000 F120.00
G01 X72.8157 Y-45.3017 F120.00
G01 X72.7817 Y-45.3067 F120.00
G01 X72.7484 Y-45.3151 F120.00
G01 X72.7206 Y-45.3249 F120.00
G01 X72.7116 Y-45.3286 F120.00
G01 X72.6850 Y-45.3413 F120.00
G01 X72.6597 Y-45.3564 F120.00
G01 X72.6515 Y-45.3618 F120.00
G01 X72.6299 Y-45.3779 F120.00
G01 X72.6025 Y-45.4025 F120.00
G01 X72.5779 Y-45.4299 F120.00
G01 X72.5576 Y-45.4576 F120.00
G01 X72.5425 Y-45.4829 F120.00
G01 X72.5342 Y-45.4998 F120.00
G01 X71.9658 Y-45.4998 F120.00
G01 X71.9575 Y-45.4829 F120.00
G01 X71.9424 Y-45.4576 F120.00
G01 X71.9236 Y-45.4318 F120.00
G01 X71.9190 Y-45.4261 F120.00
G01 X71.8975 Y-45.4025 F120.00
G01 X71.8758 Y-45.3827 F120.00
G01 X71.8682 Y-45.3764 F120.00
G01 X71.8424 Y-45.3576 F120.00
G01 X71.8150 Y-45.3413 F120.00
G01 X71.7884 Y-45.3286 F120.00
G01 X71.7794 Y-45.3249 F120.00
G01 X71.7516 Y-45.3151 F120.00
G01 X71.7183 Y-45.3067 F120.00
G01 X71.6892 Y-45.3023 F120.00
G01 X71.6794 Y-45.3013 F120.00
G01 X71.6500 Y-45.3000 F120.00
G01 X70.3500 Y-45.3000 F120.00
G01 X70.3133 Y-45.3020 F120.00
G01 X70.2866 Y-45.3059 F120.00
G01 X70.2769 Y-45.3078 F120.00
G01 X70.2484 Y-45.3151 F120.00
G01 X70.2206 Y-45.3249 F120.00
G01 X70.2116 Y-45.3286 F120.00
G01 X70.1850 Y-45.3413 F120.00
G01 X70.1535 Y-45.3604 F120.00
G01 X70.1318 Y-45.3764 F120.00
G01 X70.1242 Y-45.3827 F120.00
G01 X70.1025 Y-45.4025 F120.00
G01 X70.0810 Y-45.4261 F120.00
G01 X70.0618 Y-45.4515 F120.00
G01 X70.0576 Y-45.4576 F120.00
G01 X70.0425 Y-45.4829 F120.00
G01 X70.0342 Y-45.4998 F120.00
G01 X64.1351 Y-45.4998 F120.00
G01 X51.2993 Y-32.6640 F120.00
G01 X51.2647 Y-32.6327 F120.00
G01 X51.2272 Y-32.6049 F120.00
G01 X51.1872 Y-32.5809 F120.00
G01 X51.1473 Y-32.5620 F120.00
G01 X51.1012 Y-32.5453 F120.00
G01 X51.0559 Y-32.5339 F120.00
G01 X51.0098 Y-32.5271 F120.00
G01 X50.9632 Y-32.5248 F120.00
G01 X37.9547 Y-32.5248 F120.00
G01 X37.9101 Y-32.4646 F120.00
G01 X37.9039 Y-32.4570 F120.00
G01 X37.8510 Y-32.3990 F120.00
G01 X37.7930 Y-32.3461 F120.00
G01 X37.7854 Y-32.3399 F120.00
G01 X37.7222 Y-32.2933 F120.00
G01 X37.6507 Y-32.2504 F120.00
G01 X37.5798 Y-32.2167 F120.00
G01 X37.5707 Y-32.2129 F120.00
G01 X37.4967 Y-32.1866 F120.00
G01 X37.4206 Y-32.1674 F120.00
G01 X37.4110 Y-32.1655 F120.00
G01 X37.3333 Y-32.1541 F120.00
G01 X37.2549 Y-32.1501 F120.00
G01 X37.2475 Y-32.1500 F120.00
G01 X37.1667 Y-32.1541 F120.00
G01 X37.0842 Y-32.1663 F120.00
G01 X37.0033 Y-32.1866 F120.00
G01 X36.9247 Y-32.2147 F120.00
G01 X36.8493 Y-32.2504 F120.00
G01 X36.7778 Y-32.2933 F120.00
G01 X36.7108 Y-32.3429 F120.00
G01 X36.6490 Y-32.3990 F120.00
G01 X36.5929 Y-32.4608 F120.00
G01 X36.5433 Y-32.5278 F120.00
G01 X36.5004 Y-32.5993 F120.00
G01 X36.4647 Y-32.6747 F120.00
G01 X36.4366 Y-32.7533 F120.00
G01 X36.4163 Y-32.8342 F120.00
G01 X36.4041 Y-32.9167 F120.00
G01 X36.4000 Y-33.0000 F120.00
G00 Z0.2500
G00 X39.0389 Y-27.4295
G01 F60.00
G01 Z0.0000
G01 F120.00
G01 X39.3377 Y-27.5274 F120.00
G01 X39.6462 Y-27.5887 F120.00
G01 X39.9597 Y-27.6124 F120.00
G01 X40.2739 Y-27.5983 F120.00
G01 X40.5840 Y-27.5466 F120.00
G01 X40.8857 Y-27.4580 F120.00
G01 X41.1746 Y-27.3338 F120.00
G01 X41.4452 Y-27.1766 F120.00
G01 X41.5768 Y-27.0774 F120.00
G01 X41.3548 Y-26.8554 F120.00
G01 X41.2818 Y-26.9096 F120.00
G01 X41.2758 Y-26.9137 F120.00
G01 X41.0885 Y-27.0260 F120.00
G01 X41.0820 Y-27.0295 F120.00
G01 X40.8802 Y-27.1249 F120.00
G01 X40.6723 Y-27.1994 F120.00
G01 X40.6653 Y-27.2016 F120.00
G01 X40.4487 Y-27.2558 F120.00
G01 X40.2254 Y-27.2889 F120.00
G01 X40.0000 Y-27.3000 F120.00
G01 X39.7770 Y-27.2891 F120.00
G01 X39.7697 Y-27.2883 F120.00
G01 X39.5561 Y-27.2566 F120.00
G01 X39.5465 Y-27.2547 F120.00
G01 X39.3323 Y-27.2010 F120.00
G01 X39.1221 Y-27.1258 F120.00
G01 X39.1153 Y-27.1229 F120.00
G01 X38.9202 Y-27.0306 F120.00
G01 X38.9136 Y-27.0272 F120.00
G01 X38.7242 Y-26.9137 F120.00
G01 X38.7182 Y-26.9096 F120.00
G01 X38.6452 Y-26.8554 F120.00
G01 X38.4225 Y-27.0782 F120.00
G01 X38.4871 Y-27.1302 F120.00
G01 X38.7526 Y-27.2957 F120.00
G01 X39.0389 Y-27.4295 F120.00
G00 Z0.2500
G00 X37.5467 Y-25.8986
G01 F60.00
G01 Z0.0000
G01 F120.00
G01 X37.6724 Y-26.1868 F120.00
G01 X37.8310 Y-26.4566 F120.00
G01 X37.9226 Y-26.5768 F120.00
G01 X38.1446 Y-26.3548 F120.00
G01 X38.0904 Y-26.2818 F120.00
G01 X38.0863 Y-26.2758 F120.00
G01 X37.9740 Y-26.0885 F120.00
G01 X37.9705 Y-26.0820 F120.00
G01 X37.8751 Y-25.8802 F120.00
G01 X37.8006 Y-25.6723 F120.00
G01 X37.7984 Y-25.6653 F120.00
G01 X37.7442 Y-25.4487 F120.00
G01 X37.7111 Y-25.2254 F120.00
G01 X37.7000 Y-25.0000 F120.00
G01 X37.7109 Y-24.7770 F120.00
G01 X37.7117 Y-24.7697 F120.00
G01 X37.7434 Y-24.5561 F120.00
G01 X37.7453 Y-24.5465 F120.00
G01 X37.7990 Y-24.3323 F120.00
G01 X37.8742 Y-24.1221 F120.00
G01 X37.8771 Y-24.1153 F120.00
G01 X37.9694 Y-23.9202 F120.00
G01 X37.9728 Y-23.9136 F120.00
G01 X38.0863 Y-23.7242 F120.00
G01 X38.0904 Y-23.7182 F120.00
G01 X38.1446 Y-23.6452 F120.00
G01 X37.9221 Y-23.4227 F120.00
G01 X37.8620 Y-23.4983 F120.00
G01 X37.6978 Y-23.7647 F120.00
G01 X37.5660 Y-24.0502 F120.00
G01 X37.4696 Y-24.3495 F120.00
G01 X37.4097 Y-24.6582 F120.00
G01 X37.3874 Y-24.9719 F120.00
G01 X37.4031 Y-25.2875 F120.00
G01 X37.4565 Y-25.5974 F120.00
G01 X37.5467 Y-25.8986 F120.00
G00 Z0.2500
G00 X38.7263 Y-23.0850
G01 F60.00
G01 Z0.0000
G01 F120.00
G01 X38.9158 Y-22.9716 F120.00
G01 X39.1153 Y-22.8771 F120.00
G01 X39.1244 Y-22.8733 F120.00
G01 X39.3277 Y-22.8006 F120.00
G01 X39.3371 Y-22.7977 F120.00
G01 X39.5513 Y-22.7442 F120.00
G01 X39.7697 Y-22.7117 F120.00
G01 X39.7795 Y-22.7107 F120.00
G01 X40.0000 Y-22.7000 F120.00
G01 X40.2254 Y-22.7111 F120.00
G01 X40.4487 Y-22.7442 F120.00
G01 X40.6653 Y-22.7984 F120.00
G01 X40.6723 Y-22.8006 F120.00
G01 X40.8802 Y-22.8751 F120.00
G01 X41.0820 Y-22.9705 F120.00
G01 X41.0885 Y-22.9740 F120.00
G01 X41.2758 Y-23.0863 F120.00
G01 X41.2818 Y-23.0904 F120.00
G01 X41.3548 Y-23.1446 F120.00
G01 X41.5771 Y-22.9223 F120.00
G01 X41.4905 Y-22.8541 F120.00
G01 X41.2219 Y-22.6906 F120.00
G01 X40.9356 Y-22.5605 F120.00
G01 X40.6373 Y-22.4662 F120.00
G01 X40.3267 Y-22.4078 F120.00
G01 X40.0129 Y-22.3873 F120.00
G01 X39.7005 Y-22.4045 F120.00
G01 X39.3893 Y-22.4596 F120.00
G01 X39.0885 Y-22.5514 F120.00
G01 X38.8010 Y-22.6786 F120.00
G01 X38.5321 Y-22.8386 F120.00
G01 X38.4232 Y-22.9225 F120.00
G01 X38.6452 Y-23.1446 F120.00
G01 X38.7182 Y-23.0904 F120.00
G01 X38.7263 Y-23.0850 F120.00
G00 Z0.2500
G00 X42.4239 Y-25.9752
G01 F60.00
G01 Z0.0000
G01 F120.00
G01 X42.5235 Y-25.6770 F120.00
G01 X42.5868 Y-25.3673 F120.00
G01 X42.6124 Y-25.0527 F120.00
G01 X42.6129 Y-25.0029 F120.00
G01 X42.5937 Y-24.6854 F120.00
G01 X42.5371 Y-24.3760 F120.00
G01 X42.4438 Y-24.0757 F120.00
G01 X42.3150 Y-23.7888 F120.00
G01 X42.1536 Y-23.5208 F120.00
G01 X42.0776 Y-23.4231 F120.00
G01 X41.8554 Y-23.6452 F120.00
G01 X41.9096 Y-23.7182 F120.00
G01 X41.9137 Y-23.7242 F120.00
G01 X42.0260 Y-23.9115 F120.00
G01 X42.0295 Y-23.9180 F120.00
G01 X42.1249 Y-24.1198 F120.00
G01 X42.1994 Y-24.3277 F120.00
G01 X42.2016 Y-24.3347 F120.00
G01 X42.2558 Y-24.5513 F120.00
G01 X42.2889 Y-24.7746 F120.00
G01 X42.3000 Y-25.0000 F120.00
G01 X42.2891 Y-25.2230 F120.00
G01 X42.2883 Y-25.2303 F120.00
G01 X42.2566 Y-25.4439 F120.00
G01 X42.2547 Y-25.4535 F120.00
G01 X42.2010 Y-25.6677 F120.00
G01 X42.1258 Y-25.8779 F120.00
G01 X42.1229 Y-25.8847 F120.00
G01 X42.0306 Y-26.0798 F120.00
G01 X42.0272 Y-26.0864 F120.00
G01 X41.9137 Y-26.2758 F120.00
G01 X41.9096 Y-26.2818 F120.00
G01 X41.8554 Y-26.3548 F120.00
G01 X42.0785 Y-26.5778 F120.00
G01 X42.1222 Y-26.5240 F120.00
G01 X42.2892 Y-26.2594 F120.00
G01 X42.4239 Y-25.9752 F120.00
G00 Z0.2500
G00 X23.9195 Y-30.6430
G01 F60.00
G01 Z0.0000
G01 F120.00
G01 X24.1086 Y-30.7589 F120.00
G01 X24.3134 Y-30.8437 F120.00
G01 X24.5290 Y-30.8955 F120.00
G01 X24.7500 Y-30.9129 F120.00
G01 X24.9710 Y-30.8955 F120.00
G01 X25.1866 Y-30.8437 F120.00
G01 X25.3914 Y-30.7589 F120.00
G01 X25.5805 Y-30.6430 F120.00
G01 X25.7490 Y-30.4990 F120.00
G01 X25.8930 Y-30.3305 F120.00
G01 X26.0089 Y-30.1414 F120.00
G01 X26.0937 Y-29.9366 F120.00
G01 X26.1455 Y-29.7210 F120.00
G01 X26.1629 Y-29.5000 F120.00
G01 X26.1455 Y-29.2790 F120.00
G01 X26.0937 Y-29.0634 F120.00
G01 X26.0089 Y-28.8586 F120.00
G01 X25.8930 Y-28.6695 F120.00
G01 X25.7490 Y-28.5010 F120.00
G01 X25.5805 Y-28.3570 F120.00
G01 X25.3914 Y-28.2411 F120.00
G01 X25.1866 Y-28.1563 F120.00
G01 X24.9710 Y-28.1045 F120.00
G01 X24.7500 Y-28.0871 F120.00
G01 X24.5290 Y-28.1045 F120.00
G01 X24.3134 Y-28.1563 F120.00
G01 X24.1086 Y-28.2411 F120.00
G01 X23.9195 Y-28.3570 F120.00
G01 X23.7510 Y-28.5010 F120.00
G01 X23.6070 Y-28.6695 F120.00
G01 X23.4911 Y-28.8586 F120.00
G01 X23.4063 Y-29.0634 F120.00
G01 X23.3889 Y-29.1357 F120.00
G01 X23.3545 Y-29.2790 F120.00
G01 X23.3371 Y-29.5000 F120.00
G01 X23.3545 Y-29.7210 F120.00
G01 X23.4063 Y-29.9366 F120.00
G01 X23.4911 Y-30.1414 F120.00
G01 X23.6070 Y-30.3305 F120.00
G01 X23.7510 Y-30.4990 F120.00
G01 X23.9195 Y-30.6430 F120.00
G00 Z0.2500
G00 X23.6500 Y-29.5000
G01 F60.00
G01 Z0.0000
G01 F120.00
G01 X23.6553 Y-29.6078 F120.00
G01 X23.6711 Y-29.7146 F120.00
G01 X23.6974 Y-29.8193 F120.00
G01 X23.7337 Y-29.9210 F120.00
G01 X23.7799 Y-30.0185 F120.00
G01 X23.8354 Y-30.1111 F120.00
G01 X23.8997 Y-30.1978 F120.00
G01 X23.9722 Y-30.2778 F120.00
G01 X24.0522 Y-30.3503 F120.00
G01 X24.1389 Y-30.4146 F120.00
G01 X24.2315 Y-30.4701 F120.00
G01 X24.3290 Y-30.5163 F120.00
G01 X24.4307 Y-30.5526 F120.00
G01 X24.5354 Y-30.5789 F120.00
G01 X24.6422 Y-30.5947 F120.00
G01 X24.7500 Y-30.6000 F120.00
G01 X24.8578 Y-30.5947 F120.00
G01 X24.9646 Y-30.5789 F120.00
G01 X25.0693 Y-30.5526 F120.00
G01 X25.1710 Y-30.5163 F120.00
G01 X25.2685 Y-30.4701 F120.00
G01 X25.3611 Y-30.4146 F120.00
G01 X25.4478 Y-30.3503 F120.00
G01 X25.5278 Y-30.2778 F120.00
G01 X25.6003 Y-30.1978 F120.00
G01 X25.6646 Y-30.1111 F120.00
G01 X25.7201 Y-30.0185 F120.00
G01 X25.7663 Y-29.9210 F120.00
G01 X25.8026 Y-29.8193 F120.00
G01 X25.8289 Y-29.7146 F120.00
G01 X25.8447 Y-29.6078 F120.00
G01 X25.8500 Y-29.5000 F120.00
G01 X25.8447 Y-29.3922 F120.00
G01 X25.8289 Y-29.2854 F120.00
G01 X25.8026 Y-29.1807 F120.00
G01 X25.7663 Y-29.0790 F120.00
G01 X25.7201 Y-28.9815 F120.00
G01 X25.6646 Y-28.8889 F120.00
G01 X25.6003 Y-28.8022 F120.00
G01 X25.5278 Y-28.7222 F120.00
G01 X25.4478 Y-28.6497 F120.00
G01 X25.3611 Y-28.5854 F120.00
G01 X25.2685 Y-28.5299 F120.00
G01 X25.1710 Y-28.4837 F120.00
G01 X25.0693 Y-28.4474 F120.00
G01 X24.9646 Y-28.4211 F120.00
G01 X24.8578 Y-28.4053 F120.00
G01 X24.7500 Y-28.4000 F120.00
G01 X24.6422 Y-28.4053 F120.00
G01 X24.5354 Y-28.4211 F120.00
G01 X24.4307 Y-28.4474 F120.00
G01 X24.3290 Y-28.4837 F120.00
G01 X24.2315 Y-28.5299 F120.00
G01 X24.1389 Y-28.5854 F120.00
G01 X24.0522 Y-28.6497 F120.00
G01 X23.9722 Y-28.7222 F120.00
G01 X23.8997 Y-28.8022 F120.00
G01 X23.8354 Y-28.8889 F120.00
G01 X23.7799 Y-28.9815 F120.00
G01 X23.7337 Y-29.0790 F120.00
G01 X23.6974 Y-29.1807 F120.00
G01 X23.6711 Y-29.2854 F120.00
G01 X23.6553 Y-29.3922 F120.00
G01 X23.6500 Y-29.5000 F120.00
G00 Z0.2500
G00 X34.1015 Y-49.0962
G01 F60.00
G01 Z0.0000
G01 F120.00
G01 X34.1044 Y-49.1157 F120.00
G01 X34.1119 Y-49.1329 F120.00
G01 X34.1191 Y-49.1527 F120.00
G01 X34.1237 Y-49.1683 F120.00
G01 X34.1341 Y-49.1850 F120.00
G01 X34.1434 Y-49.2021 F120.00
G01 X34.1527 Y-49.2221 F120.00
G01 X34.1648 Y-49.2365 F120.00
G01 X34.1773 Y-49.2535 F120.00
G01 X34.1861 Y-49.2672 F120.00
G01 X34.2008 Y-49.2803 F120.00
G01 X34.2145 Y-49.2941 F120.00
G01 X34.2290 Y-49.3106 F120.00
G01 X34.2446 Y-49.3210 F120.00
G01 X34.2614 Y-49.3339 F120.00
G01 X34.2737 Y-49.3445 F120.00
G01 X34.2914 Y-49.3530 F120.00
G01 X34.3085 Y-49.3624 F120.00
G01 X34.3271 Y-49.3742 F120.00
G01 X34.3426 Y-49.3790 F120.00
G01 X34.3624 Y-49.3865 F120.00
G01 X34.3795 Y-49.3942 F120.00
G01 X34.3990 Y-49.3973 F120.00
G01 X34.4179 Y-49.4016 F120.00
G01 X34.4391 Y-49.4077 F120.00
G01 X34.5628 Y-49.4084 F120.00
G01 X34.5723 Y-49.4080 F120.00
G01 X35.4913 Y-49.4080 F120.00
G01 X35.5559 Y-49.4084 F120.00
G01 X35.5750 Y-49.4031 F120.00
G01 X35.5939 Y-49.3990 F120.00
G01 X35.6157 Y-49.3956 F120.00
G01 X35.6329 Y-49.3881 F120.00
G01 X35.6527 Y-49.3809 F120.00
G01 X35.6683 Y-49.3763 F120.00
G01 X35.6850 Y-49.3659 F120.00
G01 X35.7021 Y-49.3566 F120.00
G01 X35.7221 Y-49.3473 F120.00
G01 X35.7365 Y-49.3352 F120.00
G01 X35.7535 Y-49.3227 F120.00
G01 X35.7672 Y-49.3139 F120.00
G01 X35.7803 Y-49.2992 F120.00
G01 X35.7941 Y-49.2855 F120.00
G01 X35.8106 Y-49.2710 F120.00
G01 X35.8210 Y-49.2554 F120.00
G01 X35.8339 Y-49.2386 F120.00
G01 X35.8445 Y-49.2263 F120.00
G01 X35.8530 Y-49.2086 F120.00
G01 X35.8624 Y-49.1915 F120.00
G01 X35.8742 Y-49.1729 F120.00
G01 X35.8798 Y-49.1550 F120.00
G01 X35.8874 Y-49.1353 F120.00
G01 X35.8942 Y-49.1205 F120.00
G01 X35.8973 Y-49.1010 F120.00
G01 X35.9016 Y-49.0821 F120.00
G01 X35.9077 Y-49.0609 F120.00
G01 X35.9084 Y-48.9372 F120.00
G01 X35.9080 Y-48.9277 F120.00
G01 X35.9080 Y-41.0087 F120.00
G01 X35.9084 Y-40.9441 F120.00
G01 X35.9031 Y-40.9250 F120.00
G01 X35.8990 Y-40.9061 F120.00
G01 X35.8956 Y-40.8843 F120.00
G01 X35.8881 Y-40.8671 F120.00
G01 X35.8809 Y-40.8473 F120.00
G01 X35.8763 Y-40.8317 F120.00
G01 X35.8659 Y-40.8150 F120.00
G01 X35.8566 Y-40.7979 F120.00
G01 X35.8473 Y-40.7779 F120.00
G01 X35.8352 Y-40.7635 F120.00
G01 X35.8227 Y-40.7465 F120.00
G01 X35.8139 Y-40.7328 F120.00
G01 X35.7992 Y-40.7197 F120.00
G01 X35.7855 Y-40.7059 F120.00
G01 X35.7710 Y-40.6894 F120.00
G01 X35.7554 Y-40.6790 F120.00
G01 X35.7386 Y-40.6661 F120.00
G01 X35.7263 Y-40.6555 F120.00
G01 X35.7086 Y-40.6470 F120.00
G01 X35.6915 Y-40.6376 F120.00
G01 X35.6729 Y-40.6258 F120.00
G01 X35.6550 Y-40.6202 F120.00
G01 X35.6353 Y-40.6126 F120.00
G01 X35.6205 Y-40.6058 F120.00
G01 X35.6010 Y-40.6027 F120.00
G01 X35.5821 Y-40.5984 F120.00
G01 X35.5609 Y-40.5923 F120.00
G01 X35.4372 Y-40.5916 F120.00
G01 X35.4277 Y-40.5920 F120.00
G01 X34.5087 Y-40.5920 F120.00
G01 X34.4441 Y-40.5916 F120.00
G01 X34.4250 Y-40.5969 F120.00
G01 X34.4061 Y-40.6010 F120.00
G01 X34.3843 Y-40.6044 F120.00
G01 X34.3671 Y-40.6119 F120.00
G01 X34.3473 Y-40.6191 F120.00
G01 X34.3317 Y-40.6237 F120.00
G01 X34.3150 Y-40.6341 F120.00
G01 X34.2979 Y-40.6434 F120.00
G01 X34.2779 Y-40.6527 F120.00
G01 X34.2635 Y-40.6648 F120.00
G01 X34.2465 Y-40.6773 F120.00
G01 X34.2328 Y-40.6861 F120.00
G01 X34.2197 Y-40.7008 F120.00
G01 X34.2059 Y-40.7145 F120.00
G01 X34.1894 Y-40.7290 F120.00
G01 X34.1790 Y-40.7446 F120.00
G01 X34.1661 Y-40.7614 F120.00
G01 X34.1555 Y-40.7737 F120.00
G01 X34.1470 Y-40.7914 F120.00
G01 X34.1376 Y-40.8085 F120.00
G01 X34.1258 Y-40.8271 F120.00
G01 X34.1210 Y-40.8426 F120.00
G01 X34.1135 Y-40.8624 F120.00
G01 X34.1058 Y-40.8795 F120.00
G01 X34.1022 Y-40.9012 F120.00
G01 X34.0979 Y-40.9201 F120.00
G01 X34.0923 Y-40.9391 F120.00
G01 X34.0916 Y-41.0628 F120.00
G01 X34.0920 Y-41.0723 F120.00
G01 X34.0920 Y-48.9913 F120.00
G01 X34.0916 Y-49.0559 F120.00
G01 X34.0969 Y-49.0750 F120.00
G01 X34.1015 Y-49.0962 F120.00
G00 Z0.2500
G00 X34.1015 Y-59.0962
G01 F60.00
G01 Z0.0000
G01 F120.00
G01 X34.1044 Y-59.1157 F120.00
G01 X34.1119 Y-59.1329 F120.00
G01 X34.1191 Y-59.1527 F120.00
G01 X34.1237 Y-59.1683 F120.00
G01 X34.1341 Y-59.1850 F120.00
G01 X34.1434 Y-59.2021 F120.00
G01 X34.1527 Y-59.2221 F120.00
G01 X34.1648 Y-59.2365 F120.00
G01 X34.1773 Y-59.2535 F120.00
G01 X34.1861 Y-59.2672 F120.00
G01 X34.2008 Y-59.2803 F120.00
G01 X34.2145 Y-59.2941 F120.00
G01 X34.2290 Y-59.3106 F120.00
G01 X34.2446 Y-59.3210 F120.00
G01 X34.2614 Y-59.3339 F120.00
G01 X34.2737 Y-59.3445 F120.00
G01 X34.2914 Y-59.3530 F120.00
G01 X34.3085 Y-59.3624 F120.00
G01 X34.3271 Y-59.3742 F120.00
G01 X34.3426 Y-59.3790 F120.00
G01 X34.3624 Y-59.3865 F120.00
G01 X34.3795 Y-59.3942 F120.00
G01 X34.3990 Y-59.3973 F120.00
G01 X34.4179 Y-59.4016 F120.00
G01 X34.4391 Y-59.4077 F120.00
G01 X34.5628 Y-59.4084 F120.00
G01 X34.5723 Y-59.4080 F120.00
G01 X35.4913 Y-59.4080 F120.00
G01 X35.5559 Y-59.4084 F120.00
G01 X35.5750 Y-59.4031 F120.00
G01 X35.5939 Y-59.3990 F120.00
G01 X35.6157 Y-59.3956 F120.00
G01 X35.6329 Y-59.3881 F120.00
G01 X35.6527 Y-59.3809 F120.00
G01 X35.6683 Y-59.3763 F120.00
G01 X35.6850 Y-59.3659 F120.00
G01 X35.7021 Y-59.3566 F120.00
G01 X35.7221 Y-59.3473 F120.00
G01 X35.7365 Y-59.3352 F120.00
G01 X35.7535 Y-59.3227 F120.00
G01 X35.7672 Y-59.3139 F120.00
G01 X35.7803 Y-59.2992 F120.00
G01 X35.7941 Y-59.2855 F120.00
G01 X35.8106 Y-59.2710 F120.00
G01 X35.8210 Y-59.2554 F120.00
G01 X35.8339 Y-59.2386 F120.00
G01 X35.8445 Y-59.2263 F120.00
G01 X35.8530 Y-59.2086 F120.00
G01 X35.8624 Y-59.1915 F120.00
G01 X35.8742 Y-59.1729 F120.00
G01 X35.8798 Y-59.1550 F120.00
G01 X35.8874 Y-59.1353 F120.00
G01 X35.8942 Y-59.1205 F120.00
G01 X35.8973 Y-59.1010 F120.00
G01 X35.9016 Y-59.0821 F120.00
G01 X35.9077 Y-59.0609 F120.00
G01 X35.9084 Y-58.9372 F120.00
G01 X35.9080 Y-58.9277 F120.00
G01 X35.9080 Y-51.0087 F120.00
G01 X35.9084 Y-50.9441 F120.00
G01 X35.9031 Y-50.9250 F120.00
G01 X35.8990 Y-50.9061 F120.00
G01 X35.8956 Y-50.8843 F120.00
G01 X35.8881 Y-50.8671 F120.00
G01 X35.8809 Y-50.8473 F120.00
G01 X35.8763 Y-50.8317 F120.00
G01 X35.8659 Y-50.8150 F120.00
G01 X35.8566 Y-50.7979 F120.00
G01 X35.8473 Y-50.7779 F120.00
G01 X35.8352 Y-50.7635 F120.00
G01 X35.8227 Y-50.7465 F120.00
G01 X35.8139 Y-50.7328 F120.00
G01 X35.7992 Y-50.7197 F120.00
G01 X35.7855 Y-50.7059 F120.00
G01 X35.7710 Y-50.6894 F120.00
G01 X35.7554 Y-50.6790 F120.00
G01 X35.7386 Y-50.6661 F120.00
G01 X35.7263 Y-50.6555 F120.00
G01 X35.7086 Y-50.6470 F120.00
G01 X35.6915 Y-50.6376 F120.00
G01 X35.6729 Y-50.6258 F120.00
G01 X35.6550 Y-50.6202 F120.00
G01 X35.6353 Y-50.6126 F120.00
G01 X35.6205 Y-50.6058 F120.00
G01 X35.6010 Y-50.6027 F120.00
G01 X35.5821 Y-50.5984 F120.00
G01 X35.5609 Y-50.5923 F120.00
G01 X35.4372 Y-50.5916 F120.00
G01 X35.4277 Y-50.5920 F120.00
G01 X34.5087 Y-50.5920 F120.00
G01 X34.4441 Y-50.5916 F120.00
G01 X34.4250 Y-50.5969 F120.00
G01 X34.4061 Y-50.6010 F120.00
G01 X34.3843 Y-50.6044 F120.00
G01 X34.3671 Y-50.6119 F120.00
G01 X34.3473 Y-50.6191 F120.00
G01 X34.3317 Y-50.6237 F120.00
G01 X34.3150 Y-50.6341 F120.00
G01 X34.2979 Y-50.6434 F120.00
G01 X34.2779 Y-50.6527 F120.00
G01 X34.2635 Y-50.6648 F120.00
G01 X34.2465 Y-50.6773 F120.00
G01 X34.2328 Y-50.6861 F120.00
G01 X34.2197 Y-50.7008 F120.00
G01 X34.2059 Y-50.7145 F120.00
G01 X34.1894 Y-50.7290 F120.00
G01 X34.1790 Y-50.7446 F120.00
G01 X34.1661 Y-50.7614 F120.00
G01 X34.1555 Y-50.7737 F120.00
G01 X34.1470 Y-50.7914 F120.00
G01 X34.1376 Y-50.8085 F120.00
G01 X34.1258 Y-50.8271 F120.00
G01 X34.1210 Y-50.8426 F120.00
G01 X34.1135 Y-50.8624 F120.00
G01 X34.1058 Y-50.8795 F120.00
G01 X34.1022 Y-50.9012 F120.00
G01 X34.0979 Y-50.9201 F120.00
G01 X34.0923 Y-50.9391 F120.00
G01 X34.0916 Y-51.0628 F120.00
G01 X34.0920 Y-51.0723 F120.00
G01 X34.0920 Y-58.9913 F120.00
G01 X34.0916 Y-59.0559 F120.00
G01 X34.0969 Y-59.0750 F120.00
G01 X34.1015 Y-59.0962 F120.00
G00 Z0.2500
G00 X31.9000 Y-64.7500
G01 F60.00
G01 Z0.0000
G01 F120.00
G01 X31.9041 Y-64.8333 F120.00
G01 X31.9163 Y-64.9158 F120.00
G01 X31.9366 Y-64.9967 F120.00
G01 X31.9647 Y-65.0753 F120.00
G01 X32.0004 Y-65.1507 F120.00
G01 X32.0433 Y-65.2222 F120.00
G01 X32.0929 Y-65.2892 F120.00
G01 X32.1490 Y-65.3510 F120.00
G01 X32.2108 Y-65.4071 F120.00
G01 X32.2778 Y-65.4567 F120.00
G01 X32.3493 Y-65.4996 F120.00
G01 X32.4247 Y-65.5353 F120.00
G01 X32.5033 Y-65.5634 F120.00
G01 X32.5842 Y-65.5837 F120.00
G01 X32.6667 Y-65.5959 F120.00
G01 X32.7500 Y-65.6000 F120.00
G01 X32.8333 Y-65.5959 F120.00
G01 X32.9158 Y-65.5837 F120.00
G01 X32.9967 Y-65.5634 F120.00
G01 X33.0754 Y-65.5352 F120.00
G01 X33.1507 Y-65.4996 F120.00
G01 X33.2222 Y-65.4567 F120.00
G01 X33.2892 Y-65.4071 F120.00
G01 X33.3510 Y-65.3510 F120.00
G01 X33.4071 Y-65.2892 F120.00
G01 X33.4567 Y-65.2222 F120.00
G01 X33.4996 Y-65.1507 F120.00
G01 X33.5353 Y-65.0753 F120.00
G01 X33.5634 Y-64.9967 F120.00
G01 X33.5837 Y-64.9158 F120.00
G01 X33.5959 Y-64.8333 F120.00
G01 X33.6000 Y-64.7500 F120.00
G01 X33.5959 Y-64.6667 F120.00
G01 X33.5837 Y-64.5842 F120.00
G01 X33.5634 Y-64.5033 F120.00
G01 X33.5353 Y-64.4247 F120.00
G01 X33.4996 Y-64.3493 F120.00
G01 X33.4567 Y-64.2778 F120.00
G01 X33.4071 Y-64.2108 F120.00
G01 X33.3510 Y-64.1490 F120.00
G01 X33.2892 Y-64.0929 F120.00
G01 X33.2222 Y-64.0433 F120.00
G01 X33.1507 Y-64.0004 F120.00
G01 X33.0753 Y-63.9647 F120.00
G01 X32.9967 Y-63.9366 F120.00
G01 X32.9158 Y-63.9163 F120.00
G01 X32.8333 Y-63.9041 F120.00
G01 X32.7500 Y-63.9000 F120.00
G01 X32.6667 Y-63.9041 F120.00
G01 X32.5842 Y-63.9163 F120.00
G01 X32.5033 Y-63.9366 F120.00
G01 X32.4246 Y-63.9648 F120.00
G01 X32.3493 Y-64.0004 F120.00
G01 X32.2778 Y-64.0433 F120.00
G01 X32.2108 Y-64.0929 F120.00
G01 X32.1490 Y-64.1490 F120.00
G01 X32.0929 Y-64.2108 F120.00
G01 X32.0433 Y-64.2778 F120.00
G01 X32.0004 Y-64.3493 F120.00
G01 X31.9647 Y-64.4247 F120.00
G01 X31.9366 Y-64.5033 F120.00
G01 X31.9163 Y-64.5842 F120.00
G01 X31.9041 Y-64.6667 F120.00
G01 X31.9000 Y-64.7500 F120.00
G00 Z0.2500
G00 X31.9000 Y-66.7500
G01 F60.00
G01 Z0.0000
G01 F120.00
G01 X31.9041 Y-66.8333 F120.00
G01 X31.9163 Y-66.9158 F120.00
G01 X31.9366 Y-66.9967 F120.00
G01 X31.9647 Y-67.0753 F120.00
G01 X32.0004 Y-67.1507 F120.00
G01 X32.0433 Y-67.2222 F120.00
G01 X32.0929 Y-67.2892 F120.00
G01 X32.1490 Y-67.3510 F120.00
G01 X32.2108 Y-67.4071 F120.00
G01 X32.2778 Y-67.4567 F120.00
G01 X32.3493 Y-67.4996 F120.00
G01 X32.4247 Y-67.5353 F120.00
G01 X32.5033 Y-67.5634 F120.00
G01 X32.5842 Y-67.5837 F120.00
G01 X32.6667 Y-67.5959 F120.00
G01 X32.7500 Y-67.6000 F120.00
G01 X32.8333 Y-67.5959 F120.00
G01 X32.9158 Y-67.5837 F120.00
G01 X32.9967 Y-67.5634 F120.00
G01 X33.0754 Y-67.5352 F120.00
G01 X33.1507 Y-67.4996 F120.00
G01 X33.2222 Y-67.4567 F120.00
G01 X33.2892 Y-67.4071 F120.00
G01 X33.3510 Y-67.3510 F120.00
G01 X33.4071 Y-67.2892 F120.00
G01 X33.4567 Y-67.2222 F120.00
G01 X33.4996 Y-67.1507 F120.00
G01 X33.5353 Y-67.0753 F120.00
G01 X33.5634 Y-66.9967 F120.00
G01 X33.5837 Y-66.9158 F120.00
G01 X33.5959 Y-66.8333 F120.00
G01 X33.6000 Y-66.7500 F120.00
G01 X33.5959 Y-66.6667 F120.00
G01 X33.5837 Y-66.5842 F120.00
G01 X33.5634 Y-66.5033 F120.00
G01 X33.5353 Y-66.4247 F120.00
G01 X33.4996 Y-66.3493 F120.00
G01 X33.4567 Y-66.2778 F120.00
G01 X33.4071 Y-66.2108 F120.00
G01 X33.3510 Y-66.1490 F120.00
G01 X33.2892 Y-66.0929 F120.00
G01 X33.2222 Y-66.0433 F120.00
G01 X33.1507 Y-66.0004 F120.00
G01 X33.0753 Y-65.9647 F120.00
G01 X32.9967 Y-65.9366 F120.00
G01 X32.9158 Y-65.9163 F120.00
G01 X32.8333 Y-65.9041 F120.00
G01 X32.7500 Y-65.9000 F120.00
G01 X32.6667 Y-65.9041 F120.00
G01 X32.5842 Y-65.9163 F120.00
G01 X32.5033 Y-65.9366 F120.00
G01 X32.4246 Y-65.9648 F120.00
G01 X32.3493 Y-66.0004 F120.00
G01 X32.2778 Y-66.0433 F120.00
G01 X32.2108 Y-66.0929 F120.00
G01 X32.1490 Y-66.1490 F120.00
G01 X32.0929 Y-66.2108 F120.00
G01 X32.0433 Y-66.2778 F120.00
G01 X32.0004 Y-66.3493 F120.00
G01 X31.9647 Y-66.4247 F120.00
G01 X31.9366 Y-66.5033 F120.00
G01 X31.9163 Y-66.5842 F120.00
G01 X31.9041 Y-66.6667 F120.00
G01 X31.9000 Y-66.7500 F120.00
G00 Z0.2500
G00 X31.9000 Y-68.7500
G01 F60.00
G01 Z0.0000
G01 F120.00
G01 X31.9041 Y-68.8333 F120.00
G01 X31.9163 Y-68.9158 F120.00
G01 X31.9366 Y-68.9967 F120.00
G01 X31.9647 Y-69.0753 F120.00
G01 X32.0004 Y-69.1507 F120.00
G01 X32.0433 Y-69.2222 F120.00
G01 X32.0929 Y-69.2892 F120.00
G01 X32.1490 Y-69.3510 F120.00
G01 X32.2108 Y-69.4071 F120.00
G01 X32.2778 Y-69.4567 F120.00
G01 X32.3493 Y-69.4996 F120.00
G01 X32.4247 Y-69.5353 F120.00
G01 X32.5033 Y-69.5634 F120.00
G01 X32.5842 Y-69.5837 F120.00
G01 X32.6667 Y-69.5959 F120.00
G01 X32.7500 Y-69.6000 F120.00
G01 X32.8333 Y-69.5959 F120.00
G01 X32.9158 Y-69.5837 F120.00
G01 X32.9967 Y-69.5634 F120.00
G01 X33.0754 Y-69.5352 F120.00
G01 X33.1507 Y-69.4996 F120.00
G01 X33.2222 Y-69.4567 F120.00
G01 X33.2892 Y-69.4071 F120.00
G01 X33.3510 Y-69.3510 F120.00
G01 X33.4071 Y-69.2892 F120.00
G01 X33.4567 Y-69.2222 F120.00
G01 X33.4996 Y-69.1507 F120.00
G01 X33.5353 Y-69.0753 F120.00
G01 X33.5634 Y-68.9967 F120.00
G01 X33.5837 Y-68.9158 F120.00
G01 X33.5959 Y-68.8333 F120.00
G01 X33.6000 Y-68.7500 F120.00
G01 X33.5959 Y-68.6667 F120.00
G01 X33.5837 Y-68.5842 F120.00
G01 X33.5634 Y-68.5033 F120.00
G01 X33.5353 Y-68.4247 F120.00
G01 X33.4996 Y-68.3493 F120.00
G01 X33.4567 Y-68.2778 F120.00
G01 X33.4071 Y-68.2108 F120.00
G01 X33.3510 Y-68.1490 F120.00
G01 X33.2892 Y-68.0929 F120.00
G01 X33.2222 Y-68.0433 F120.00
G01 X33.1507 Y-68.0004 F120.00
G01 X33.0753 Y-67.9647 F120.00
G01 X32.9967 Y-67.9366 F120.00
G01 X32.9158 Y-67.9163 F120.00
G01 X32.8333 Y-67.9041 F120.00
G01 X32.7500 Y-67.9000 F120.00
G01 X32.6667 Y-67.9041 F120.00
G01 X32.5842 Y-67.9163 F120.00
G01 X32.5033 Y-67.9366 F120.00
G01 X32.4246 Y-67.9648 F120.00
G01 X32.3493 Y-68.0004 F120.00
G01 X32.2778 Y-68.0433 F120.00
G01 X32.2108 Y-68.0929 F120.00
G01 X32.1490 Y-68.1490 F120.00
G01 X32.0929 Y-68.2108 F120.00
G01 X32.0433 Y-68.2778 F120.00
G01 X32.0004 Y-68.3493 F120.00
G01 X31.9647 Y-68.4247 F120.00
G01 X31.9366 Y-68.5033 F120.00
G01 X31.9163 Y-68.5842 F120.00
G01 X31.9041 Y-68.6667 F120.00
G01 X31.9000 Y-68.7500 F120.00
G00 Z0.2500
G00 X36.4000 Y-68.7525
G01 F60.00
G01 Z0.0000
G01 F120.00
G01 X36.4041 Y-68.8333 F120.00
G01 X36.4163 Y-68.9158 F120.00
G01 X36.4366 Y-68.9967 F120.00
G01 X36.4647 Y-69.0753 F120.00
G01 X36.5004 Y-69.1507 F120.00
G01 X36.5433 Y-69.2222 F120.00
G01 X36.5929 Y-69.2892 F120.00
G01 X36.6490 Y-69.3510 F120.00
G01 X36.7108 Y-69.4071 F120.00
G01 X36.7778 Y-69.4567 F120.00
G01 X36.8493 Y-69.4996 F120.00
G01 X36.9247 Y-69.5353 F120.00
G01 X37.0033 Y-69.5634 F120.00
G01 X37.0842 Y-69.5837 F120.00
G01 X37.1667 Y-69.5959 F120.00
G01 X37.2451 Y-69.5999 F120.00
G01 X37.2549 Y-69.5999 F120.00
G01 X37.3284 Y-69.5963 F120.00
G01 X37.3382 Y-69.5953 F120.00
G01 X37.4158 Y-69.5837 F120.00
G01 X37.4967 Y-69.5634 F120.00
G01 X37.5754 Y-69.5352 F120.00
G01 X37.6463 Y-69.5018 F120.00
G01 X37.6550 Y-69.4972 F120.00
G01 X37.7243 Y-69.4554 F120.00
G01 X37.7892 Y-69.4071 F120.00
G01 X37.8475 Y-69.3544 F120.00
G01 X37.8544 Y-69.3475 F120.00
G01 X37.9086 Y-69.2873 F120.00
G01 X37.9567 Y-69.2222 F120.00
G01 X37.9984 Y-69.1528 F120.00
G01 X38.0343 Y-69.0775 F120.00
G01 X38.0444 Y-69.0501 F120.00
G01 X44.1257 Y-69.0501 F120.00
G01 X52.2985 Y-77.2229 F120.00
G01 X52.2776 Y-77.2679 F120.00
G01 X52.2503 Y-77.3441 F120.00
G01 X52.2481 Y-77.3511 F120.00
G01 X52.2273 Y-77.4344 F120.00
G01 X52.2146 Y-77.5193 F120.00
G01 X52.2101 Y-77.6051 F120.00
G01 X52.2101 Y-77.6149 F120.00
G01 X52.2143 Y-77.6982 F120.00
G01 X52.2268 Y-77.7832 F120.00
G01 X52.2474 Y-77.8665 F120.00
G01 X52.2503 Y-77.8759 F120.00
G01 X52.2785 Y-77.9544 F120.00
G01 X52.3163 Y-78.0343 F120.00
G01 X52.3617 Y-78.1100 F120.00
G01 X52.4113 Y-78.1771 F120.00
G01 X52.4175 Y-78.1847 F120.00
G01 X52.4702 Y-78.2428 F120.00
G01 X52.4772 Y-78.2498 F120.00
G01 X52.5353 Y-78.3025 F120.00
G01 X52.5429 Y-78.3087 F120.00
G01 X52.6100 Y-78.3583 F120.00
G01 X52.6815 Y-78.4013 F120.00
G01 X52.6901 Y-78.4059 F120.00
G01 X52.7656 Y-78.4415 F120.00
G01 X52.8487 Y-78.4712 F120.00
G01 X52.9344 Y-78.4927 F120.00
G01 X53.0169 Y-78.5051 F120.00
G01 X53.0267 Y-78.5060 F120.00
G01 X53.1051 Y-78.5099 F120.00
G01 X53.1149 Y-78.5099 F120.00
G01 X53.1982 Y-78.5057 F120.00
G01 X53.2807 Y-78.4935 F120.00
G01 X53.2904 Y-78.4916 F120.00
G01 X53.3713 Y-78.4712 F120.00
G01 X53.4544 Y-78.4415 F120.00
G01 X53.5343 Y-78.4037 F120.00
G01 X53.6059 Y-78.3609 F120.00
G01 X53.6140 Y-78.3555 F120.00
G01 X53.6810 Y-78.3057 F120.00
G01 X53.7428 Y-78.2498 F120.00
G01 X53.7498 Y-78.2428 F120.00
G01 X53.8025 Y-78.1847 F120.00
G01 X53.8087 Y-78.1771 F120.00
G01 X53.8583 Y-78.1100 F120.00
G01 X53.9037 Y-78.0343 F120.00
G01 X53.9415 Y-77.9544 F120.00
G01 X53.9697 Y-77.8759 F120.00
G01 X53.9726 Y-77.8665 F120.00
G01 X53.9916 Y-77.7904 F120.00
G01 X53.9935 Y-77.7807 F120.00
G01 X54.0057 Y-77.6982 F120.00
G01 X54.0100 Y-77.6100 F120.00
G01 X54.0057 Y-77.5218 F120.00
G01 X53.9935 Y-77.4393 F120.00
G01 X53.9916 Y-77.4296 F120.00
G01 X53.9726 Y-77.3535 F120.00
G01 X53.9697 Y-77.3441 F120.00
G01 X53.9415 Y-77.2656 F120.00
G01 X53.9037 Y-77.1857 F120.00
G01 X53.8583 Y-77.1100 F120.00
G01 X53.8087 Y-77.0429 F120.00
G01 X53.8025 Y-77.0353 F120.00
G01 X53.7464 Y-76.9736 F120.00
G01 X53.6847 Y-76.9175 F120.00
G01 X53.6771 Y-76.9113 F120.00
G01 X53.6100 Y-76.8617 F120.00
G01 X53.5343 Y-76.8163 F120.00
G01 X53.4544 Y-76.7785 F120.00
G01 X53.3759 Y-76.7503 F120.00
G01 X53.3665 Y-76.7474 F120.00
G01 X53.2832 Y-76.7268 F120.00
G01 X53.1982 Y-76.7143 F120.00
G01 X53.1149 Y-76.7101 F120.00
G01 X53.1051 Y-76.7101 F120.00
G01 X53.0193 Y-76.7146 F120.00
G01 X52.9344 Y-76.7273 F120.00
G01 X52.8511 Y-76.7481 F120.00
G01 X52.8441 Y-76.7503 F120.00
G01 X52.7679 Y-76.7776 F120.00
G01 X52.7229 Y-76.7985 F120.00
G01 X44.4622 Y-68.5378 F120.00
G01 X44.4441 Y-68.5212 F120.00
G01 X44.4365 Y-68.5150 F120.00
G01 X44.4167 Y-68.5005 F120.00
G01 X44.3915 Y-68.4853 F120.00
G01 X44.3648 Y-68.4727 F120.00
G01 X44.3418 Y-68.4644 F120.00
G01 X44.3324 Y-68.4615 F120.00
G01 X44.3085 Y-68.4557 F120.00
G01 X44.2843 Y-68.4519 F120.00
G01 X44.2745 Y-68.4510 F120.00
G01 X44.2500 Y-68.4499 F120.00
G01 X38.0444 Y-68.4499 F120.00
G01 X38.0343 Y-68.4225 F120.00
G01 X37.9984 Y-68.3472 F120.00
G01 X37.9567 Y-68.2778 F120.00
G01 X37.9086 Y-68.2127 F120.00
G01 X37.8544 Y-68.1525 F120.00
G01 X37.8475 Y-68.1456 F120.00
G01 X37.7892 Y-68.0929 F120.00
G01 X37.7243 Y-68.0446 F120.00
G01 X37.6550 Y-68.0028 F120.00
G01 X37.6463 Y-67.9982 F120.00
G01 X37.5753 Y-67.9647 F120.00
G01 X37.4967 Y-67.9366 F120.00
G01 X37.4158 Y-67.9163 F120.00
G01 X37.3382 Y-67.9047 F120.00
G01 X37.3284 Y-67.9037 F120.00
G01 X37.2475 Y-67.9000 F120.00
G01 X37.1667 Y-67.9041 F120.00
G01 X37.0842 Y-67.9163 F120.00
G01 X37.0033 Y-67.9366 F120.00
G01 X36.9246 Y-67.9648 F120.00
G01 X36.8493 Y-68.0004 F120.00
G01 X36.7778 Y-68.0433 F120.00
G01 X36.7108 Y-68.0929 F120.00
G01 X36.6490 Y-68.1490 F120.00
G01 X36.5929 Y-68.2108 F120.00
G01 X36.5433 Y-68.2778 F120.00
G01 X36.5004 Y-68.3493 F120.00
G01 X36.4647 Y-68.4247 F120.00
G01 X36.4366 Y-68.5033 F120.00
G01 X36.4163 Y-68.5842 F120.00
G01 X36.4041 Y-68.6667 F120.00
G01 X36.4001 Y-68.7451 F120.00
G01 X36.4000 Y-68.7525 F120.00
G00 Z0.2500
G00 X37.9909 Y-67.8111
G01 F60.00
G01 Z0.0000
G01 F120.00
G01 X37.9959 Y-67.8225 F120.00
G01 X38.0311 Y-67.8870 F120.00
G01 X38.0361 Y-67.8951 F120.00
G01 X38.0418 Y-67.9028 F120.00
G01 X38.0482 Y-67.9098 F120.00
G01 X38.1409 Y-68.0025 F120.00
G01 X38.1707 Y-68.0451 F120.00
G01 X38.1767 Y-68.0528 F120.00
G01 X38.1833 Y-68.0599 F120.00
G01 X38.2202 Y-68.0952 F120.00
G01 X38.2276 Y-68.1014 F120.00
G01 X38.2375 Y-68.1080 F120.00
G01 X38.2461 Y-68.1124 F120.00
G01 X38.2550 Y-68.1160 F120.00
G01 X38.3300 Y-68.1381 F120.00
G01 X38.3393 Y-68.1401 F120.00
G01 X38.3487 Y-68.1412 F120.00
G01 X38.3558 Y-68.1415 F120.00
G01 X44.2254 Y-68.1415 F120.00
G01 X44.2384 Y-68.1411 F120.00
G01 X44.2885 Y-68.1382 F120.00
G01 X44.3485 Y-68.1491 F120.00
G01 X44.4030 Y-68.1564 F120.00
G01 X44.4328 Y-68.1649 F120.00
G01 X44.4829 Y-68.1874 F120.00
G01 X44.5402 Y-68.2100 F120.00
G01 X44.5671 Y-68.2253 F120.00
G01 X44.6104 Y-68.2592 F120.00
G01 X44.6602 Y-68.2945 F120.00
G01 X44.6902 Y-68.3290 F120.00
G01 X44.7007 Y-68.3402 F120.00
G01 X52.7149 Y-76.3542 F120.00
G01 X52.7227 Y-76.3605 F120.00
G01 X52.7571 Y-76.3858 F120.00
G01 X52.7676 Y-76.3918 F120.00
G01 X52.7765 Y-76.3958 F120.00
G01 X52.7857 Y-76.3988 F120.00
G01 X52.7928 Y-76.4005 F120.00
G01 X52.8624 Y-76.4145 F120.00
G01 X52.8718 Y-76.4159 F120.00
G01 X52.8813 Y-76.4164 F120.00
G01 X52.8908 Y-76.4161 F120.00
G01 X53.1100 Y-76.3969 F120.00
G01 X53.3207 Y-76.4153 F120.00
G01 X53.5249 Y-76.4700 F120.00
G01 X53.7166 Y-76.5594 F120.00
G01 X53.8898 Y-76.6807 F120.00
G01 X54.0393 Y-76.8302 F120.00
G01 X54.1606 Y-77.0034 F120.00
G01 X54.1763 Y-77.0370 F120.00
G01 X54.1799 Y-77.0436 F120.00
G01 X54.1840 Y-77.0500 F120.00
G01 X54.1902 Y-77.0579 F120.00
G01 X54.2355 Y-77.1101 F120.00
G01 X54.2422 Y-77.1172 F120.00
G01 X54.2497 Y-77.1236 F120.00
G01 X54.2577 Y-77.1292 F120.00
G01 X54.2662 Y-77.1340 F120.00
G01 X54.2729 Y-77.1371 F120.00
G01 X54.2821 Y-77.1404 F120.00
G01 X54.3549 Y-77.1622 F120.00
G01 X54.3671 Y-77.1645 F120.00
G01 X54.3794 Y-77.1652 F120.00
G01 X54.3918 Y-77.1644 F120.00
G01 X54.4040 Y-77.1620 F120.00
G01 X54.4747 Y-77.1419 F120.00
G01 X54.4818 Y-77.1396 F120.00
G01 X54.4909 Y-77.1357 F120.00
G01 X54.4996 Y-77.1309 F120.00
G01 X54.5078 Y-77.1253 F120.00
G01 X54.5136 Y-77.1206 F120.00
G01 X54.5223 Y-77.1118 F120.00
G01 X54.5692 Y-77.0585 F120.00
G01 X54.5752 Y-77.0511 F120.00
G01 X54.5792 Y-77.0452 F120.00
G01 X54.5838 Y-77.0369 F120.00
G01 X54.5994 Y-77.0034 F120.00
G01 X54.7207 Y-76.8302 F120.00
G01 X54.8702 Y-76.6807 F120.00
G01 X55.0434 Y-76.5594 F120.00
G01 X55.2351 Y-76.4700 F120.00
G01 X55.4393 Y-76.4153 F120.00
G01 X55.6500 Y-76.3969 F120.00
G01 X55.8607 Y-76.4153 F120.00
G01 X56.0649 Y-76.4700 F120.00
G01 X56.2566 Y-76.5594 F120.00
G01 X56.4298 Y-76.6807 F120.00
G01 X56.5793 Y-76.8302 F120.00
G01 X56.7006 Y-77.0034 F120.00
G01 X56.7163 Y-77.0370 F120.00
G01 X56.7199 Y-77.0436 F120.00
G01 X56.7240 Y-77.0500 F120.00
G01 X56.7302 Y-77.0579 F120.00
G01 X56.7755 Y-77.1101 F120.00
G01 X56.7822 Y-77.1172 F120.00
G01 X56.7897 Y-77.1236 F120.00
G01 X56.7977 Y-77.1292 F120.00
G01 X56.8062 Y-77.1340 F120.00
G01 X56.8152 Y-77.1380 F120.00
G01 X56.8901 Y-77.1609 F120.00
G01 X56.8997 Y-77.1633 F120.00
G01 X56.9120 Y-77.1650 F120.00
G01 X56.9244 Y-77.1651 F120.00
G01 X56.9343 Y-77.1640 F120.00
G01 X56.9464 Y-77.1614 F120.00
G01 X57.0147 Y-77.1419 F120.00
G01 X57.0218 Y-77.1396 F120.00
G01 X57.0309 Y-77.1357 F120.00
G01 X57.0396 Y-77.1309 F120.00
G01 X57.0478 Y-77.1253 F120.00
G01 X57.0536 Y-77.1206 F120.00
G01 X57.0623 Y-77.1118 F120.00
G01 X57.1092 Y-77.0585 F120.00
G01 X57.1152 Y-77.0511 F120.00
G01 X57.1192 Y-77.0452 F120.00
G01 X57.1238 Y-77.0369 F120.00
G01 X57.1394 Y-77.0034 F120.00
G01 X57.2607 Y-76.8302 F120.00
G01 X57.4102 Y-76.6807 F120.00
G01 X57.5834 Y-76.5594 F120.00
G01 X57.7751 Y-76.4700 F120.00
G01 X57.9793 Y-76.4153 F120.00
G01 X58.1900 Y-76.3969 F120.00
G01 X58.4007 Y-76.4153 F120.00
G01 X58.6049 Y-76.4700 F120.00
G01 X58.7966 Y-76.5594 F120.00
G01 X58.9698 Y-76.6807 F120.00
G01 X59.1193 Y-76.8302 F120.00
G01 X59.2406 Y-77.0034 F120.00
G01 X59.2563 Y-77.0370 F120.00
G01 X59.2599 Y-77.0436 F120.00
G01 X59.2640 Y-77.0500 F120.00
G01 X59.2702 Y-77.0579 F120.00
G01 X59.3171 Y-77.1120 F120.00
G01 X59.3240 Y-77.1189 F120.00
G01 X59.3316 Y-77.1251 F120.00
G01 X59.3377 Y-77.1292 F120.00
G01 X59.3462 Y-77.1340 F120.00
G01 X59.3529 Y-77.1371 F120.00
G01 X59.3598 Y-77.1396 F120.00
G01 X59.4325 Y-77.1616 F120.00
G01 X59.4446 Y-77.1642 F120.00
G01 X59.4545 Y-77.1651 F120.00
G01 X59.4619 Y-77.1652 F120.00
G01 X59.4694 Y-77.1647 F120.00
G01 X59.4767 Y-77.1636 F120.00
G01 X59.4840 Y-77.1620 F120.00
G01 X59.5547 Y-77.1419 F120.00
G01 X59.5618 Y-77.1396 F120.00
G01 X59.5687 Y-77.1368 F120.00
G01 X59.5775 Y-77.1322 F120.00
G01 X59.5838 Y-77.1282 F120.00
G01 X59.5917 Y-77.1222 F120.00
G01 X59.5972 Y-77.1172 F120.00
G01 X59.6023 Y-77.1118 F120.00
G01 X59.6538 Y-77.0530 F120.00
G01 X59.6592 Y-77.0452 F120.00
G01 X59.6627 Y-77.0390 F120.00
G01 X59.6794 Y-77.0034 F120.00
G01 X59.8007 Y-76.8302 F120.00
G01 X59.8983 Y-76.7326 F120.00
G01 X59.9034 Y-76.7268 F120.00
G01 X59.9240 Y-76.7010 F120.00
G01 X59.9304 Y-76.6906 F120.00
G01 X59.9335 Y-76.6841 F120.00
G01 X59.9362 Y-76.6773 F120.00
G01 X59.9584 Y-76.6048 F120.00
G01 X59.9603 Y-76.5976 F120.00
G01 X59.9620 Y-76.5878 F120.00
G01 X59.9627 Y-76.5779 F120.00
G01 X59.9625 Y-76.5704 F120.00
G01 X59.9615 Y-76.5606 F120.00
G01 X59.9595 Y-76.5508 F120.00
G01 X59.9380 Y-76.4754 F120.00
G01 X59.9344 Y-76.4662 F120.00
G01 X59.9285 Y-76.4552 F120.00
G01 X59.9229 Y-76.4470 F120.00
G01 X59.9166 Y-76.4394 F120.00
G01 X59.9094 Y-76.4325 F120.00
G01 X59.8849 Y-76.4108 F120.00
G01 X59.8803 Y-76.4046 F120.00
G01 X59.8738 Y-76.3973 F120.00
G01 X59.8685 Y-76.3922 F120.00
G01 X59.8609 Y-76.3861 F120.00
G01 X59.8547 Y-76.3820 F120.00
G01 X59.7141 Y-76.2953 F120.00
G01 X59.6054 Y-76.1868 F120.00
G01 X59.5246 Y-76.0562 F120.00
G01 X59.4758 Y-75.9099 F120.00
G01 X59.4665 Y-75.8202 F120.00
G01 X59.4665 Y-75.1047 F120.00
G01 X59.4756 Y-75.0162 F120.00
G01 X59.5241 Y-74.8698 F120.00
G01 X59.6047 Y-74.7391 F120.00
G01 X59.7132 Y-74.6304 F120.00
G01 X59.8438 Y-74.5496 F120.00
G01 X59.9901 Y-74.5008 F120.00
G01 X60.0798 Y-74.4915 F120.00
G01 X61.4203 Y-74.4915 F120.00
G01 X61.5088 Y-74.5006 F120.00
G01 X61.6552 Y-74.5491 F120.00
G01 X61.7859 Y-74.6297 F120.00
G01 X61.8503 Y-74.6940 F120.00
G01 X61.8574 Y-74.7004 F120.00
G01 X61.8670 Y-74.7074 F120.00
G01 X61.9121 Y-74.7364 F120.00
G01 X61.9230 Y-74.7424 F120.00
G01 X61.9299 Y-74.7454 F120.00
G01 X61.9370 Y-74.7479 F120.00
G01 X61.9442 Y-74.7498 F120.00
G01 X61.9541 Y-74.7515 F120.00
G01 X62.0348 Y-74.7572 F120.00
G01 X62.0447 Y-74.7569 F120.00
G01 X62.0546 Y-74.7556 F120.00
G01 X62.0643 Y-74.7534 F120.00
G01 X62.0760 Y-74.7492 F120.00
G01 X62.0849 Y-74.7449 F120.00
G01 X62.1533 Y-74.7072 F120.00
G01 X62.1611 Y-74.7017 F120.00
G01 X62.1683 Y-74.6954 F120.00
G01 X62.2332 Y-74.6304 F120.00
G01 X62.3638 Y-74.5496 F120.00
G01 X62.5101 Y-74.5008 F120.00
G01 X62.5998 Y-74.4915 F120.00
G01 X63.9403 Y-74.4915 F120.00
G01 X64.0288 Y-74.5006 F120.00
G01 X64.1752 Y-74.5491 F120.00
G01 X64.3059 Y-74.6297 F120.00
G01 X64.3804 Y-74.7040 F120.00
G01 X64.3874 Y-74.7104 F120.00
G01 X64.3970 Y-74.7174 F120.00
G01 X64.4421 Y-74.7464 F120.00
G01 X64.4508 Y-74.7513 F120.00
G01 X64.4576 Y-74.7545 F120.00
G01 X64.4646 Y-74.7571 F120.00
G01 X64.4718 Y-74.7592 F120.00
G01 X64.4816 Y-74.7611 F120.00
G01 X64.4891 Y-74.7619 F120.00
G01 X64.5648 Y-74.7672 F120.00
G01 X64.5772 Y-74.7667 F120.00
G01 X64.5871 Y-74.7651 F120.00
G01 X64.5967 Y-74.7627 F120.00
G01 X64.6060 Y-74.7592 F120.00
G01 X64.6149 Y-74.7549 F120.00
G01 X64.6833 Y-74.7172 F120.00
G01 X64.6911 Y-74.7117 F120.00
G01 X64.6983 Y-74.7054 F120.00
G01 X64.7732 Y-74.6304 F120.00
G01 X64.9038 Y-74.5496 F120.00
G01 X65.0501 Y-74.5008 F120.00
G01 X65.1398 Y-74.4915 F120.00
G01 X66.4803 Y-74.4915 F120.00
G01 X66.5688 Y-74.5006 F120.00
G01 X66.7152 Y-74.5491 F120.00
G01 X66.8459 Y-74.6297 F120.00
G01 X66.9546 Y-74.7382 F120.00
G01 X67.0354 Y-74.8688 F120.00
G01 X67.0842 Y-75.0151 F120.00
G01 X67.0935 Y-75.1048 F120.00
G01 X67.0935 Y-75.8203 F120.00
G01 X67.0844 Y-75.9088 F120.00
G01 X67.0359 Y-76.0552 F120.00
G01 X66.9553 Y-76.1859 F120.00
G01 X66.8468 Y-76.2946 F120.00
G01 X66.7151 Y-76.3761 F120.00
G01 X66.7047 Y-76.3812 F120.00
G01 X66.6807 Y-76.3956 F120.00
G01 X66.6727 Y-76.4012 F120.00
G01 X66.6672 Y-76.4059 F120.00
G01 X66.6619 Y-76.4110 F120.00
G01 X66.6571 Y-76.4164 F120.00
G01 X66.6087 Y-76.4811 F120.00
G01 X66.6024 Y-76.4918 F120.00
G01 X66.5993 Y-76.4985 F120.00
G01 X66.5967 Y-76.5055 F120.00
G01 X66.5935 Y-76.5175 F120.00
G01 X66.5919 Y-76.5298 F120.00
G01 X66.5867 Y-76.6031 F120.00
G01 X66.5867 Y-76.6130 F120.00
G01 X66.5874 Y-76.6205 F120.00
G01 X66.5891 Y-76.6302 F120.00
G01 X66.5911 Y-76.6374 F120.00
G01 X66.5935 Y-76.6445 F120.00
G01 X66.5965 Y-76.6513 F120.00
G01 X66.6328 Y-76.7180 F120.00
G01 X66.6391 Y-76.7281 F120.00
G01 X66.6435 Y-76.7338 F120.00
G01 X66.6499 Y-76.7408 F120.00
G01 X66.7393 Y-76.8302 F120.00
G01 X66.8606 Y-77.0034 F120.00
G01 X66.8763 Y-77.0370 F120.00
G01 X66.8799 Y-77.0436 F120.00
G01 X66.8840 Y-77.0500 F120.00
G01 X66.8902 Y-77.0579 F120.00
G01 X66.9355 Y-77.1101 F120.00
G01 X66.9440 Y-77.1189 F120.00
G01 X66.9516 Y-77.1251 F120.00
G01 X66.9619 Y-77.1317 F120.00
G01 X66.9729 Y-77.1371 F120.00
G01 X66.9821 Y-77.1404 F120.00
G01 X67.0501 Y-77.1609 F120.00
G01 X67.0597 Y-77.1633 F120.00
G01 X67.0671 Y-77.1645 F120.00
G01 X67.0770 Y-77.1652 F120.00
G01 X67.0844 Y-77.1651 F120.00
G01 X67.0918 Y-77.1644 F120.00
G01 X67.0992 Y-77.1631 F120.00
G01 X67.1064 Y-77.1614 F120.00
G01 X67.1771 Y-77.1412 F120.00
G01 X67.1864 Y-77.1378 F120.00
G01 X67.1975 Y-77.1322 F120.00
G01 X67.2058 Y-77.1268 F120.00
G01 X67.2136 Y-77.1206 F120.00
G01 X67.2223 Y-77.1118 F120.00
G01 X67.2692 Y-77.0585 F120.00
G01 X67.2752 Y-77.0511 F120.00
G01 X67.2804 Y-77.0431 F120.00
G01 X67.2838 Y-77.0369 F120.00
G01 X67.2994 Y-77.0034 F120.00
G01 X67.4207 Y-76.8302 F120.00
G01 X67.5702 Y-76.6807 F120.00
G01 X67.7434 Y-76.5594 F120.00
G01 X67.9351 Y-76.4700 F120.00
G01 X68.1393 Y-76.4153 F120.00
G01 X68.3500 Y-76.3969 F120.00
G01 X68.5607 Y-76.4153 F120.00
G01 X68.7649 Y-76.4700 F120.00
G01 X68.9566 Y-76.5594 F120.00
G01 X69.1298 Y-76.6807 F120.00
G01 X69.2793 Y-76.8302 F120.00
G01 X69.4006 Y-77.0034 F120.00
G01 X69.4163 Y-77.0370 F120.00
G01 X69.4199 Y-77.0436 F120.00
G01 X69.4240 Y-77.0500 F120.00
G01 X69.4302 Y-77.0579 F120.00
G01 X69.4755 Y-77.1101 F120.00
G01 X69.4840 Y-77.1189 F120.00
G01 X69.4936 Y-77.1265 F120.00
G01 X69.5019 Y-77.1317 F120.00
G01 X69.5106 Y-77.1361 F120.00
G01 X69.5198 Y-77.1396 F120.00
G01 X69.5949 Y-77.1622 F120.00
G01 X69.6071 Y-77.1645 F120.00
G01 X69.6194 Y-77.1652 F120.00
G01 X69.6318 Y-77.1644 F120.00
G01 X69.6440 Y-77.1620 F120.00
G01 X69.7194 Y-77.1404 F120.00
G01 X69.7287 Y-77.1368 F120.00
G01 X69.7396 Y-77.1309 F120.00
G01 X69.7478 Y-77.1253 F120.00
G01 X69.7554 Y-77.1189 F120.00
G01 X69.7623 Y-77.1118 F120.00
G01 X69.8092 Y-77.0585 F120.00
G01 X69.8152 Y-77.0511 F120.00
G01 X69.8192 Y-77.0452 F120.00
G01 X69.8238 Y-77.0369 F120.00
G01 X69.8394 Y-77.0034 F120.00
G01 X69.9607 Y-76.8302 F120.00
G01 X70.1102 Y-76.6807 F120.00
G01 X70.2834 Y-76.5594 F120.00
G01 X70.4751 Y-76.4700 F120.00
G01 X70.6793 Y-76.4153 F120.00
G01 X70.8900 Y-76.3969 F120.00
G01 X71.1007 Y-76.4153 F120.00
G01 X71.3049 Y-76.4700 F120.00
G01 X71.4966 Y-76.5594 F120.00
G01 X71.6698 Y-76.6807 F120.00
G01 X71.8193 Y-76.8302 F120.00
G01 X71.9406 Y-77.0034 F120.00
G01 X71.9563 Y-77.0370 F120.00
G01 X71.9599 Y-77.0436 F120.00
G01 X71.9640 Y-77.0500 F120.00
G01 X71.9702 Y-77.0579 F120.00
G01 X72.0155 Y-77.1101 F120.00
G01 X72.0240 Y-77.1189 F120.00
G01 X72.0316 Y-77.1251 F120.00
G01 X72.0419 Y-77.1317 F120.00
G01 X72.0529 Y-77.1371 F120.00
G01 X72.0621 Y-77.1404 F120.00
G01 X72.1301 Y-77.1609 F120.00
G01 X72.1373 Y-77.1628 F120.00
G01 X72.1471 Y-77.1645 F120.00
G01 X72.1545 Y-77.1651 F120.00
G01 X72.1644 Y-77.1651 F120.00
G01 X72.1718 Y-77.1644 F120.00
G01 X72.1792 Y-77.1631 F120.00
G01 X72.1864 Y-77.1614 F120.00
G01 X72.2547 Y-77.1419 F120.00
G01 X72.2618 Y-77.1396 F120.00
G01 X72.2709 Y-77.1357 F120.00
G01 X72.2796 Y-77.1309 F120.00
G01 X72.2878 Y-77.1253 F120.00
G01 X72.2954 Y-77.1189 F120.00
G01 X72.3023 Y-77.1118 F120.00
G01 X72.3492 Y-77.0585 F120.00
G01 X72.3552 Y-77.0511 F120.00
G01 X72.3592 Y-77.0452 F120.00
G01 X72.3638 Y-77.0369 F120.00
G01 X72.3794 Y-77.0034 F120.00
G01 X72.5007 Y-76.8302 F120.00
G01 X72.6502 Y-76.6807 F120.00
G01 X72.8234 Y-76.5594 F120.00
G01 X73.0151 Y-76.4700 F120.00
G01 X73.2193 Y-76.4153 F120.00
G01 X73.3760 Y-76.4016 F120.00
G01 X73.3885 Y-76.3997 F120.00
G01 X73.4006 Y-76.3963 F120.00
G01 X73.4698 Y-76.3698 F120.00
G01 X73.4808 Y-76.3645 F120.00
G01 X73.4911 Y-76.3579 F120.00
G01 X73.5005 Y-76.3500 F120.00
G01 X73.5056 Y-76.3448 F120.00
G01 X73.5104 Y-76.3392 F120.00
G01 X73.5544 Y-76.2804 F120.00
G01 X73.5587 Y-76.2743 F120.00
G01 X73.5624 Y-76.2679 F120.00
G01 X73.5667 Y-76.2589 F120.00
G01 X73.5700 Y-76.2496 F120.00
G01 X73.5719 Y-76.2424 F120.00
G01 X73.5733 Y-76.2350 F120.00
G01 X73.5741 Y-76.2276 F120.00
G01 X73.5793 Y-76.1543 F120.00
G01 X73.5794 Y-76.1469 F120.00
G01 X73.5789 Y-76.1395 F120.00
G01 X73.5779 Y-76.1321 F120.00
G01 X73.5763 Y-76.1248 F120.00
G01 X73.5733 Y-76.1153 F120.00
G01 X73.5684 Y-76.1040 F120.00
G01 X73.5332 Y-76.0394 F120.00
G01 X73.5295 Y-76.0333 F120.00
G01 X73.5255 Y-76.0274 F120.00
G01 X73.5210 Y-76.0219 F120.00
G01 X73.5161 Y-76.0167 F120.00
G01 X69.6482 Y-72.1487 F120.00
G01 X69.6402 Y-72.1416 F120.00
G01 X69.6154 Y-72.1217 F120.00
G01 X69.6071 Y-72.1163 F120.00
G01 X69.5984 Y-72.1118 F120.00
G01 X69.5917 Y-72.1089 F120.00
G01 X69.5847 Y-72.1066 F120.00
G01 X69.5120 Y-72.0854 F120.00
G01 X69.5003 Y-72.0832 F120.00
G01 X69.4884 Y-72.0825 F120.00
G01 X67.3109 Y-72.0826 F120.00
G01 X67.3029 Y-72.0831 F120.00
G01 X67.2712 Y-72.0866 F120.00
G01 X67.2616 Y-72.0886 F120.00
G01 X67.2522 Y-72.0916 F120.00
G01 X67.2410 Y-72.0965 F120.00
G01 X67.1765 Y-72.1317 F120.00
G01 X67.1681 Y-72.1369 F120.00
G01 X67.1621 Y-72.1413 F120.00
G01 X67.1564 Y-72.1461 F120.00
G01 X67.1495 Y-72.1533 F120.00
G01 X67.1448 Y-72.1590 F120.00
G01 X67.1405 Y-72.1651 F120.00
G01 X67.1301 Y-72.1835 F120.00
G01 X66.7824 Y-72.1835 F120.00
G01 X66.7783 Y-72.1567 F120.00
G01 X66.7699 Y-72.1234 F120.00
G01 X66.7583 Y-72.0909 F120.00
G01 X66.7459 Y-72.0644 F120.00
G01 X66.7413 Y-72.0557 F120.00
G01 X66.7246 Y-72.0285 F120.00
G01 X66.7056 Y-72.0030 F120.00
G01 X66.6859 Y-71.9811 F120.00
G01 X66.6789 Y-71.9741 F120.00
G01 X66.6589 Y-71.9560 F120.00
G01 X66.6532 Y-71.9514 F120.00
G01 X66.6294 Y-71.9340 F120.00
G01 X66.6000 Y-71.9163 F120.00
G01 X66.5734 Y-71.9036 F120.00
G01 X66.5644 Y-71.8999 F120.00
G01 X66.5366 Y-71.8901 F120.00
G01 X66.5033 Y-71.8817 F120.00
G01 X66.4693 Y-71.8767 F120.00
G01 X66.4350 Y-71.8750 F120.00
G01 X65.1825 Y-71.8750 F120.00
G01 X65.1507 Y-71.8767 F120.00
G01 X65.1167 Y-71.8817 F120.00
G01 X65.0834 Y-71.8901 F120.00
G01 X65.0556 Y-71.8999 F120.00
G01 X65.0488 Y-71.9026 F120.00
G01 X65.0244 Y-71.9141 F120.00
G01 X65.0157 Y-71.9187 F120.00
G01 X64.9885 Y-71.9354 F120.00
G01 X64.9668 Y-71.9514 F120.00
G01 X64.9592 Y-71.9577 F120.00
G01 X64.9375 Y-71.9775 F120.00
G01 X64.9144 Y-72.0030 F120.00
G01 X64.8940 Y-72.0306 F120.00
G01 X64.8763 Y-72.0600 F120.00
G01 X64.8616 Y-72.0911 F120.00
G01 X64.8501 Y-72.1234 F120.00
G01 X64.8417 Y-72.1567 F120.00
G01 X64.8376 Y-72.1835 F120.00
G01 X64.2424 Y-72.1835 F120.00
G01 X64.2383 Y-72.1567 F120.00
G01 X64.2299 Y-72.1234 F120.00
G01 X64.2184 Y-72.0911 F120.00
G01 X64.2059 Y-72.0644 F120.00
G01 X64.2013 Y-72.0557 F120.00
G01 X64.1846 Y-72.0285 F120.00
G01 X64.1656 Y-72.0030 F120.00
G01 X64.1459 Y-71.9811 F120.00
G01 X64.1389 Y-71.9741 F120.00
G01 X64.1189 Y-71.9560 F120.00
G01 X64.1132 Y-71.9514 F120.00
G01 X64.0894 Y-71.9340 F120.00
G01 X64.0600 Y-71.9163 F120.00
G01 X64.0334 Y-71.9036 F120.00
G01 X64.0244 Y-71.8999 F120.00
G01 X63.9966 Y-71.8901 F120.00
G01 X63.9633 Y-71.8817 F120.00
G01 X63.9293 Y-71.8767 F120.00
G01 X63.8950 Y-71.8750 F120.00
G01 X62.6425 Y-71.8750 F120.00
G01 X62.6107 Y-71.8767 F120.00
G01 X62.5767 Y-71.8817 F120.00
G01 X62.5434 Y-71.8901 F120.00
G01 X62.5156 Y-71.8999 F120.00
G01 X62.5088 Y-71.9026 F120.00
G01 X62.4844 Y-71.9141 F120.00
G01 X62.4757 Y-71.9187 F120.00
G01 X62.4485 Y-71.9354 F120.00
G01 X62.4268 Y-71.9514 F120.00
G01 X62.4192 Y-71.9577 F120.00
G01 X62.3975 Y-71.9775 F120.00
G01 X62.3744 Y-72.0030 F120.00
G01 X62.3540 Y-72.0306 F120.00
G01 X62.3363 Y-72.0600 F120.00
G01 X62.3216 Y-72.0911 F120.00
G01 X62.3101 Y-72.1234 F120.00
G01 X62.3017 Y-72.1567 F120.00
G01 X62.2976 Y-72.1835 F120.00
G01 X61.7224 Y-72.1835 F120.00
G01 X61.7183 Y-72.1567 F120.00
G01 X61.7099 Y-72.1234 F120.00
G01 X61.6984 Y-72.0911 F120.00
G01 X61.6859 Y-72.0644 F120.00
G01 X61.6813 Y-72.0557 F120.00
G01 X61.6646 Y-72.0285 F120.00
G01 X61.6456 Y-72.0030 F120.00
G01 X61.6259 Y-71.9811 F120.00
G01 X61.6189 Y-71.9741 F120.00
G01 X61.5989 Y-71.9560 F120.00
G01 X61.5932 Y-71.9514 F120.00
G01 X61.5694 Y-71.9340 F120.00
G01 X61.5400 Y-71.9163 F120.00
G01 X61.5134 Y-71.9036 F120.00
G01 X61.5044 Y-71.8999 F120.00
G01 X61.4766 Y-71.8901 F120.00
G01 X61.4433 Y-71.8817 F120.00
G01 X61.4093 Y-71.8767 F120.00
G01 X61.3750 Y-71.8750 F120.00
G01 X60.1250 Y-71.8750 F120.00
G01 X60.0907 Y-71.8767 F120.00
G01 X60.0567 Y-71.8817 F120.00
G01 X60.0234 Y-71.8901 F120.00
G01 X59.9956 Y-71.8999 F120.00
G01 X59.9888 Y-71.9026 F120.00
G01 X59.9644 Y-71.9141 F120.00
G01 X59.9557 Y-71.9187 F120.00
G01 X59.9285 Y-71.9354 F120.00
G01 X59.9068 Y-71.9514 F120.00
G01 X59.8992 Y-71.9577 F120.00
G01 X59.8775 Y-71.9775 F120.00
G01 X59.8544 Y-72.0030 F120.00
G01 X59.8340 Y-72.0306 F120.00
G01 X59.8163 Y-72.0600 F120.00
G01 X59.8016 Y-72.0911 F120.00
G01 X59.7901 Y-72.1234 F120.00
G01 X59.7817 Y-72.1567 F120.00
G01 X59.7776 Y-72.1835 F120.00
G01 X59.4323 Y-72.1835 F120.00
G01 X59.3870 Y-72.1316 F120.00
G01 X59.3815 Y-72.1266 F120.00
G01 X59.3757 Y-72.1219 F120.00
G01 X59.3652 Y-72.1152 F120.00
G01 X59.3563 Y-72.1108 F120.00
G01 X59.3470 Y-72.1073 F120.00
G01 X59.2742 Y-72.0859 F120.00
G01 X59.2673 Y-72.0843 F120.00
G01 X59.2602 Y-72.0832 F120.00
G01 X59.2484 Y-72.0825 F120.00
G01 X49.8301 Y-72.0825 F120.00
G01 X49.8171 Y-72.0829 F120.00
G01 X49.7670 Y-72.0858 F120.00
G01 X49.7070 Y-72.0749 F120.00
G01 X49.6525 Y-72.0677 F120.00
G01 X49.6227 Y-72.0592 F120.00
G01 X49.5726 Y-72.0366 F120.00
G01 X49.5153 Y-72.0141 F120.00
G01 X49.4884 Y-71.9987 F120.00
G01 X49.4451 Y-71.9648 F120.00
G01 X49.3953 Y-71.9296 F120.00
G01 X49.3652 Y-71.8951 F120.00
G01 X49.3547 Y-71.8839 F120.00
G01 X44.8956 Y-67.4247 F120.00
G01 X44.8876 Y-67.4175 F120.00
G01 X44.8608 Y-67.3962 F120.00
G01 X44.8503 Y-67.3899 F120.00
G01 X44.8391 Y-67.3849 F120.00
G01 X44.7617 Y-67.3619 F120.00
G01 X44.7547 Y-67.3603 F120.00
G01 X44.7477 Y-67.3592 F120.00
G01 X44.7358 Y-67.3585 F120.00
G01 X38.3558 Y-67.3585 F120.00
G01 X38.3486 Y-67.3588 F120.00
G01 X38.3365 Y-67.3604 F120.00
G01 X38.2888 Y-67.3698 F120.00
G01 X38.2795 Y-67.3721 F120.00
G01 X38.2704 Y-67.3753 F120.00
G01 X38.2617 Y-67.3793 F120.00
G01 X38.2554 Y-67.3829 F120.00
G01 X38.2475 Y-67.3883 F120.00
G01 X38.1902 Y-67.4341 F120.00
G01 X38.1814 Y-67.4421 F120.00
G01 X38.1765 Y-67.4473 F120.00
G01 X38.1721 Y-67.4529 F120.00
G01 X38.1409 Y-67.4975 F120.00
G01 X38.0482 Y-67.5902 F120.00
G01 X38.0403 Y-67.5991 F120.00
G01 X38.0348 Y-67.6068 F120.00
G01 X38.0032 Y-67.6562 F120.00
G01 X37.9997 Y-67.6628 F120.00
G01 X37.9967 Y-67.6697 F120.00
G01 X37.9943 Y-67.6768 F120.00
G01 X37.9924 Y-67.6840 F120.00
G01 X37.9910 Y-67.6914 F120.00
G01 X37.9902 Y-67.6988 F120.00
G01 X37.9849 Y-67.7746 F120.00
G01 X37.9852 Y-67.7845 F120.00
G01 X37.9864 Y-67.7944 F120.00
G01 X37.9886 Y-67.8041 F120.00
G01 X37.9909 Y-67.8111 F120.00
G00 Z0.2500
G00 X36.4000 Y-66.7500
G01 F60.00
G01 Z0.0000
G01 F120.00
G01 X36.4041 Y-66.8333 F120.00
G01 X36.4163 Y-66.9158 F120.00
G01 X36.4366 Y-66.9967 F120.00
G01 X36.4647 Y-67.0753 F120.00
G01 X36.5004 Y-67.1507 F120.00
G01 X36.5433 Y-67.2222 F120.00
G01 X36.5929 Y-67.2892 F120.00
G01 X36.6490 Y-67.3510 F120.00
G01 X36.7108 Y-67.4071 F120.00
G01 X36.7778 Y-67.4567 F120.00
G01 X36.8493 Y-67.4996 F120.00
G01 X36.9247 Y-67.5353 F120.00
G01 X37.0033 Y-67.5634 F120.00
G01 X37.0842 Y-67.5837 F120.00
G01 X37.1667 Y-67.5959 F120.00
G01 X37.2475 Y-67.6000 F120.00
G01 X37.3284 Y-67.5963 F120.00
G01 X37.3382 Y-67.5953 F120.00
G01 X37.4158 Y-67.5837 F120.00
G01 X37.4967 Y-67.5634 F120.00
G01 X37.5754 Y-67.5352 F120.00
G01 X37.6463 Y-67.5018 F120.00
G01 X37.6550 Y-67.4972 F120.00
G01 X37.7243 Y-67.4554 F120.00
G01 X37.7892 Y-67.4071 F120.00
G01 X37.8475 Y-67.3544 F120.00
G01 X37.8544 Y-67.3475 F120.00
G01 X37.9086 Y-67.2873 F120.00
G01 X37.9567 Y-67.2222 F120.00
G01 X37.9984 Y-67.1528 F120.00
G01 X38.0343 Y-67.0775 F120.00
G01 X38.0444 Y-67.0501 F120.00
G01 X44.9571 Y-67.0501 F120.00
G01 X49.5933 Y-71.6862 F120.00
G01 X49.6151 Y-71.7060 F120.00
G01 X49.6347 Y-71.7207 F120.00
G01 X49.6429 Y-71.7262 F120.00
G01 X49.6640 Y-71.7387 F120.00
G01 X49.6906 Y-71.7513 F120.00
G01 X49.7137 Y-71.7597 F120.00
G01 X49.7207 Y-71.7619 F120.00
G01 X49.7421 Y-71.7673 F120.00
G01 X49.7518 Y-71.7692 F120.00
G01 X49.7761 Y-71.7727 F120.00
G01 X49.8055 Y-71.7741 F120.00
G01 X69.7097 Y-71.7741 F120.00
G01 X75.1585 Y-77.2229 F120.00
G01 X75.1376 Y-77.2679 F120.00
G01 X75.1103 Y-77.3441 F120.00
G01 X75.1081 Y-77.3511 F120.00
G01 X75.0873 Y-77.4344 F120.00
G01 X75.0746 Y-77.5193 F120.00
G01 X75.0701 Y-77.6051 F120.00
G01 X75.0701 Y-77.6149 F120.00
G01 X75.0743 Y-77.6982 F120.00
G01 X75.0865 Y-77.7807 F120.00
G01 X75.0878 Y-77.7880 F120.00
G01 X75.1088 Y-77.8713 F120.00
G01 X75.1367 Y-77.9498 F120.00
G01 X75.1405 Y-77.9589 F120.00
G01 X75.1741 Y-78.0299 F120.00
G01 X75.1787 Y-78.0385 F120.00
G01 X75.2217 Y-78.1100 F120.00
G01 X75.2743 Y-78.1810 F120.00
G01 X75.3336 Y-78.2464 F120.00
G01 X75.3972 Y-78.3041 F120.00
G01 X75.4029 Y-78.3087 F120.00
G01 X75.4700 Y-78.3583 F120.00
G01 X75.5415 Y-78.4013 F120.00
G01 X75.5501 Y-78.4059 F120.00
G01 X75.6256 Y-78.4415 F120.00
G01 X75.7041 Y-78.4697 F120.00
G01 X75.7135 Y-78.4726 F120.00
G01 X75.7944 Y-78.4927 F120.00
G01 X75.8818 Y-78.5057 F120.00
G01 X75.9651 Y-78.5099 F120.00
G01 X75.9749 Y-78.5099 F120.00
G01 X76.0582 Y-78.5057 F120.00
G01 X76.1407 Y-78.4935 F120.00
G01 X76.1504 Y-78.4916 F120.00
G01 X76.2313 Y-78.4712 F120.00
G01 X76.3144 Y-78.4415 F120.00
G01 X76.3899 Y-78.4059 F120.00
G01 X76.3985 Y-78.4013 F120.00
G01 X76.4700 Y-78.3583 F120.00
G01 X76.5371 Y-78.3087 F120.00
G01 X76.5447 Y-78.3025 F120.00
G01 X76.6064 Y-78.2464 F120.00
G01 X76.6625 Y-78.1847 F120.00
G01 X76.6687 Y-78.1771 F120.00
G01 X76.7183 Y-78.1100 F120.00
G01 X76.7613 Y-78.0385 F120.00
G01 X76.7659 Y-78.0299 F120.00
G01 X76.8015 Y-77.9544 F120.00
G01 X76.8297 Y-77.8759 F120.00
G01 X76.8319 Y-77.8689 F120.00
G01 X76.8527 Y-77.7856 F120.00
G01 X76.8651 Y-77.7031 F120.00
G01 X76.8660 Y-77.6933 F120.00
G01 X76.8700 Y-77.6100 F120.00
G01 X76.8660 Y-77.5267 F120.00
G01 X76.8651 Y-77.5169 F120.00
G01 X76.8527 Y-77.4344 F120.00
G01 X76.8326 Y-77.3535 F120.00
G01 X76.8297 Y-77.3441 F120.00
G01 X76.8015 Y-77.2656 F120.00
G01 X76.7659 Y-77.1901 F120.00
G01 X76.7613 Y-77.1815 F120.00
G01 X76.7183 Y-77.1100 F120.00
G01 X76.6687 Y-77.0429 F120.00
G01 X76.6625 Y-77.0353 F120.00
G01 X76.6046 Y-76.9719 F120.00
G01 X76.5410 Y-76.9143 F120.00
G01 X76.4740 Y-76.8645 F120.00
G01 X76.4659 Y-76.8591 F120.00
G01 X76.3943 Y-76.8163 F120.00
G01 X76.3144 Y-76.7785 F120.00
G01 X76.2359 Y-76.7503 F120.00
G01 X76.2265 Y-76.7474 F120.00
G01 X76.1432 Y-76.7268 F120.00
G01 X76.0582 Y-76.7143 F120.00
G01 X75.9749 Y-76.7101 F120.00
G01 X75.9651 Y-76.7101 F120.00
G01 X75.8793 Y-76.7146 F120.00
G01 X75.7944 Y-76.7273 F120.00
G01 X75.7111 Y-76.7481 F120.00
G01 X75.7041 Y-76.7503 F120.00
G01 X75.6279 Y-76.7776 F120.00
G01 X75.5829 Y-76.7985 F120.00
G01 X70.0462 Y-71.2618 F120.00
G01 X70.0281 Y-71.2453 F120.00
G01 X70.0206 Y-71.2390 F120.00
G01 X70.0008 Y-71.2245 F120.00
G01 X69.9798 Y-71.2118 F120.00
G01 X69.9711 Y-71.2072 F120.00
G01 X69.9489 Y-71.1968 F120.00
G01 X69.9188 Y-71.1862 F120.00
G01 X69.8926 Y-71.1797 F120.00
G01 X69.8683 Y-71.1760 F120.00
G01 X69.8586 Y-71.1750 F120.00
G01 X69.8340 Y-71.1739 F120.00
G01 X49.9298 Y-71.1739 F120.00
G01 X45.2936 Y-66.5378 F120.00
G01 X45.2718 Y-66.5180 F120.00
G01 X45.2522 Y-66.5033 F120.00
G01 X45.2440 Y-66.4979 F120.00
G01 X45.2229 Y-66.4853 F120.00
G01 X45.2008 Y-66.4747 F120.00
G01 X45.1940 Y-66.4718 F120.00
G01 X45.1709 Y-66.4636 F120.00
G01 X45.1448 Y-66.4567 F120.00
G01 X45.1352 Y-66.4548 F120.00
G01 X45.1109 Y-66.4513 F120.00
G01 X45.0814 Y-66.4499 F120.00
G01 X38.0444 Y-66.4499 F120.00
G01 X38.0343 Y-66.4225 F120.00
G01 X37.9984 Y-66.3472 F120.00
G01 X37.9567 Y-66.2778 F120.00
G01 X37.9086 Y-66.2127 F120.00
G01 X37.8544 Y-66.1525 F120.00
G01 X37.8475 Y-66.1456 F120.00
G01 X37.7892 Y-66.0929 F120.00
G01 X37.7243 Y-66.0446 F120.00
G01 X37.6550 Y-66.0028 F120.00
G01 X37.6463 Y-65.9982 F120.00
G01 X37.5753 Y-65.9647 F120.00
G01 X37.4967 Y-65.9366 F120.00
G01 X37.4158 Y-65.9163 F120.00
G01 X37.3382 Y-65.9047 F120.00
G01 X37.3284 Y-65.9037 F120.00
G01 X37.2475 Y-65.9000 F120.00
G01 X37.1667 Y-65.9041 F120.00
G01 X37.0842 Y-65.9163 F120.00
G01 X37.0033 Y-65.9366 F120.00
G01 X36.9246 Y-65.9648 F120.00
G01 X36.8493 Y-66.0004 F120.00
G01 X36.7778 Y-66.0433 F120.00
G01 X36.7108 Y-66.0929 F120.00
G01 X36.6490 Y-66.1490 F120.00
G01 X36.5929 Y-66.2108 F120.00
G01 X36.5433 Y-66.2778 F120.00
G01 X36.5004 Y-66.3493 F120.00
G01 X36.4647 Y-66.4247 F120.00
G01 X36.4366 Y-66.5033 F120.00
G01 X36.4163 Y-66.5842 F120.00
G01 X36.4041 Y-66.6667 F120.00
G01 X36.4000 Y-66.7500 F120.00
G00 Z0.2500
G00 X36.4000 Y-64.7500
G01 F60.00
G01 Z0.0000
G01 F120.00
G01 X36.4041 Y-64.8333 F120.00
G01 X36.4163 Y-64.9158 F120.00
G01 X36.4366 Y-64.9967 F120.00
G01 X36.4647 Y-65.0753 F120.00
G01 X36.5004 Y-65.1507 F120.00
G01 X36.5433 Y-65.2222 F120.00
G01 X36.5929 Y-65.2892 F120.00
G01 X36.6490 Y-65.3510 F120.00
G01 X36.7108 Y-65.4071 F120.00
G01 X36.7778 Y-65.4567 F120.00
G01 X36.8493 Y-65.4996 F120.00
G01 X36.9247 Y-65.5353 F120.00
G01 X37.0033 Y-65.5634 F120.00
G01 X37.0842 Y-65.5837 F120.00
G01 X37.1667 Y-65.5959 F120.00
G01 X37.2451 Y-65.5999 F120.00
G01 X37.2549 Y-65.5999 F120.00
G01 X37.3284 Y-65.5963 F120.00
G01 X37.3382 Y-65.5953 F120.00
G01 X37.4158 Y-65.5837 F120.00
G01 X37.4967 Y-65.5634 F120.00
G01 X37.5754 Y-65.5352 F120.00
G01 X37.6463 Y-65.5018 F120.00
G01 X37.6550 Y-65.4972 F120.00
G01 X37.7243 Y-65.4554 F120.00
G01 X37.7892 Y-65.4071 F120.00
G01 X37.8475 Y-65.3544 F120.00
G01 X37.8544 Y-65.3475 F120.00
G01 X37.9086 Y-65.2873 F120.00
G01 X37.9567 Y-65.2222 F120.00
G01 X37.9984 Y-65.1528 F120.00
G01 X38.0343 Y-65.0775 F120.00
G01 X38.0444 Y-65.0501 F120.00
G01 X43.8757 Y-65.0501 F120.00
G01 X49.8623 Y-71.0367 F120.00
G01 X49.8841 Y-71.0565 F120.00
G01 X49.9038 Y-71.0712 F120.00
G01 X49.9119 Y-71.0767 F120.00
G01 X49.9331 Y-71.0892 F120.00
G01 X49.9597 Y-71.1018 F120.00
G01 X49.9827 Y-71.1102 F120.00
G01 X49.9921 Y-71.1130 F120.00
G01 X50.0184 Y-71.1193 F120.00
G01 X50.0451 Y-71.1232 F120.00
G01 X50.0745 Y-71.1246 F120.00
G01 X71.6002 Y-71.1246 F120.00
G01 X77.6985 Y-77.2229 F120.00
G01 X77.6776 Y-77.2679 F120.00
G01 X77.6503 Y-77.3441 F120.00
G01 X77.6481 Y-77.3511 F120.00
G01 X77.6273 Y-77.4344 F120.00
G01 X77.6146 Y-77.5193 F120.00
G01 X77.6101 Y-77.6051 F120.00
G01 X77.6101 Y-77.6149 F120.00
G01 X77.6143 Y-77.6982 F120.00
G01 X77.6265 Y-77.7807 F120.00
G01 X77.6278 Y-77.7880 F120.00
G01 X77.6488 Y-77.8713 F120.00
G01 X77.6767 Y-77.9498 F120.00
G01 X77.6805 Y-77.9589 F120.00
G01 X77.7141 Y-78.0299 F120.00
G01 X77.7187 Y-78.0385 F120.00
G01 X77.7617 Y-78.1100 F120.00
G01 X77.8143 Y-78.1810 F120.00
G01 X77.8736 Y-78.2464 F120.00
G01 X77.9372 Y-78.3041 F120.00
G01 X77.9429 Y-78.3087 F120.00
G01 X78.0100 Y-78.3583 F120.00
G01 X78.0815 Y-78.4013 F120.00
G01 X78.0901 Y-78.4059 F120.00
G01 X78.1656 Y-78.4415 F120.00
G01 X78.2441 Y-78.4697 F120.00
G01 X78.2535 Y-78.4726 F120.00
G01 X78.3344 Y-78.4927 F120.00
G01 X78.4218 Y-78.5057 F120.00
G01 X78.5051 Y-78.5099 F120.00
G01 X78.5149 Y-78.5099 F120.00
G01 X78.5982 Y-78.5057 F120.00
G01 X78.6807 Y-78.4935 F120.00
G01 X78.6904 Y-78.4916 F120.00
G01 X78.7713 Y-78.4712 F120.00
G01 X78.8544 Y-78.4415 F120.00
G01 X78.9299 Y-78.4059 F120.00
G01 X78.9385 Y-78.4013 F120.00
G01 X79.0100 Y-78.3583 F120.00
G01 X79.0771 Y-78.3087 F120.00
G01 X79.0847 Y-78.3025 F120.00
G01 X79.1464 Y-78.2464 F120.00
G01 X79.2025 Y-78.1847 F120.00
G01 X79.2087 Y-78.1771 F120.00
G01 X79.2583 Y-78.1100 F120.00
G01 X79.3013 Y-78.0385 F120.00
G01 X79.3059 Y-78.0299 F120.00
G01 X79.3415 Y-77.9544 F120.00
G01 X79.3712 Y-77.8713 F120.00
G01 X79.3916 Y-77.7904 F120.00
G01 X79.3935 Y-77.7807 F120.00
G01 X79.4057 Y-77.6982 F120.00
G01 X79.4100 Y-77.6100 F120.00
G01 X79.4060 Y-77.5267 F120.00
G01 X79.4051 Y-77.5169 F120.00
G01 X79.3927 Y-77.4344 F120.00
G01 X79.3726 Y-77.3535 F120.00
G01 X79.3697 Y-77.3441 F120.00
G01 X79.3415 Y-77.2656 F120.00
G01 X79.3059 Y-77.1901 F120.00
G01 X79.3013 Y-77.1815 F120.00
G01 X79.2583 Y-77.1100 F120.00
G01 X79.2087 Y-77.0429 F120.00
G01 X79.2025 Y-77.0353 F120.00
G01 X79.1446 Y-76.9719 F120.00
G01 X79.0810 Y-76.9143 F120.00
G01 X79.0140 Y-76.8645 F120.00
G01 X79.0059 Y-76.8591 F120.00
G01 X78.9343 Y-76.8163 F120.00
G01 X78.8544 Y-76.7785 F120.00
G01 X78.7759 Y-76.7503 F120.00
G01 X78.7665 Y-76.7474 F120.00
G01 X78.6832 Y-76.7268 F120.00
G01 X78.5982 Y-76.7143 F120.00
G01 X78.5149 Y-76.7101 F120.00
G01 X78.5051 Y-76.7101 F120.00
G01 X78.4193 Y-76.7146 F120.00
G01 X78.3344 Y-76.7273 F120.00
G01 X78.2511 Y-76.7481 F120.00
G01 X78.2441 Y-76.7503 F120.00
G01 X78.1679 Y-76.7776 F120.00
G01 X78.1229 Y-76.7985 F120.00
G01 X71.9367 Y-70.6123 F120.00
G01 X71.9186 Y-70.5957 F120.00
G01 X71.9110 Y-70.5895 F120.00
G01 X71.8912 Y-70.5750 F120.00
G01 X71.8703 Y-70.5623 F120.00
G01 X71.8616 Y-70.5576 F120.00
G01 X71.8394 Y-70.5473 F120.00
G01 X71.8116 Y-70.5373 F120.00
G01 X71.7879 Y-70.5313 F120.00
G01 X71.7782 Y-70.5293 F120.00
G01 X71.7539 Y-70.5259 F120.00
G01 X71.7245 Y-70.5244 F120.00
G01 X50.1988 Y-70.5244 F120.00
G01 X44.2122 Y-64.5378 F120.00
G01 X44.1904 Y-64.5180 F120.00
G01 X44.1667 Y-64.5005 F120.00
G01 X44.1415 Y-64.4853 F120.00
G01 X44.1148 Y-64.4727 F120.00
G01 X44.0871 Y-64.4628 F120.00
G01 X44.0585 Y-64.4557 F120.00
G01 X44.0294 Y-64.4513 F120.00
G01 X44.0000 Y-64.4499 F120.00
G01 X38.0444 Y-64.4499 F120.00
G01 X38.0343 Y-64.4225 F120.00
G01 X37.9984 Y-64.3472 F120.00
G01 X37.9567 Y-64.2778 F120.00
G01 X37.9086 Y-64.2127 F120.00
G01 X37.8544 Y-64.1525 F120.00
G01 X37.8475 Y-64.1456 F120.00
G01 X37.7892 Y-64.0929 F120.00
G01 X37.7243 Y-64.0446 F120.00
G01 X37.6550 Y-64.0028 F120.00
G01 X37.6463 Y-63.9982 F120.00
G01 X37.5753 Y-63.9647 F120.00
G01 X37.4967 Y-63.9366 F120.00
G01 X37.4158 Y-63.9163 F120.00
G01 X37.3382 Y-63.9047 F120.00
G01 X37.3284 Y-63.9037 F120.00
G01 X37.2475 Y-63.9000 F120.00
G01 X37.1667 Y-63.9041 F120.00
G01 X37.0842 Y-63.9163 F120.00
G01 X37.0033 Y-63.9366 F120.00
G01 X36.9246 Y-63.9648 F120.00
G01 X36.8493 Y-64.0004 F120.00
G01 X36.7778 Y-64.0433 F120.00
G01 X36.7108 Y-64.0929 F120.00
G01 X36.6490 Y-64.1490 F120.00
G01 X36.5929 Y-64.2108 F120.00
G01 X36.5433 Y-64.2778 F120.00
G01 X36.5004 Y-64.3493 F120.00
G01 X36.4647 Y-64.4247 F120.00
G01 X36.4366 Y-64.5033 F120.00
G01 X36.4163 Y-64.5842 F120.00
G01 X36.4041 Y-64.6667 F120.00
G01 X36.4000 Y-64.7500 F120.00
G00 Z0.2500
G00 X41.9500 Y-60.2000
G01 F60.00
G01 Z0.0000
G01 F120.00
G01 X41.9513 Y-60.2294 F120.00
G01 X41.9523 Y-60.2392 F120.00
G01 X41.9567 Y-60.2683 F120.00
G01 X41.9638 Y-60.2969 F120.00
G01 X41.9666 Y-60.3063 F120.00
G01 X41.9767 Y-60.3341 F120.00
G01 X41.9913 Y-60.3650 F120.00
G01 X42.0064 Y-60.3903 F120.00
G01 X42.0118 Y-60.3985 F120.00
G01 X42.0294 Y-60.4220 F120.00
G01 X42.0491 Y-60.4439 F120.00
G01 X42.0561 Y-60.4509 F120.00
G01 X42.0780 Y-60.4706 F120.00
G01 X42.1056 Y-60.4910 F120.00
G01 X42.1350 Y-60.5087 F120.00
G01 X42.1661 Y-60.5234 F120.00
G01 X42.1984 Y-60.5349 F120.00
G01 X42.2269 Y-60.5422 F120.00
G01 X42.2366 Y-60.5441 F120.00
G01 X42.2657 Y-60.5483 F120.00
G01 X42.2975 Y-60.5500 F120.00
G01 X42.4748 Y-60.5500 F120.00
G01 X42.4748 Y-61.6067 F120.00
G01 X42.4480 Y-61.6231 F120.00
G01 X42.3810 Y-61.6728 F120.00
G01 X42.3753 Y-61.6775 F120.00
G01 X42.3154 Y-61.7319 F120.00
G01 X42.3102 Y-61.7372 F120.00
G01 X42.2543 Y-61.7990 F120.00
G01 X42.2045 Y-61.8660 F120.00
G01 X42.2003 Y-61.8720 F120.00
G01 X42.1587 Y-61.9415 F120.00
G01 X42.1541 Y-61.9501 F120.00
G01 X42.1185 Y-62.0256 F120.00
G01 X42.0903 Y-62.1041 F120.00
G01 X42.0874 Y-62.1135 F120.00
G01 X42.0673 Y-62.1944 F120.00
G01 X42.0543 Y-62.2818 F120.00
G01 X42.0500 Y-62.3700 F120.00
G01 X42.0543 Y-62.4582 F120.00
G01 X42.0673 Y-62.5456 F120.00
G01 X42.0888 Y-62.6313 F120.00
G01 X42.1185 Y-62.7144 F120.00
G01 X42.1563 Y-62.7943 F120.00
G01 X42.2017 Y-62.8700 F120.00
G01 X42.2543 Y-62.9410 F120.00
G01 X42.3102 Y-63.0028 F120.00
G01 X42.3172 Y-63.0098 F120.00
G01 X42.3790 Y-63.0657 F120.00
G01 X42.4500 Y-63.1183 F120.00
G01 X42.5215 Y-63.1613 F120.00
G01 X42.5301 Y-63.1659 F120.00
G01 X42.6056 Y-63.2015 F120.00
G01 X42.6864 Y-63.2305 F120.00
G01 X42.7696 Y-63.2516 F120.00
G01 X42.7793 Y-63.2535 F120.00
G01 X42.8618 Y-63.2657 F120.00
G01 X42.9475 Y-63.2700 F120.00
G01 X42.9549 Y-63.2699 F120.00
G01 X43.0407 Y-63.2654 F120.00
G01 X43.1232 Y-63.2532 F120.00
G01 X43.1538 Y-63.2458 F120.00
G01 X50.2440 Y-70.3360 F120.00
G01 X50.2748 Y-70.3641 F120.00
G01 X50.2824 Y-70.3703 F120.00
G01 X50.3160 Y-70.3951 F120.00
G01 X50.3517 Y-70.4167 F120.00
G01 X50.3604 Y-70.4213 F120.00
G01 X50.3982 Y-70.4390 F120.00
G01 X50.4421 Y-70.4547 F120.00
G01 X50.4873 Y-70.4661 F120.00
G01 X50.5286 Y-70.4723 F120.00
G01 X50.5383 Y-70.4733 F120.00
G01 X50.5800 Y-70.4752 F120.00
G01 X76.8032 Y-70.4752 F120.00
G01 X81.5248 Y-75.1968 F120.00
G01 X81.5248 Y-80.8284 F120.00
G01 X81.4702 Y-80.8615 F120.00
G01 X81.4012 Y-80.9126 F120.00
G01 X81.3954 Y-80.9172 F120.00
G01 X81.3282 Y-80.9782 F120.00
G01 X81.2672 Y-81.0454 F120.00
G01 X81.2129 Y-81.1182 F120.00
G01 X81.2075 Y-81.1264 F120.00
G01 X81.1622 Y-81.2022 F120.00
G01 X81.1233 Y-81.2842 F120.00
G01 X81.0924 Y-81.3696 F120.00
G01 X81.0896 Y-81.3790 F120.00
G01 X81.0683 Y-81.4647 F120.00
G01 X81.0546 Y-81.5569 F120.00
G01 X81.0500 Y-81.6500 F120.00
G01 X81.0542 Y-81.7382 F120.00
G01 X81.0552 Y-81.7480 F120.00
G01 X81.0683 Y-81.8353 F120.00
G01 X81.0909 Y-81.9258 F120.00
G01 X81.1223 Y-82.0135 F120.00
G01 X81.1622 Y-82.0979 F120.00
G01 X81.2075 Y-82.1736 F120.00
G01 X81.2129 Y-82.1818 F120.00
G01 X81.2626 Y-82.2488 F120.00
G01 X81.2688 Y-82.2564 F120.00
G01 X81.3282 Y-82.3218 F120.00
G01 X81.3936 Y-82.3812 F120.00
G01 X81.3992 Y-82.3859 F120.00
G01 X81.4722 Y-82.4399 F120.00
G01 X81.5479 Y-82.4854 F120.00
G01 X81.5566 Y-82.4900 F120.00
G01 X81.6365 Y-82.5277 F120.00
G01 X81.7196 Y-82.5576 F120.00
G01 X81.7290 Y-82.5604 F120.00
G01 X81.8123 Y-82.5812 F120.00
G01 X81.8195 Y-82.5826 F120.00
G01 X81.9069 Y-82.5954 F120.00
G01 X81.9951 Y-82.5999 F120.00
G01 X82.0025 Y-82.6000 F120.00
G01 X82.0882 Y-82.5958 F120.00
G01 X82.0980 Y-82.5948 F120.00
G01 X82.1853 Y-82.5817 F120.00
G01 X82.2449 Y-82.5669 F120.00
G01 X83.2748 Y-83.5968 F120.00
G01 X83.2748 Y-100.9332 F120.00
G01 X82.2449 Y-101.9631 F120.00
G01 X82.1829 Y-101.9478 F120.00
G01 X82.0980 Y-101.9352 F120.00
G01 X82.0907 Y-101.9344 F120.00
G01 X82.0000 Y-101.9300 F120.00
G01 X81.9118 Y-101.9342 F120.00
G01 X81.9044 Y-101.9348 F120.00
G01 X81.8147 Y-101.9483 F120.00
G01 X81.7242 Y-101.9709 F120.00
G01 X81.6365 Y-102.0023 F120.00
G01 X81.5566 Y-102.0400 F120.00
G01 X81.5500 Y-102.0434 F120.00
G01 X81.4722 Y-102.0901 F120.00
G01 X81.3973 Y-102.1456 F120.00
G01 X81.3282 Y-102.2082 F120.00
G01 X81.2656 Y-102.2773 F120.00
G01 X81.2101 Y-102.3522 F120.00
G01 X81.1622 Y-102.4322 F120.00
G01 X81.1223 Y-102.5165 F120.00
G01 X81.0916 Y-102.6019 F120.00
G01 X81.0896 Y-102.6090 F120.00
G01 X81.0683 Y-102.6947 F120.00
G01 X81.0552 Y-102.7820 F120.00
G01 X81.0542 Y-102.7918 F120.00
G01 X81.0501 Y-102.8751 F120.00
G01 X81.0501 Y-102.8849 F120.00
G01 X81.0546 Y-102.9731 F120.00
G01 X81.0683 Y-103.0653 F120.00
G01 X81.0909 Y-103.1558 F120.00
G01 X81.1214 Y-103.2413 F120.00
G01 X81.1243 Y-103.2480 F120.00
G01 X81.1622 Y-103.3279 F120.00
G01 X81.2075 Y-103.4036 F120.00
G01 X81.2129 Y-103.4118 F120.00
G01 X81.2672 Y-103.4846 F120.00
G01 X81.3282 Y-103.5518 F120.00
G01 X81.3954 Y-103.6128 F120.00
G01 X81.4012 Y-103.6174 F120.00
G01 X81.4702 Y-103.6685 F120.00
G01 X81.5248 Y-103.7016 F120.00
G01 X81.5248 Y-104.5984 F120.00
G01 X81.4722 Y-104.6301 F120.00
G01 X81.3992 Y-104.6841 F120.00
G01 X81.3936 Y-104.6888 F120.00
G01 X81.3265 Y-104.7500 F120.00
G01 X81.2656 Y-104.8173 F120.00
G01 X81.2129 Y-104.8882 F120.00
G01 X81.2075 Y-104.8964 F120.00
G01 X81.1634 Y-104.9700 F120.00
G01 X81.1600 Y-104.9766 F120.00
G01 X81.1223 Y-105.0565 F120.00
G01 X81.0924 Y-105.1396 F120.00
G01 X81.0896 Y-105.1490 F120.00
G01 X81.0683 Y-105.2347 F120.00
G01 X81.0552 Y-105.3220 F120.00
G01 X81.0542 Y-105.3318 F120.00
G01 X81.0500 Y-105.4200 F120.00
G01 X81.0542 Y-105.5082 F120.00
G01 X81.0552 Y-105.5180 F120.00
G01 X81.0683 Y-105.6053 F120.00
G01 X81.0896 Y-105.6910 F120.00
G01 X81.0924 Y-105.7004 F120.00
G01 X81.1223 Y-105.7835 F120.00
G01 X81.1600 Y-105.8634 F120.00
G01 X81.1634 Y-105.8700 F120.00
G01 X81.2101 Y-105.9478 F120.00
G01 X81.2626 Y-106.0188 F120.00
G01 X81.2688 Y-106.0264 F120.00
G01 X81.3265 Y-106.0900 F120.00
G01 X81.3318 Y-106.0951 F120.00
G01 X81.3992 Y-106.1559 F120.00
G01 X81.4722 Y-106.2099 F120.00
G01 X81.5248 Y-106.2416 F120.00
G01 X81.5248 Y-107.1384 F120.00
G01 X81.4722 Y-107.1701 F120.00
G01 X81.3992 Y-107.2241 F120.00
G01 X81.3936 Y-107.2288 F120.00
G01 X81.3265 Y-107.2900 F120.00
G01 X81.2656 Y-107.3573 F120.00
G01 X81.2129 Y-107.4282 F120.00
G01 X81.2075 Y-107.4364 F120.00
G01 X81.1610 Y-107.5144 F120.00
G01 X81.1223 Y-107.5965 F120.00
G01 X81.0924 Y-107.6796 F120.00
G01 X81.0896 Y-107.6890 F120.00
G01 X81.0683 Y-107.7747 F120.00
G01 X81.0552 Y-107.8620 F120.00
G01 X81.0542 Y-107.8718 F120.00
G01 X81.0500 Y-107.9600 F120.00
G01 X81.0542 Y-108.0482 F120.00
G01 X81.0552 Y-108.0580 F120.00
G01 X81.0683 Y-108.1453 F120.00
G01 X81.0896 Y-108.2310 F120.00
G01 X81.0924 Y-108.2404 F120.00
G01 X81.1223 Y-108.3235 F120.00
G01 X81.1600 Y-108.4034 F120.00
G01 X81.1646 Y-108.4121 F120.00
G01 X81.2088 Y-108.4857 F120.00
G01 X81.2129 Y-108.4918 F120.00
G01 X81.2656 Y-108.5627 F120.00
G01 X81.3249 Y-108.6282 F120.00
G01 X81.3300 Y-108.6335 F120.00
G01 X81.3936 Y-108.6912 F120.00
G01 X81.4012 Y-108.6974 F120.00
G01 X81.4722 Y-108.7499 F120.00
G01 X81.5248 Y-108.7816 F120.00
G01 X81.5248 Y-109.6784 F120.00
G01 X81.4702 Y-109.7115 F120.00
G01 X81.4012 Y-109.7626 F120.00
G01 X81.3954 Y-109.7672 F120.00
G01 X81.3282 Y-109.8282 F120.00
G01 X81.2672 Y-109.8954 F120.00
G01 X81.2129 Y-109.9682 F120.00
G01 X81.2075 Y-109.9764 F120.00
G01 X81.1622 Y-110.0522 F120.00
G01 X81.1223 Y-110.1365 F120.00
G01 X81.0909 Y-110.2242 F120.00
G01 X81.0693 Y-110.3099 F120.00
G01 X81.0674 Y-110.3195 F120.00
G01 X81.0544 Y-110.4093 F120.00
G01 X81.0500 Y-110.5000 F120.00
G01 X81.0544 Y-110.5907 F120.00
G01 X81.0552 Y-110.5980 F120.00
G01 X81.0678 Y-110.6829 F120.00
G01 X81.0831 Y-110.7449 F120.00
G01 X79.5532 Y-112.2748 F120.00
G01 X69.9510 Y-112.2748 F120.00
G01 X69.9044 Y-112.2771 F120.00
G01 X69.8607 Y-112.2835 F120.00
G01 X69.8178 Y-112.2940 F120.00
G01 X69.8084 Y-112.2968 F120.00
G01 X69.7691 Y-112.3110 F120.00
G01 X69.7270 Y-112.3309 F120.00
G01 X69.6911 Y-112.3523 F120.00
G01 X69.6830 Y-112.3577 F120.00
G01 X69.6495 Y-112.3827 F120.00
G01 X69.6167 Y-112.4123 F120.00
G01 X67.7255 Y-114.3035 F120.00
G01 X66.2497 Y-112.8277 F120.00
G01 X66.2497 Y-104.9620 F120.00
G01 X66.2474 Y-104.9154 F120.00
G01 X66.2406 Y-104.8693 F120.00
G01 X66.2292 Y-104.8241 F120.00
G01 X66.2135 Y-104.7802 F120.00
G01 X66.1936 Y-104.7380 F120.00
G01 X66.1696 Y-104.6980 F120.00
G01 X66.1418 Y-104.6606 F120.00
G01 X66.1122 Y-104.6278 F120.00
G01 X64.2625 Y-102.7780 F120.00
G01 X64.2625 Y-101.6475 F120.00
G01 X64.2617 Y-101.6378 F120.00
G01 X64.2601 Y-101.6281 F120.00
G01 X64.2575 Y-101.6186 F120.00
G01 X64.2529 Y-101.6072 F120.00
G01 X64.2483 Y-101.5986 F120.00
G01 X64.2428 Y-101.5904 F120.00
G01 X64.2349 Y-101.5810 F120.00
G01 X64.2278 Y-101.5743 F120.00
G01 X64.2221 Y-101.5697 F120.00
G01 X64.2139 Y-101.5642 F120.00
G01 X64.2053 Y-101.5596 F120.00
G01 X64.1985 Y-101.5567 F120.00
G01 X64.1915 Y-101.5543 F120.00
G01 X64.1820 Y-101.5519 F120.00
G01 X64.1747 Y-101.5508 F120.00
G01 X64.1650 Y-101.5500 F120.00
G01 X62.4600 Y-101.5500 F120.00
G01 X62.4503 Y-101.5508 F120.00
G01 X62.4406 Y-101.5524 F120.00
G01 X62.4335 Y-101.5543 F120.00
G01 X62.4242 Y-101.5576 F120.00
G01 X62.4154 Y-101.5618 F120.00
G01 X62.4069 Y-101.5669 F120.00
G01 X62.4010 Y-101.5712 F120.00
G01 X62.3935 Y-101.5776 F120.00
G01 X62.3868 Y-101.5847 F120.00
G01 X62.3807 Y-101.5924 F120.00
G01 X62.3755 Y-101.6007 F120.00
G01 X62.3721 Y-101.6072 F120.00
G01 X62.3683 Y-101.6163 F120.00
G01 X62.3655 Y-101.6257 F120.00
G01 X62.3636 Y-101.6353 F120.00
G01 X62.3626 Y-101.6451 F120.00
G01 X62.3625 Y-103.3500 F120.00
G01 X62.3628 Y-103.3574 F120.00
G01 X62.3640 Y-103.3671 F120.00
G01 X62.3661 Y-103.3767 F120.00
G01 X62.3683 Y-103.3837 F120.00
G01 X62.3721 Y-103.3928 F120.00
G01 X62.3755 Y-103.3993 F120.00
G01 X62.3794 Y-103.4056 F120.00
G01 X62.3837 Y-103.4115 F120.00
G01 X62.3918 Y-103.4207 F120.00
G01 X62.3991 Y-103.4273 F120.00
G01 X62.4069 Y-103.4331 F120.00
G01 X62.4175 Y-103.4393 F120.00
G01 X62.4288 Y-103.4442 F120.00
G01 X62.4382 Y-103.4470 F120.00
G01 X62.4503 Y-103.4492 F120.00
G01 X62.4600 Y-103.4500 F120.00
G01 X63.5905 Y-103.4500 F120.00
G01 X65.2993 Y-105.1588 F120.00
G01 X65.2993 Y-113.0245 F120.00
G01 X65.3013 Y-113.0662 F120.00
G01 X65.3022 Y-113.0760 F120.00
G01 X65.3085 Y-113.1172 F120.00
G01 X65.3185 Y-113.1577 F120.00
G01 X65.3213 Y-113.1671 F120.00
G01 X65.3355 Y-113.2064 F120.00
G01 X65.3554 Y-113.2485 F120.00
G01 X65.3768 Y-113.2844 F120.00
G01 X65.3822 Y-113.2925 F120.00
G01 X65.4042 Y-113.3221 F120.00
G01 X65.4104 Y-113.3297 F120.00
G01 X65.4385 Y-113.3605 F120.00
G01 X66.6273 Y-114.5493 F120.00
G01 X57.9713 Y-114.5493 F120.00
G01 X56.4752 Y-113.0532 F120.00
G01 X56.4752 Y-105.1875 F120.00
G01 X56.4729 Y-105.1409 F120.00
G01 X56.4655 Y-105.0924 F120.00
G01 X56.4547 Y-105.0496 F120.00
G01 X56.4408 Y-105.0102 F120.00
G01 X56.4370 Y-105.0012 F120.00
G01 X56.4191 Y-104.9635 F120.00
G01 X56.3977 Y-104.9276 F120.00
G01 X56.3923 Y-104.9195 F120.00
G01 X56.3673 Y-104.8860 F120.00
G01 X56.3377 Y-104.8532 F120.00
G01 X54.2625 Y-102.7780 F120.00
G01 X54.2625 Y-102.2220 F120.00
G01 X55.9860 Y-100.4985 F120.00
G01 X56.0141 Y-100.4677 F120.00
G01 X56.0203 Y-100.4601 F120.00
G01 X56.0451 Y-100.4265 F120.00
G01 X56.0667 Y-100.3908 F120.00
G01 X56.0713 Y-100.3821 F120.00
G01 X56.0870 Y-100.3488 F120.00
G01 X56.0908 Y-100.3398 F120.00
G01 X56.1047 Y-100.3004 F120.00
G01 X56.1161 Y-100.2552 F120.00
G01 X56.1229 Y-100.2091 F120.00
G01 X56.1252 Y-100.1650 F120.00
G01 X56.1252 Y-83.6250 F120.00
G01 X56.2750 Y-83.6250 F120.00
G01 X56.3093 Y-83.6233 F120.00
G01 X56.3384 Y-83.6191 F120.00
G01 X56.3481 Y-83.6172 F120.00
G01 X56.3766 Y-83.6099 F120.00
G01 X56.4089 Y-83.5984 F120.00
G01 X56.4400 Y-83.5837 F120.00
G01 X56.4694 Y-83.5660 F120.00
G01 X56.4970 Y-83.5456 F120.00
G01 X56.5189 Y-83.5259 F120.00
G01 X56.5259 Y-83.5189 F120.00
G01 X56.5440 Y-83.4989 F120.00
G01 X56.5486 Y-83.4932 F120.00
G01 X56.5660 Y-83.4694 F120.00
G01 X56.5848 Y-83.4378 F120.00
G01 X56.5984 Y-83.4089 F120.00
G01 X56.6084 Y-83.3813 F120.00
G01 X56.6112 Y-83.3719 F120.00
G01 X56.6183 Y-83.3433 F120.00
G01 X56.6227 Y-83.3142 F120.00
G01 X56.6235 Y-83.3069 F120.00
G01 X56.6249 Y-83.2799 F120.00
G01 X56.6250 Y-82.6500 F120.00
G01 X56.6235 Y-82.6181 F120.00
G01 X56.6191 Y-82.5866 F120.00
G01 X56.6172 Y-82.5769 F120.00
G01 X56.6099 Y-82.5484 F120.00
G01 X56.5983 Y-82.5159 F120.00
G01 X56.5837 Y-82.4850 F120.00
G01 X56.5686 Y-82.4597 F120.00
G01 X56.5646 Y-82.4535 F120.00
G01 X56.5486 Y-82.4318 F120.00
G01 X56.5423 Y-82.4242 F120.00
G01 X56.5225 Y-82.4025 F120.00
G01 X56.4970 Y-82.3794 F120.00
G01 X56.4694 Y-82.3590 F120.00
G01 X56.4443 Y-82.3437 F120.00
G01 X56.4378 Y-82.3402 F120.00
G01 X56.4134 Y-82.3286 F120.00
G01 X56.4044 Y-82.3249 F120.00
G01 X56.3766 Y-82.3151 F120.00
G01 X56.3433 Y-82.3067 F120.00
G01 X56.3093 Y-82.3017 F120.00
G01 X56.2750 Y-82.3000 F120.00
G01 X55.0250 Y-82.3000 F120.00
G01 X54.9931 Y-82.3015 F120.00
G01 X54.9616 Y-82.3059 F120.00
G01 X54.9519 Y-82.3078 F120.00
G01 X54.9234 Y-82.3151 F120.00
G01 X54.8911 Y-82.3266 F120.00
G01 X54.8600 Y-82.3413 F120.00
G01 X54.8347 Y-82.3564 F120.00
G01 X54.8265 Y-82.3618 F120.00
G01 X54.8030 Y-82.3794 F120.00
G01 X54.7775 Y-82.4025 F120.00
G01 X54.7577 Y-82.4242 F120.00
G01 X54.7514 Y-82.4318 F120.00
G01 X54.7340 Y-82.4556 F120.00
G01 X54.7187 Y-82.4807 F120.00
G01 X54.7141 Y-82.4894 F120.00
G01 X54.7016 Y-82.5161 F120.00
G01 X54.6908 Y-82.5461 F120.00
G01 X54.6828 Y-82.5769 F120.00
G01 X54.6809 Y-82.5866 F120.00
G01 X54.6767 Y-82.6157 F120.00
G01 X54.6750 Y-82.6475 F120.00
G01 X54.6750 Y-83.2750 F120.00
G01 X54.6767 Y-83.3093 F120.00
G01 X54.6809 Y-83.3384 F120.00
G01 X54.6828 Y-83.3481 F120.00
G01 X54.6901 Y-83.3766 F120.00
G01 X54.6999 Y-83.4044 F120.00
G01 X54.7036 Y-83.4134 F120.00
G01 X54.7163 Y-83.4400 F120.00
G01 X54.7340 Y-83.4694 F120.00
G01 X54.7514 Y-83.4932 F120.00
G01 X54.7577 Y-83.5008 F120.00
G01 X54.7775 Y-83.5225 F120.00
G01 X54.7992 Y-83.5423 F120.00
G01 X54.8068 Y-83.5486 F120.00
G01 X54.8285 Y-83.5646 F120.00
G01 X54.8600 Y-83.5837 F120.00
G01 X54.8911 Y-83.5984 F120.00
G01 X54.9234 Y-83.6099 F120.00
G01 X54.9591 Y-83.6187 F120.00
G01 X54.9907 Y-83.6233 F120.00
G01 X55.0225 Y-83.6250 F120.00
G01 X55.1748 Y-83.6250 F120.00
G01 X55.1748 Y-99.9657 F120.00
G01 X53.5905 Y-101.5500 F120.00
G01 X52.4600 Y-101.5500 F120.00
